P3
200 112
255
219 234 254
219 234 254
219 234 254
219 234 254
219 234 254
219 234 254
219 234 254
219 234 254
219 234 254
219 234 254
219 234 254
219 234 254
219 234 254
219 234 254
219 234 254
219 234 254
219 234 254
219 234 254
219 234 254
219 234 254
219 234 254
219 234 254
219 234 254
219 234 254
219 234 254
219 234 254
219 234 254
219 234 254
219 234 254
219 234 254
219 234 254
219 234 254
219 234 254
219 234 254
219 234 254
219 234 254
219 234 254
219 234 254
219 234 254
219 234 254
219 234 254
219 234 254
219 234 254
219 234 254
219 234 254
219 234 254
219 234 254
219 234 254
219 234 254
219 234 254
219 234 254
219 234 254
219 234 254
219 234 254
219 234 254
219 234 254
219 234 254
219 234 254
219 234 254
219 234 254
219 234 254
219 234 254
219 234 254
219 234 254
219 234 254
219 234 254
219 234 254
219 234 254
219 234 254
219 234 254
219 234 254
219 234 254
219 234 254
219 234 254
219 234 254
219 234 254
219 234 254
219 234 254
219 234 254
219 234 254
219 234 254
219 234 254
219 234 254
219 234 254
219 234 254
219 234 254
219 234 254
219 234 254
219 234 254
219 234 254
219 234 254
219 234 254
219 234 254
219 234 254
219 234 254
219 234 254
219 234 254
219 234 254
219 234 254
219 234 254
219 234 254
219 234 254
219 234 254
219 234 254
219 234 254
219 234 254
219 234 254
219 234 254
219 234 254
219 234 254
219 234 254
219 234 254
219 234 254
219 234 254
219 234 254
219 234 254
219 234 254
219 234 254
219 234 254
219 234 254
219 234 254
219 234 254
219 234 254
219 234 254
219 234 254
219 234 254
219 234 254
219 234 254
219 234 254
219 234 254
219 234 254
219 234 254
219 234 254
219 234 254
219 234 254
219 234 254
219 234 254
219 234 254
219 234 254
219 234 254
219 234 254
219 234 254
219 234 254
219 234 254
219 234 254
219 234 254
219 234 254
219 234 254
219 234 254
219 234 254
219 234 254
219 234 254
219 234 254
219 234 254
219 234 254
219 234 254
219 234 254
219 234 254
219 234 254
219 234 254
219 234 254
219 234 254
219 234 254
219 234 254
219 234 254
219 234 254
219 234 254
219 234 254
219 234 254
219 234 254
219 234 254
219 234 254
219 234 254
219 234 254
219 234 254
219 234 254
219 234 254
219 234 254
219 234 254
219 234 254
219 234 254
219 234 254
219 234 254
219 234 254
219 234 254
219 234 254
219 234 254
219 234 254
219 234 254
219 234 254
219 234 254
219 234 254
219 234 254
219 234 254
219 234 254
219 234 254
219 234 254
219 234 254
219 234 254
219 234 254
220 234 254
220 234 254
220 234 254
220 234 254
220 234 254
220 234 254
220 234 254
220 234 254
220 234 254
220 234 254
220 234 254
220 234 254
220 234 254
220 234 254
220 234 254
220 234 254
220 234 254
220 234 254
220 234 254
220 234 254
220 234 254
220 234 254
220 234 254
220 234 254
220 234 254
220 234 254
220 234 254
220 234 254
220 234 254
220 234 254
220 234 254
220 234 254
220 234 254
220 234 254
220 234 254
220 234 254
220 234 254
220 234 254
220 234 254
220 234 254
220 234 254
220 234 254
220 234 254
220 234 254
220 234 254
220 234 254
220 234 254
220 234 254
220 234 254
220 234 254
220 234 254
220 234 254
220 234 254
220 234 254
220 234 254
220 234 254
220 234 254
220 234 254
220 234 254
220 234 254
220 234 254
220 234 254
220 234 254
220 234 254
220 234 254
220 234 254
220 234 254
220 234 254
220 234 254
220 234 254
220 234 254
220 234 254
220 234 254
220 234 254
220 234 254
220 234 254
220 234 254
220 234 254
220 234 254
220 234 254
220 234 254
220 234 254
220 234 254
220 234 254
220 234 254
220 234 254
220 234 254
220 234 254
220 234 254
220 234 254
220 234 254
220 234 254
220 234 254
220 234 254
220 234 254
220 234 254
220 234 254
220 234 254
220 234 254
220 234 254
220 234 254
220 234 254
220 234 254
220 234 254
220 234 254
220 234 254
220 234 254
220 234 254
220 234 254
220 234 254
220 234 254
220 234 254
220 234 254
220 234 254
220 234 254
220 234 254
220 234 254
220 234 254
220 234 254
220 234 254
220 234 254
220 234 254
220 234 254
220 234 254
220 234 254
220 234 254
220 234 254
220 234 254
220 234 254
220 234 254
220 234 254
220 234 254
220 234 254
220 234 254
220 234 254
220 234 254
220 234 254
220 234 254
220 234 254
220 234 254
220 234 254
220 234 254
220 234 254
220 234 254
220 234 254
220 234 254
220 234 254
220 234 254
220 234 254
220 234 254
220 234 254
220 234 254
220 234 254
220 234 254
220 234 254
220 234 254
220 234 254
220 234 254
220 234 254
220 234 254
220 234 254
220 234 254
220 234 254
220 234 254
220 234 254
220 234 254
220 234 254
220 234 254
220 234 254
220 234 254
220 234 254
220 234 254
220 234 254
220 234 254
220 234 254
220 234 254
220 234 254
220 234 254
220 234 254
220 234 254
220 234 254
220 234 254
220 234 254
220 234 254
220 234 254
220 234 254
220 234 254
220 234 254
220 234 254
220 234 254
220 234 254
220 234 254
220 234 254
220 234 254
220 234 254
220 234 254
220 234 254
220 234 254
220 234 254
220 234 254
220 234 254
220 234 254
220 234 254
220 234 254
220 234 254
220 234 254
220 234 254
220 234 254
220 234 254
220 234 254
220 234 254
220 234 254
220 234 254
220 234 254
220 234 254
220 234 254
220 234 254
220 234 254
220 234 254
220 234 254
220 234 254
220 234 254
220 234 254
220 234 254
220 234 254
220 234 254
220 234 254
220 234 254
220 234 254
220 234 254
220 234 254
220 234 254
220 234 254
220 234 254
220 234 254
220 234 254
220 234 254
220 234 254
220 234 254
220 234 254
220 234 254
220 234 254
220 234 254
220 234 254
220 234 254
220 234 254
220 234 254
220 234 254
220 234 254
220 234 254
220 234 254
220 234 254
220 234 254
220 234 254
220 234 254
220 234 254
220 234 254
220 234 254
220 234 254
220 234 254
220 234 254
220 234 254
220 234 254
220 234 254
220 234 254
220 234 254
220 234 254
220 234 254
220 234 254
220 234 254
220 234 254
220 234 254
220 234 254
220 234 254
220 234 254
220 234 254
220 234 254
220 234 254
220 234 254
220 234 254
220 234 254
220 234 254
220 234 254
220 234 254
220 234 254
220 234 254
220 234 254
220 234 254
220 234 254
220 234 254
220 234 254
220 234 254
220 234 254
220 234 254
220 234 254
220 234 254
220 234 254
220 234 254
220 234 254
220 234 254
220 234 254
220 234 254
220 234 254
220 234 254
220 234 254
220 234 254
220 234 254
220 234 254
220 234 254
220 234 254
220 234 254
220 234 254
220 234 254
220 234 254
220 234 254
220 234 254
220 234 254
220 234 254
220 234 254
220 234 254
220 234 254
220 234 254
220 234 254
220 234 254
220 234 254
220 234 254
220 234 254
220 234 254
220 234 254
220 234 254
220 234 254
220 234 254
220 234 254
220 234 254
220 234 254
220 234 254
220 234 254
220 234 254
220 234 254
220 234 254
220 234 254
220 234 254
220 234 254
220 234 254
220 234 254
220 234 254
220 234 254
220 234 254
220 234 254
220 234 254
220 234 254
220 234 254
220 234 254
220 234 254
220 234 254
220 234 254
220 234 254
220 234 254
220 234 254
220 234 254
220 234 254
220 234 254
220 234 254
220 234 254
220 234 254
220 234 254
220 234 254
220 234 254
220 234 254
220 234 254
220 234 254
220 234 254
220 234 254
220 234 254
220 234 254
220 234 254
220 234 254
220 234 254
220 234 254
220 234 254
220 234 254
220 234 254
220 234 254
220 234 254
220 234 254
220 234 254
220 234 254
220 234 254
220 234 254
220 234 254
220 234 254
220 234 254
220 234 254
220 234 254
220 234 254
220 234 254
220 234 254
220 234 254
220 234 254
220 234 254
220 234 254
220 234 254
220 234 254
220 234 254
220 234 254
220 234 254
220 234 254
220 234 254
220 234 254
220 234 254
220 234 254
220 234 254
220 234 254
220 234 254
220 234 254
220 234 254
220 234 254
220 234 254
220 234 254
220 234 254
220 234 254
220 234 254
220 234 254
220 234 254
220 234 254
220 234 254
220 234 254
220 234 254
220 234 254
220 234 254
220 234 254
220 234 254
220 234 254
220 234 254
220 234 254
220 234 254
220 234 254
220 234 254
220 234 254
220 234 254
220 234 254
220 234 254
220 234 254
220 234 254
220 234 254
220 234 254
220 234 254
220 234 254
220 234 254
220 234 254
220 234 254
220 234 254
220 234 254
220 234 254
220 234 254
220 234 254
220 234 254
220 234 254
220 234 254
220 234 254
220 234 254
220 234 254
220 234 254
220 234 254
220 234 254
220 234 254
220 234 254
220 234 254
220 234 254
220 234 254
220 234 254
220 234 254
220 234 254
220 234 254
220 234 254
220 234 254
220 234 254
220 234 254
220 234 254
220 234 254
220 234 254
220 234 254
220 234 254
220 234 254
220 234 254
220 234 254
220 234 254
220 234 254
220 234 254
220 234 254
220 234 254
220 234 254
220 234 254
220 234 254
220 234 254
220 234 254
220 234 254
220 234 254
220 234 254
220 234 254
220 234 254
220 234 254
220 234 254
220 234 254
220 234 254
220 234 254
220 234 254
220 234 254
220 234 254
220 234 254
220 234 254
220 234 254
220 234 254
220 234 254
220 234 254
220 234 254
220 234 254
220 234 254
220 234 254
220 234 254
220 234 254
220 234 254
220 234 254
220 234 254
220 234 254
220 234 254
220 234 254
220 234 254
220 234 254
220 234 254
220 234 254
220 234 254
220 234 254
220 234 254
220 234 254
220 234 254
220 234 254
220 234 254
220 234 254
220 234 254
220 234 254
220 234 254
220 234 254
220 234 254
220 234 254
220 234 254
220 234 254
220 234 254
220 234 254
220 234 254
220 234 254
220 234 254
220 234 254
220 234 254
220 234 254
220 234 254
220 234 254
220 234 254
220 234 254
220 234 254
220 234 254
220 234 254
220 234 254
220 234 254
220 234 254
220 234 254
220 234 254
220 234 254
220 234 254
220 234 254
220 234 254
220 234 254
220 234 254
220 234 254
220 234 254
220 234 254
220 234 254
220 234 254
220 234 254
220 234 254
220 234 254
220 234 254
220 234 254
220 234 254
220 234 254
220 234 254
220 234 254
220 234 254
220 234 254
220 234 254
220 234 254
220 234 254
220 234 254
220 234 254
220 234 254
220 234 254
220 234 254
220 234 254
220 234 254
220 234 254
220 234 254
220 234 254
220 234 254
220 234 254
220 234 254
220 234 254
220 234 254
220 234 254
220 234 254
220 234 254
220 234 254
220 234 254
220 234 254
220 234 254
220 234 254
220 234 254
220 234 254
220 234 254
220 234 254
220 234 254
220 234 254
220 234 254
220 234 254
220 234 254
220 234 254
220 234 254
220 234 254
220 234 254
220 234 254
220 234 254
220 234 254
220 234 254
220 234 254
220 234 254
220 234 254
220 234 254
220 234 254
220 234 254
220 234 254
220 234 254
220 234 254
220 234 254
220 234 254
220 234 254
220 234 254
220 234 254
220 234 254
220 234 254
220 234 254
220 234 254
220 234 254
220 234 254
220 234 254
220 234 254
220 234 254
220 234 254
220 234 254
220 234 254
220 234 254
220 234 254
220 234 254
220 234 254
220 234 254
220 234 254
220 234 254
220 234 254
220 234 254
220 234 254
220 234 254
220 234 254
220 234 254
220 234 254
220 234 254
220 234 254
220 234 254
220 234 254
220 234 254
220 234 254
220 234 254
220 234 254
220 234 254
220 234 254
220 234 254
220 234 254
220 234 254
220 234 254
220 234 254
220 234 254
220 234 254
220 234 254
220 234 254
220 234 254
220 234 254
220 234 254
220 234 254
220 234 254
220 234 254
220 234 254
220 234 254
220 234 254
220 234 254
220 234 254
220 234 254
220 234 254
220 234 254
220 234 254
220 234 254
220 234 254
220 234 254
220 234 254
220 234 254
220 234 254
220 234 254
220 234 254
220 234 254
220 234 254
220 234 254
220 234 254
220 234 254
220 234 254
220 234 254
220 234 254
220 234 254
220 234 254
220 234 254
220 234 254
220 234 254
220 234 254
220 234 254
220 234 254
220 234 254
220 234 254
220 234 254
220 234 254
220 234 254
220 234 254
220 234 254
220 234 254
220 234 254
220 234 254
220 234 254
220 234 254
220 234 254
220 234 254
220 234 254
220 234 254
220 234 254
220 234 254
220 234 254
220 234 254
220 234 254
220 234 254
220 234 254
220 234 254
220 234 254
220 234 254
220 234 254
220 234 254
220 234 254
220 234 254
220 234 254
220 234 254
220 234 254
220 234 254
220 234 254
220 234 254
220 234 254
220 234 254
220 234 254
220 234 254
220 234 254
220 234 254
220 234 254
220 234 254
220 234 254
220 234 254
220 234 254
220 234 254
220 234 254
220 234 254
220 234 254
220 234 254
220 234 254
220 234 254
220 234 254
220 234 254
220 234 254
220 234 254
220 234 254
220 234 254
220 234 254
220 234 254
220 234 254
220 234 254
220 234 254
220 234 254
220 234 254
220 234 254
220 234 254
220 234 254
220 234 254
220 234 254
220 234 254
220 234 254
220 234 254
220 234 254
220 234 254
220 234 254
220 234 254
220 234 254
220 234 254
220 234 254
220 234 254
220 234 254
220 234 254
220 234 254
220 234 254
220 234 254
220 234 254
220 234 254
220 234 254
220 234 254
220 234 254
220 234 254
220 234 254
220 234 254
220 234 254
220 234 254
220 234 254
220 234 254
220 234 254
220 234 254
220 234 254
220 234 254
220 234 254
220 234 254
220 234 254
220 234 254
220 234 254
220 234 254
220 234 254
220 234 254
220 234 254
220 234 254
220 234 254
220 234 254
220 234 254
220 234 254
220 234 254
220 234 254
220 234 254
220 234 254
220 234 254
220 234 254
220 234 254
220 234 254
220 234 254
220 234 254
220 234 254
220 234 254
220 234 254
220 234 254
220 234 254
220 234 254
220 234 254
220 234 254
220 234 254
220 234 254
220 234 254
220 234 254
220 234 254
220 234 254
220 234 254
220 234 254
220 234 254
220 234 254
220 234 254
220 234 254
220 234 254
220 234 254
220 234 254
220 234 254
220 234 254
220 234 254
220 234 254
220 234 254
220 234 254
220 234 254
220 234 254
220 234 254
220 234 254
220 234 254
220 234 254
220 234 254
220 234 254
220 234 254
220 234 254
220 234 254
220 234 254
220 234 254
220 234 254
220 234 254
220 234 254
220 234 254
220 234 254
220 234 254
220 234 254
220 234 254
220 234 254
220 234 254
220 234 254
220 234 254
220 234 254
220 234 254
220 234 254
220 234 254
220 234 254
220 234 254
220 234 254
220 234 254
220 234 254
220 234 254
220 234 254
220 234 254
220 234 254
220 234 254
220 234 254
220 234 254
220 234 254
220 234 254
220 234 254
220 234 254
220 234 254
220 234 254
220 234 254
220 234 254
220 234 254
220 234 254
220 234 254
220 234 254
220 234 254
220 234 254
220 234 254
220 234 254
220 234 254
220 234 254
220 234 254
220 234 254
220 234 254
220 234 254
220 234 254
220 234 254
220 234 254
220 234 254
220 234 254
220 234 254
220 234 254
220 234 254
220 234 254
220 234 254
220 234 254
220 234 254
220 234 254
220 234 254
220 234 254
220 234 254
220 234 254
220 234 254
220 234 254
220 234 254
220 234 254
220 234 254
220 234 254
220 234 254
220 234 254
220 234 254
220 234 254
220 234 254
220 234 254
220 234 254
220 234 254
220 234 254
220 234 254
220 234 254
220 234 254
220 234 254
220 234 254
220 234 254
220 234 254
220 234 254
220 234 254
220 234 254
220 234 254
220 234 254
220 234 254
220 234 254
220 234 254
220 234 254
220 234 254
220 234 254
220 234 254
220 234 254
220 234 254
220 234 254
220 234 254
220 234 254
220 234 254
220 234 254
220 234 254
220 234 254
220 234 254
220 234 254
220 234 254
220 234 254
220 234 254
220 234 254
220 234 254
220 234 254
220 234 254
220 234 254
220 234 254
220 234 254
220 234 254
220 234 254
220 234 254
220 234 254
220 234 254
220 234 254
220 234 254
220 234 254
220 234 254
220 234 254
220 234 254
220 234 254
220 234 254
220 234 254
220 234 254
220 234 254
220 234 254
220 234 254
220 234 254
220 234 254
220 234 254
220 234 254
220 234 254
220 234 254
220 234 254
220 234 254
220 234 254
220 234 254
220 234 254
220 234 254
220 234 254
220 234 254
220 234 254
220 234 254
220 234 254
220 234 254
220 234 254
220 234 254
220 234 254
220 234 254
220 234 254
220 234 254
220 234 254
220 234 254
220 234 254
220 234 254
220 234 254
220 234 254
220 234 254
220 234 254
220 234 254
220 234 254
220 234 254
220 234 254
220 234 254
220 234 254
220 234 254
220 234 254
220 234 254
220 234 254
220 234 254
220 234 254
220 234 254
220 234 254
220 234 254
220 234 254
220 234 254
220 234 254
220 234 254
220 234 254
220 234 254
220 234 254
220 234 254
220 234 254
220 234 254
220 234 254
220 234 254
220 234 254
220 234 254
220 234 254
220 234 254
220 234 254
220 234 254
220 234 254
220 234 254
220 234 254
220 234 254
220 234 254
220 234 254
220 234 254
220 234 254
220 234 254
220 234 254
220 234 254
220 234 254
220 234 254
220 234 254
220 234 254
220 234 254
220 234 254
220 234 254
220 234 254
220 234 254
220 234 254
220 234 254
220 234 254
220 234 254
220 234 254
220 234 254
220 234 254
220 234 254
220 234 254
220 234 254
220 234 254
220 234 254
220 234 254
220 234 254
220 234 254
220 234 254
220 234 254
220 234 254
220 234 254
220 234 254
220 234 254
220 234 254
220 234 254
220 234 254
220 234 254
220 234 254
220 234 254
220 234 254
220 234 254
220 234 254
220 234 254
220 234 254
220 234 254
220 234 254
220 234 254
220 234 254
220 234 254
220 234 254
220 234 254
220 234 254
220 234 254
220 234 254
220 234 254
220 234 254
220 234 254
220 234 254
220 234 254
220 234 254
220 234 254
220 234 254
220 234 254
220 234 254
220 234 254
220 234 254
220 234 254
220 234 254
220 234 254
220 234 254
220 234 254
220 234 254
220 234 254
220 234 254
220 234 254
220 234 254
220 234 254
220 234 254
220 234 254
220 234 254
220 234 254
220 234 254
220 234 254
220 234 254
220 234 254
220 234 254
220 234 254
220 235 254
220 235 254
220 235 254
220 235 254
220 235 254
220 235 254
220 235 254
220 235 254
220 235 254
220 235 254
220 235 254
220 235 254
220 235 254
220 235 254
220 235 254
220 235 254
220 235 254
220 235 254
220 235 254
220 235 254
220 235 254
220 235 254
220 235 254
220 235 254
220 235 254
220 235 254
220 235 254
220 235 254
220 235 254
220 235 254
220 235 254
220 235 254
220 235 254
220 235 254
220 235 254
220 235 254
220 235 254
220 235 254
220 235 254
220 235 254
220 235 254
220 235 254
220 235 254
220 235 254
220 235 254
220 235 254
220 235 254
220 235 254
220 235 254
220 235 254
220 235 254
220 235 254
220 235 254
220 235 254
220 235 254
220 235 254
220 235 254
220 235 254
220 235 254
220 235 254
220 235 254
220 235 254
220 235 254
220 235 254
220 235 254
220 235 254
220 235 254
220 235 254
220 235 254
220 235 254
220 235 254
220 235 254
220 235 254
220 235 254
220 235 254
220 235 254
220 235 254
220 235 254
220 235 254
220 235 254
220 235 254
220 235 254
220 235 254
220 235 254
220 235 254
220 235 254
220 235 254
220 235 254
220 235 254
220 235 254
220 235 254
220 235 254
220 235 254
220 235 254
220 235 254
220 235 254
220 235 254
220 235 254
220 235 254
220 235 254
220 235 254
220 235 254
220 235 254
220 235 254
220 235 254
220 235 254
220 235 254
220 235 254
220 235 254
220 235 254
220 235 254
220 235 254
220 235 254
220 235 254
220 235 254
220 235 254
220 235 254
220 235 254
220 235 254
220 235 254
220 235 254
220 235 254
220 235 254
220 235 254
220 235 254
220 235 254
220 235 254
220 235 254
220 235 254
220 235 254
220 235 254
220 235 254
220 235 254
220 235 254
220 235 254
220 235 254
220 235 254
220 235 254
220 235 254
220 235 254
220 235 254
220 235 254
220 235 254
220 235 254
220 235 254
220 235 254
220 235 254
220 235 254
220 235 254
220 235 254
220 235 254
220 235 254
220 235 254
220 235 254
220 235 254
220 235 254
220 235 254
220 235 254
220 235 254
220 235 254
220 235 254
220 235 254
220 235 254
220 235 254
220 235 254
220 235 254
220 235 254
220 235 254
220 235 254
220 235 254
220 235 254
220 235 254
220 235 254
220 235 254
220 235 254
220 235 254
220 235 254
220 235 254
220 235 254
220 235 254
220 235 254
220 235 254
220 235 254
220 235 254
220 235 254
220 235 254
220 235 254
220 235 254
220 235 254
220 235 254
220 235 254
220 235 254
220 235 254
220 235 254
220 235 254
220 235 254
220 235 254
220 235 254
220 235 254
220 235 254
220 235 254
220 235 254
220 235 254
220 235 254
220 235 254
220 235 254
220 235 254
220 235 254
220 235 254
220 235 254
220 235 254
220 235 254
220 235 254
220 235 254
220 235 254
220 235 254
220 235 254
220 235 254
220 235 254
220 235 254
220 235 254
220 235 254
220 235 254
220 235 254
220 235 254
220 235 254
220 235 254
220 235 254
220 235 254
220 235 254
220 235 254
220 235 254
220 235 254
220 235 254
220 235 254
220 235 254
220 235 254
220 235 254
220 235 254
220 235 254
220 235 254
220 235 254
220 235 254
220 235 254
220 235 254
220 235 254
220 235 254
220 235 254
220 235 254
220 235 254
220 235 254
220 235 254
220 235 254
220 235 254
220 235 254
220 235 254
220 235 254
220 235 254
220 235 254
220 235 254
220 235 254
220 235 254
220 235 254
220 235 254
220 235 254
220 235 254
220 235 254
220 235 254
220 235 254
220 235 254
220 235 254
220 235 254
220 235 254
220 235 254
220 235 254
220 235 254
220 235 254
220 235 254
220 234 254
218 231 250
212 224 241
204 213 229
195 203 216
195 203 216
198 206 221
203 212 228
211 223 241
218 231 250
220 234 254
220 235 254
220 235 254
220 235 254
220 235 254
220 235 254
220 235 254
220 235 254
220 234 254
218 232 252
215 230 250
213 228 248
212 227 247
213 228 249
217 231 251
218 233 253
220 234 254
220 235 254
220 235 254
220 235 254
220 235 254
220 235 254
220 235 254
220 235 254
220 235 254
220 235 254
220 235 254
220 235 254
220 235 254
220 235 254
220 235 254
220 235 254
220 235 254
220 235 254
220 235 254
220 235 254
220 235 254
220 235 254
220 235 254
220 234 254
218 231 250
214 226 243
213 224 241
213 225 242
215 228 246
219 233 252
220 234 254
220 235 254
220 235 254
220 235 254
220 235 254
220 235 254
220 235 254
220 235 254
220 235 254
220 235 254
220 235 254
220 235 254
220 235 254
220 235 254
220 235 254
220 235 254
220 235 254
220 235 254
220 235 254
220 235 254
220 235 254
220 235 254
220 235 254
220 235 254
220 235 254
220 235 254
220 235 254
220 235 254
220 235 254
220 235 254
220 235 254
220 235 254
220 235 254
220 235 254
220 235 254
220 235 254
220 235 254
220 235 254
220 235 254
220 235 254
220 235 254
220 235 254
220 235 254
220 235 254
220 235 254
220 235 254
220 235 254
220 235 254
220 235 254
220 235 254
220 235 254
220 235 254
220 235 254
220 235 254
220 235 254
220 235 254
220 235 254
220 235 254
220 235 254
220 235 254
220 235 254
220 235 254
220 235 254
220 235 254
220 235 254
220 235 254
220 235 254
220 235 254
220 235 254
220 235 254
220 235 254
220 235 254
220 235 254
220 235 254
220 235 254
220 235 254
220 235 254
220 235 254
220 235 254
220 235 254
220 235 254
220 235 254
220 235 254
220 235 254
220 235 254
220 235 254
220 235 254
220 235 254
220 235 254
220 235 254
220 235 254
220 235 254
220 235 254
220 235 254
220 235 254
220 235 254
220 235 254
220 235 254
220 235 254
220 235 254
220 235 254
220 235 254
220 235 254
220 235 254
220 235 254
220 235 254
220 235 254
220 235 254
220 235 254
220 235 254
220 235 254
220 235 254
220 235 254
220 235 254
220 235 254
220 235 254
220 235 254
220 235 254
220 235 254
220 235 254
220 235 254
220 235 254
220 235 254
220 235 254
220 235 254
220 235 254
220 235 254
220 235 254
220 235 254
220 235 254
220 235 254
220 235 254
220 235 254
220 235 254
220 235 254
220 235 254
220 235 254
220 235 254
220 235 254
220 235 254
220 235 254
220 234 254
215 227 246
194 201 214
157 150 152
134 116 107
127 106 91
123 99 81
123 98 80
123 98 80
123 99 81
123 99 81
128 107 93
137 121 113
162 158 161
193 199 212
215 228 246
220 234 254
220 234 254
210 225 245
188 204 226
168 186 209
160 179 204
153 173 197
149 169 193
150 170 195
147 167 191
150 171 195
152 172 196
156 176 200
163 182 206
178 195 218
199 215 236
216 231 251
220 235 254
220 235 254
220 235 254
220 235 254
220 235 254
220 235 254
220 235 254
220 235 254
220 235 254
220 235 254
220 235 254
220 235 254
220 235 254
220 235 254
215 227 244
196 202 212
179 180 183
175 177 180
173 176 180
172 175 180
171 175 180
171 175 180
171 175 180
171 175 180
171 175 180
172 175 180
172 175 180
174 176 180
176 177 180
183 185 190
202 210 222
219 233 252
220 235 254
220 235 254
220 235 254
220 235 254
220 235 254
220 235 254
220 235 254
220 235 254
220 235 254
220 235 254
220 235 254
220 235 254
220 235 254
220 235 254
220 235 254
220 235 254
220 235 254
220 235 254
220 235 254
220 235 254
220 235 254
220 235 254
220 235 254
220 235 254
220 235 254
220 235 254
220 235 254
220 235 254
220 235 254
220 235 254
220 235 254
220 235 254
220 235 254
220 235 254
220 235 254
220 235 254
220 235 254
220 235 254
220 235 254
220 235 254
220 235 254
220 235 254
220 235 254
220 235 254
220 235 254
220 235 254
220 235 254
220 235 254
220 235 254
220 235 254
220 235 254
220 235 254
220 235 254
220 235 254
220 235 254
220 235 254
220 235 254
220 235 254
220 235 254
220 235 254
221 235 254
221 235 254
221 235 254
221 235 254
221 235 254
221 235 254
221 235 254
221 235 254
221 235 254
221 235 254
221 235 254
221 235 254
221 235 254
221 235 254
221 235 254
221 235 254
221 235 254
221 235 254
221 235 254
221 235 254
221 235 254
221 235 254
221 235 254
221 235 254
221 235 254
221 235 254
221 235 254
221 235 254
221 235 254
221 235 254
221 235 254
221 235 254
221 235 254
221 235 254
221 235 254
221 235 254
221 235 254
221 235 254
221 235 254
221 235 254
221 235 254
221 235 254
221 235 254
221 235 254
221 235 254
221 235 254
221 235 254
221 235 254
221 235 254
221 235 254
221 235 254
221 235 254
221 235 254
221 235 254
221 235 254
221 235 254
221 235 254
221 235 254
221 235 254
221 235 254
221 235 254
221 235 254
221 235 254
221 235 254
221 235 254
221 235 254
221 235 254
221 235 254
221 235 254
221 235 254
221 235 254
221 235 254
221 235 254
221 235 254
213 225 242
172 171 178
132 113 102
123 98 80
122 97 79
122 97 79
122 98 79
122 98 79
122 97 79
122 97 79
122 98 79
122 97 79
122 97 79
122 97 79
121 97 79
123 98 80
148 140 141
184 200 222
163 181 205
151 171 195
144 165 189
139 160 184
137 159 183
132 154 177
131 152 175
128 150 172
129 151 174
128 151 173
131 154 177
131 154 176
136 157 179
139 160 183
144 165 188
154 175 198
170 189 211
204 219 240
220 234 254
221 235 254
221 235 254
221 235 254
221 235 254
221 235 254
221 235 254
221 235 254
221 235 254
208 218 233
180 182 184
174 176 180
172 175 180
170 174 180
168 173 180
167 173 180
166 172 180
165 172 180
165 172 180
165 172 180
164 172 180
165 172 180
165 172 180
165 172 180
166 172 180
166 173 180
168 173 180
169 174 180
170 174 180
172 176 180
175 177 180
189 192 199
217 230 248
221 235 254
221 235 254
221 235 254
221 235 254
221 235 254
221 235 254
221 235 254
221 235 254
221 235 254
221 235 254
221 235 254
221 235 254
221 235 254
221 235 254
221 235 254
221 235 254
221 235 254
221 235 254
221 235 254
221 235 254
221 235 254
221 235 254
221 235 254
221 235 254
221 235 254
221 235 254
221 235 254
221 235 254
221 235 254
221 235 254
221 235 254
221 235 254
221 235 254
221 235 254
221 235 254
221 235 254
221 235 254
221 235 254
221 235 254
221 235 254
221 235 254
221 235 254
221 235 254
221 235 254
221 235 254
221 235 254
221 235 254
221 235 254
221 235 254
221 235 254
221 235 254
221 235 254
221 235 254
221 235 254
221 235 254
221 235 254
221 235 254
221 235 254
221 235 254
221 235 254
221 235 254
221 235 254
221 235 254
221 235 254
221 235 254
221 235 254
221 235 254
221 235 254
221 235 254
221 235 254
221 235 254
221 235 254
221 235 254
221 235 254
221 235 254
221 235 254
221 235 254
221 235 254
221 235 254
221 235 254
221 235 254
221 235 254
221 235 254
221 235 254
221 235 254
221 235 254
221 235 254
221 235 254
221 235 254
221 235 254
221 235 254
221 235 254
221 235 254
221 235 254
221 235 254
221 235 254
221 235 254
221 235 254
221 235 254
221 235 254
221 235 254
221 235 254
221 235 254
221 235 254
221 235 254
221 235 254
221 235 254
221 235 254
221 235 254
221 235 254
221 235 254
221 235 254
221 235 254
221 235 254
221 235 254
221 235 254
221 235 254
221 235 254
221 235 254
221 235 254
221 235 254
221 235 254
221 235 254
221 235 254
221 235 254
221 235 254
221 235 254
221 235 254
221 235 254
219 233 252
185 188 199
133 115 105
123 98 79
122 97 79
122 97 79
122 97 79
122 97 79
121 97 78
122 97 79
121 96 78
122 97 79
121 97 79
121 96 78
121 97 79
122 97 79
137 124 121
167 182 202
156 175 199
144 164 189
139 160 184
132 154 178
128 149 172
124 146 168
119 143 164
110 139 159
103 141 160
103 145 164
97 139 158
102 139 158
106 136 154
114 139 157
120 142 162
124 146 167
127 149 169
131 152 173
138 159 181
148 169 193
164 183 206
201 217 238
220 234 254
221 235 254
221 235 254
221 235 254
220 234 253
189 193 199
175 177 180
172 175 180
169 174 180
167 173 180
166 172 180
164 172 180
163 171 180
162 171 180
162 170 180
161 170 180
161 170 180
160 170 180
160 170 180
160 170 180
161 170 180
161 170 180
161 170 180
162 170 180
163 171 180
164 171 180
165 172 180
166 172 180
168 173 180
170 174 180
173 176 180
176 178 180
202 210 222
221 235 254
221 235 254
221 235 254
221 235 254
221 235 254
221 235 254
221 235 254
221 235 254
221 235 254
221 235 254
221 235 254
221 235 254
221 235 254
221 235 254
221 235 254
221 235 254
221 235 254
221 235 254
221 235 254
221 235 254
221 235 254
221 235 254
221 235 254
221 235 254
221 235 254
221 235 254
221 235 254
221 235 254
221 235 254
221 235 254
221 235 254
221 235 254
221 235 254
221 235 254
221 235 254
221 235 254
221 235 254
221 235 254
221 235 254
221 235 254
221 235 254
221 235 254
221 235 254
221 235 254
221 235 254
221 235 254
221 235 254
221 235 254
221 235 254
221 235 254
221 235 254
221 235 254
221 235 254
221 235 254
221 235 254
221 235 254
221 235 254
221 235 254
221 235 254
221 235 254
221 235 254
221 235 254
221 235 254
221 235 254
221 235 254
221 235 254
221 235 254
221 235 254
221 235 254
221 235 254
221 235 254
221 235 254
221 235 254
221 235 254
221 235 254
221 235 254
221 235 254
221 235 254
221 235 254
221 235 254
221 235 254
221 235 254
221 235 254
221 235 254
221 235 254
221 235 254
221 235 254
221 235 254
221 235 254
221 235 254
221 235 254
221 235 254
221 235 254
221 235 254
221 235 254
221 235 254
221 235 254
221 235 254
221 235 254
221 235 254
221 235 254
221 235 254
221 235 254
221 235 254
221 235 254
221 235 254
221 235 254
221 235 254
221 235 254
221 235 254
221 235 254
221 235 254
221 235 254
221 235 254
221 235 254
221 235 254
221 235 254
221 235 254
221 235 254
221 235 254
221 235 254
221 235 254
221 235 254
221 235 254
221 235 254
221 235 254
213 225 243
157 150 152
122 97 80
122 97 79
121 96 78
121 96 78
121 96 78
121 96 78
121 96 78
121 96 78
121 96 78
120 96 77
122 97 78
121 96 78
120 96 78
124 102 87
163 171 187
154 173 197
144 163 188
139 160 184
131 151 174
127 148 170
125 147 170
122 144 167
99 147 167
75 151 170
65 154 173
56 155 174
55 158 177
58 156 175
59 157 176
63 153 171
71 151 168
94 146 164
118 142 162
119 142 161
120 141 161
124 147 167
128 150 170
135 157 177
145 167 188
166 185 206
212 227 247
220 233 253
184 186 190
174 176 180
171 175 180
168 173 180
166 172 180
164 172 180
163 171 180
162 170 180
161 170 180
160 169 180
159 169 180
158 169 180
158 168 180
158 168 180
157 168 180
157 168 180
157 168 180
158 168 180
158 168 180
158 168 180
159 169 180
159 169 180
160 169 180
161 170 180
162 170 180
164 171 180
165 172 180
167 173 180
169 174 180
172 175 180
176 177 180
200 207 218
221 235 254
221 235 254
221 235 254
221 235 254
221 235 254
221 235 254
221 235 254
221 235 254
221 235 254
221 235 254
221 235 254
221 235 254
221 235 254
221 235 254
221 235 254
221 235 254
221 235 254
221 235 254
221 235 254
221 235 254
221 235 254
221 235 254
221 235 254
221 235 254
221 235 254
221 235 254
221 235 254
221 235 254
221 235 254
221 235 254
221 235 254
221 235 254
221 235 254
221 235 254
221 235 254
221 235 254
221 235 254
221 235 254
221 235 254
221 235 254
221 235 254
221 235 254
221 235 254
221 235 254
221 235 254
221 235 254
221 235 254
221 235 254
221 235 254
221 235 254
221 235 254
221 235 254
221 235 254
221 235 254
221 235 254
221 235 254
221 235 254
221 235 254
221 235 254
221 235 254
221 235 254
221 235 254
221 235 254
221 235 254
221 235 254
221 235 254
221 235 254
221 235 254
221 235 254
221 235 254
221 235 254
221 235 254
221 235 254
221 235 254
221 235 254
221 235 254
221 235 254
221 235 254
221 235 254
221 235 254
221 235 254
221 235 254
221 235 254
221 235 254
221 235 254
221 235 254
221 235 254
221 235 254
221 235 254
221 235 254
221 235 254
221 235 254
221 235 254
221 235 254
221 235 254
221 235 254
221 235 254
221 235 254
221 235 254
221 235 254
221 235 254
221 235 254
221 235 254
221 235 254
221 235 254
221 235 254
221 235 254
221 235 254
221 235 254
221 235 254
221 235 254
221 235 254
221 235 254
221 235 254
221 235 254
221 235 254
221 235 254
221 235 254
221 235 254
221 235 254
221 235 254
221 235 254
221 235 254
210 221 238
142 129 124
121 96 78
120 96 77
120 95 77
121 96 78
121 96 78
121 96 77
120 95 77
121 96 78
121 96 77
120 95 77
120 95 77
120 95 77
121 96 77
132 118 113
166 183 205
150 169 193
140 159 184
134 154 178
131 151 175
126 146 169
125 146 169
122 149 172
65 155 175
56 161 181
54 163 183
55 166 187
54 166 187
56 166 187
53 166 186
53 165 186
51 164 183
56 164 184
59 160 177
69 157 173
120 143 163
121 143 163
122 143 163
125 147 167
121 143 161
121 147 160
133 157 174
174 179 185
175 177 180
171 175 180
168 173 180
166 172 180
164 171 180
163 171 180
161 170 180
160 169 180
159 169 180
158 168 180
157 168 180
157 168 180
156 167 180
156 167 180
155 167 180
155 167 180
155 167 180
155 167 180
155 167 180
155 167 180
156 167 180
156 168 180
157 168 180
158 168 180
158 169 180
159 169 180
160 170 180
162 170 180
163 171 180
165 172 180
167 173 180
169 174 180
172 175 180
177 178 180
210 221 236
221 235 254
221 235 254
221 235 254
221 235 254
221 235 254
221 235 254
221 235 254
221 235 254
221 235 254
221 235 254
221 235 254
221 235 254
221 235 254
221 235 254
221 235 254
221 235 254
221 235 254
221 235 254
221 235 254
221 235 254
221 235 254
221 235 254
221 235 254
221 235 254
221 235 254
221 235 254
221 235 254
221 235 254
221 235 254
221 235 254
221 235 254
221 235 254
221 235 254
221 235 254
221 235 254
221 235 254
221 235 254
221 235 254
221 235 254
221 235 254
221 235 254
221 235 254
221 235 254
221 235 254
221 235 254
221 235 254
221 235 254
221 235 254
221 235 254
221 235 254
221 235 254
221 235 254
221 235 254
221 235 254
221 235 254
221 235 254
221 235 254
221 235 254
221 235 254
221 235 254
221 235 254
221 235 254
221 235 254
221 235 254
221 235 254
221 235 254
221 235 254
221 235 254
221 235 254
221 235 254
221 235 254
221 235 254
221 235 254
221 235 254
221 235 254
221 235 254
221 235 254
221 235 254
221 235 254
221 235 254
221 235 254
221 235 254
221 235 254
221 235 254
221 235 254
221 235 254
221 235 254
221 235 254
221 235 254
221 235 254
221 235 254
221 235 254
221 235 254
221 235 254
221 235 254
221 235 254
221 235 254
221 235 254
221 235 254
221 235 254
221 235 254
221 235 254
221 235 254
221 235 254
221 235 254
221 235 254
221 235 254
221 235 254
221 235 254
221 235 254
221 235 254
221 235 254
221 235 254
221 235 254
221 235 254
221 235 254
221 235 254
221 235 254
221 235 254
221 235 254
211 222 239
138 125 119
120 95 77
119 94 76
121 96 77
120 95 77
120 95 77
119 94 76
118 94 76
119 95 76
119 94 76
119 94 76
120 95 77
120 95 77
119 94 76
143 139 143
161 179 202
144 163 187
135 155 179
129 149 173
128 148 171
127 146 169
125 145 169
124 146 169
83 160 181
58 165 186
55 168 189
49 167 189
50 169 191
52 169 190
53 169 191
54 170 192
53 169 190
53 169 190
53 166 186
50 163 181
64 160 178
85 150 166
122 143 163
122 143 163
120 142 162
120 142 160
130 150 161
177 178 180
172 176 180
169 174 180
167 173 180
165 172 180
163 171 180
161 170 180
160 169 180
159 169 180
158 168 180
157 168 180
156 167 180
155 167 180
155 167 180
154 167 180
154 166 180
154 166 180
153 166 180
153 166 180
153 166 180
153 166 180
154 166 180
154 166 180
154 167 180
155 167 180
156 167 180
156 168 180
157 168 180
158 168 180
159 169 180
161 170 180
162 170 180
164 171 180
166 172 180
168 173 180
171 175 180
174 176 180
184 186 190
221 235 254
221 235 254
221 235 254
221 235 254
221 235 254
221 235 254
221 235 254
221 235 254
221 235 254
221 235 254
221 235 254
221 235 254
221 235 254
221 235 254
221 235 254
221 235 254
221 235 254
221 235 254
221 235 254
221 235 254
221 235 254
221 235 254
221 235 254
221 235 254
221 235 254
221 235 254
221 235 254
221 235 254
221 235 254
221 235 254
221 235 254
221 235 254
221 235 254
221 235 254
221 235 254
221 235 254
221 235 254
221 235 254
221 235 254
221 235 254
221 235 254
221 235 254
221 235 254
221 235 254
221 235 254
221 235 254
221 235 254
221 235 254
221 235 254
221 235 254
221 235 254
221 235 254
221 235 254
221 235 254
221 235 254
221 235 254
221 235 254
221 235 254
221 235 254
221 235 254
221 235 254
221 235 254
221 235 254
221 235 254
221 235 254
221 235 254
221 235 254
221 235 254
221 235 254
221 235 254
221 235 254
221 235 254
221 235 254
221 235 254
221 235 254
221 235 254
221 235 254
221 235 254
221 235 254
221 235 254
221 235 254
221 235 254
221 235 254
221 235 254
221 235 254
221 235 254
221 235 254
221 235 254
221 235 254
221 235 254
221 235 254
221 235 254
221 235 254
221 235 254
221 235 254
221 235 254
221 235 254
221 235 254
221 235 254
221 235 254
221 235 254
221 235 254
221 235 254
221 235 254
221 235 254
221 235 254
221 235 254
221 235 254
221 235 254
221 235 254
221 235 254
221 235 254
221 235 254
221 235 254
221 235 254
221 235 254
221 235 254
221 235 254
216 228 247
143 132 129
119 94 76
119 95 76
119 94 76
118 94 76
118 94 76
119 94 76
119 94 76
119 94 76
118 94 76
119 94 76
118 94 76
119 94 76
119 94 76
146 144 150
157 175 199
143 162 185
130 149 172
119 137 159
119 138 160
123 142 165
127 146 169
128 148 171
111 155 177
93 158 180
86 162 185
78 162 184
79 165 187
73 166 187
74 164 186
72 162 183
71 161 181
66 161 178
66 156 174
70 154 171
71 154 169
83 152 168
92 148 165
112 141 160
118 138 156
120 139 158
162 167 172
175 177 180
171 175 180
168 173 180
166 172 180
164 171 180
162 170 180
161 170 180
159 169 180
158 168 180
157 168 180
156 167 180
155 167 180
154 167 180
154 166 180
153 166 180
153 166 180
153 166 180
152 166 180
152 166 180
152 166 180
152 166 180
152 166 180
152 166 180
153 166 180
153 166 180
154 166 180
154 167 180
155 167 180
156 167 180
157 168 180
158 168 180
159 169 180
160 169 180
161 170 180
163 171 180
165 172 180
167 173 180
169 174 180
173 176 180
177 178 180
215 226 243
221 235 254
221 235 254
221 235 254
221 235 254
221 235 254
221 235 254
221 235 254
221 235 254
221 235 254
221 235 254
221 235 254
221 235 254
221 235 254
221 235 254
221 235 254
221 235 254
221 235 254
221 235 254
221 235 254
221 235 254
221 235 254
221 235 254
221 235 254
221 235 254
221 235 254
221 235 254
221 235 254
221 235 254
221 235 254
221 235 254
221 235 254
221 235 254
221 235 254
221 235 254
221 235 254
221 235 254
221 235 254
221 235 254
221 235 254
221 235 254
221 235 254
221 235 254
221 235 254
221 235 254
221 235 254
221 235 254
221 235 254
221 235 254
221 235 254
221 235 254
221 235 254
221 235 254
221 235 254
221 235 254
221 235 254
221 235 254
221 235 254
221 235 254
221 235 254
221 235 254
221 235 254
221 235 254
221 235 254
221 235 254
221 235 254
221 235 254
221 235 254
221 235 254
221 235 254
221 235 254
221 235 254
221 235 254
221 235 254
221 235 254
221 235 254
221 235 254
221 235 254
221 235 254
221 235 254
221 235 254
221 235 254
221 235 254
221 235 254
221 235 254
221 235 254
221 235 254
221 235 254
221 235 254
221 235 254
221 235 254
221 235 254
221 235 254
221 235 254
221 235 254
221 235 254
221 235 254
221 235 254
221 235 254
221 235 254
221 235 254
221 235 254
221 235 254
221 235 254
221 235 254
221 235 254
221 235 254
221 235 254
221 235 254
221 235 254
221 235 254
221 235 254
221 235 254
221 235 254
221 235 254
221 235 254
221 234 253
167 165 171
119 94 76
118 94 75
118 94 75
118 94 75
117 93 75
118 93 75
118 93 75
118 93 75
118 93 75
118 94 76
118 93 75
117 93 75
118 93 75
143 139 143
155 174 197
142 162 186
125 143 166
97 114 136
107 123 143
123 141 164
128 147 170
127 146 169
126 145 168
114 150 172
105 155 177
102 155 177
98 155 177
95 156 177
96 153 173
91 152 173
89 150 165
88 155 162
91 153 158
92 155 161
88 150 154
93 149 154
82 135 140
90 130 142
105 131 144
114 132 148
174 175 176
174 176 180
171 175 180
168 173 180
166 172 180
164 171 180
162 170 180
160 170 180
159 169 180
158 168 180
157 168 180
156 167 180
155 167 180
154 166 180
153 166 180
153 166 180
152 166 180
152 166 180
152 165 180
151 165 180
151 165 180
151 165 180
151 165 180
151 165 180
152 165 180
152 165 180
152 166 180
153 166 180
153 166 180
154 166 180
154 167 180
155 167 180
156 168 180
157 168 180
158 169 180
160 169 180
161 170 180
163 171 180
164 172 180
167 173 180
169 174 180
172 175 180
176 177 180
201 208 219
221 235 254
221 235 254
221 235 254
221 235 254
221 235 254
221 235 254
221 235 254
221 235 254
221 235 254
221 235 254
221 235 254
221 235 254
221 235 254
221 235 254
221 235 254
221 235 254
221 235 254
221 235 254
221 235 254
221 235 254
221 235 254
221 235 254
221 235 254
221 235 254
221 235 254
221 235 254
221 235 254
221 235 254
221 235 254
221 235 254
221 235 254
221 235 254
221 235 254
221 235 254
221 235 254
221 235 254
221 235 254
221 235 254
221 235 254
221 235 254
221 235 254
221 235 254
221 235 254
221 235 254
221 235 254
221 235 254
221 235 254
221 235 254
221 235 254
221 235 254
221 235 254
221 235 254
221 235 254
221 235 254
221 235 254
221 235 254
221 235 254
221 235 254
221 235 254
221 235 254
221 235 254
221 235 254
221 235 254
221 235 254
221 235 254
221 235 254
221 235 254
221 235 254
221 235 254
221 235 254
221 235 254
221 235 254
221 235 254
221 235 254
221 235 254
221 235 254
221 235 254
221 235 254
221 235 254
221 235 254
221 235 254
221 235 254
221 235 254
221 235 254
221 235 254
221 235 254
221 235 254
221 235 254
221 235 254
221 235 254
221 235 254
221 235 254
221 235 254
221 235 254
221 235 254
221 235 254
221 235 254
221 235 254
221 235 254
221 235 254
221 235 254
221 235 254
221 235 254
221 235 254
221 235 254
221 235 254
221 235 254
221 235 254
221 235 254
221 235 254
221 235 254
221 235 254
221 235 254
221 235 254
199 207 221
120 98 82
117 92 74
118 93 74
118 93 75
118 93 75
117 93 75
116 92 74
117 92 74
116 92 74
116 92 74
117 92 74
117 93 75
116 92 74
133 120 117
160 178 200
142 161 184
122 141 164
108 131 159
107 130 159
121 139 162
129 147 170
128 146 169
129 146 169
129 147 170
122 147 169
117 147 168
114 146 168
114 146 168
112 148 169
109 144 164
109 142 161
106 148 148
101 140 142
114 156 154
109 167 156
67 139 136
103 151 141
106 144 140
98 129 124
109 125 139
178 178 179
174 176 180
170 174 180
168 173 180
165 172 180
164 171 180
162 170 180
160 170 180
159 169 180
158 168 180
157 168 180
156 167 180
155 167 180
154 166 180
153 166 180
153 166 180
152 166 180
152 165 180
151 165 180
151 165 180
151 165 180
151 165 180
151 165 180
151 165 180
151 165 180
151 165 180
151 165 180
152 165 180
152 166 180
152 166 180
153 166 180
154 166 180
154 167 180
155 167 180
156 168 180
157 168 180
158 169 180
160 169 180
161 170 180
163 171 180
164 172 180
166 173 180
169 174 180
172 175 180
175 177 180
192 196 202
221 235 254
221 235 254
221 235 254
221 235 254
221 235 254
221 235 254
221 235 254
221 235 254
221 235 254
221 235 254
221 235 254
221 235 254
221 235 254
221 235 254
221 235 254
221 235 254
221 235 254
221 235 254
221 235 254
221 235 254
221 235 254
221 235 254
221 235 254
221 235 254
221 235 254
221 235 254
221 235 254
221 235 254
221 235 254
221 235 254
221 235 254
221 235 254
221 235 254
221 235 254
221 235 254
221 235 254
221 235 254
221 235 254
221 235 254
221 235 254
221 235 254
221 235 254
221 235 254
221 235 254
221 235 254
221 235 254
221 235 254
221 235 254
221 235 254
221 235 254
221 235 254
221 235 254
221 235 254
221 235 254
221 235 254
221 235 254
221 235 254
221 235 254
221 235 254
221 235 254
221 235 254
221 235 254
221 235 254
221 235 254
221 235 254
221 235 254
221 235 254
221 235 254
221 235 254
221 235 254
221 235 254
221 235 254
221 235 254
221 235 254
221 235 254
221 235 254
221 235 254
221 235 254
221 235 254
221 235 254
221 235 254
221 235 254
221 235 254
221 235 254
221 235 254
221 235 254
221 235 254
221 235 254
221 235 254
221 235 254
221 235 254
221 235 254
221 235 254
221 235 254
221 235 254
221 235 254
221 235 254
221 235 254
221 235 254
221 235 254
221 235 254
221 235 254
221 235 254
221 235 254
221 235 254
221 235 254
221 235 254
221 235 254
221 235 254
221 235 254
221 235 254
221 235 254
219 232 251
140 129 126
116 91 73
115 91 73
117 92 74
116 91 74
117 92 74
116 92 74
117 92 74
116 92 74
116 92 74
116 91 73
115 91 74
116 92 74
117 95 80
163 179 201
143 162 185
129 148 172
120 145 175
109 149 177
108 128 150
131 149 172
131 148 171
131 149 172
129 146 168
127 144 166
126 142 164
126 144 166
124 142 164
121 138 159
120 136 158
120 135 157
117 133 152
123 151 141
179 216 195
172 212 195
168 210 195
160 199 184
163 206 188
174 214 193
151 195 174
178 178 180
174 176 180
170 175 180
168 173 180
166 172 180
164 171 180
162 170 180
161 170 180
159 169 180
158 168 180
157 168 180
156 167 180
155 167 180
154 167 180
153 166 180
153 166 180
152 166 180
152 165 180
151 165 180
151 165 180
151 165 180
151 165 180
150 165 180
150 165 180
150 165 180
151 165 180
151 165 180
151 165 180
151 165 180
152 165 180
152 166 180
153 166 180
153 166 180
154 166 180
155 167 180
155 167 180
156 168 180
158 168 180
159 169 180
160 169 180
161 170 180
163 171 180
165 172 180
167 173 180
169 174 180
172 175 180
175 177 180
189 192 197
221 235 254
221 235 254
221 235 254
221 235 254
221 235 254
221 235 254
221 235 254
221 235 254
221 235 254
221 235 254
221 235 254
221 235 254
221 235 254
221 235 254
221 235 254
221 235 254
221 235 254
221 235 254
221 235 254
221 235 254
221 235 254
221 235 254
221 235 254
221 235 254
221 235 254
221 235 254
221 235 254
221 235 254
221 235 254
221 235 254
221 235 254
221 235 254
221 235 254
221 235 254
221 235 254
221 235 254
221 235 254
221 235 254
221 235 254
221 235 254
221 235 254
221 235 254
221 235 254
221 235 254
221 235 254
222 235 254
222 235 254
222 235 254
222 235 254
222 235 254
222 235 254
222 235 254
222 235 254
222 235 254
222 235 254
222 235 254
222 235 254
222 235 254
222 235 254
222 235 254
222 235 254
222 235 254
222 235 254
222 235 254
222 235 254
222 235 254
222 235 254
222 235 254
222 235 254
222 235 254
222 235 254
222 235 254
222 235 254
222 235 254
222 235 254
222 235 254
222 235 254
222 235 254
222 235 254
222 235 254
222 235 254
222 235 254
222 235 254
222 235 254
222 235 254
222 235 254
222 235 254
222 235 254
222 235 254
222 235 254
222 235 254
222 235 254
222 235 254
222 235 254
222 235 254
222 235 254
222 235 254
222 235 254
222 235 254
222 235 254
222 235 254
222 235 254
222 235 254
222 235 254
222 235 254
222 235 254
222 235 254
222 235 254
222 235 254
222 235 254
222 235 254
198 206 220
117 93 76
116 91 73
115 91 73
116 91 73
114 91 73
114 90 73
114 90 72
115 91 73
116 91 73
115 91 73
115 91 73
114 90 73
114 91 73
164 174 190
149 166 189
139 158 182
137 162 191
161 193 232
115 130 146
130 148 172
127 144 167
129 147 169
129 146 168
128 145 168
127 144 166
127 144 166
124 140 162
126 142 164
122 138 159
119 132 154
122 135 158
119 130 152
122 148 147
176 213 196
165 207 195
160 206 195
157 204 195
159 206 196
163 208 195
178 178 179
174 176 180
171 175 180
168 174 180
166 172 180
164 171 180
163 171 180
161 170 180
160 169 180
159 169 180
157 168 180
156 168 180
155 167 180
155 167 180
154 166 180
153 166 180
153 166 180
152 166 180
152 165 180
151 165 180
151 165 180
151 165 180
151 165 180
150 165 180
150 165 180
150 165 180
150 165 180
151 165 180
151 165 180
151 165 180
151 165 180
152 165 180
152 166 180
153 166 180
154 166 180
154 167 180
155 167 180
156 167 180
157 168 180
158 168 180
159 169 180
160 170 180
162 170 180
164 171 180
165 172 180
167 173 180
170 174 180
172 175 180
176 177 180
192 196 201
222 235 254
222 235 254
222 235 254
222 235 254
222 235 254
222 235 254
222 235 254
222 235 254
222 235 254
222 235 254
222 235 254
222 235 254
222 235 254
222 235 254
222 235 254
222 235 254
222 235 254
222 235 254
222 235 254
222 235 254
222 235 254
222 235 254
222 235 254
222 235 254
222 235 254
222 235 254
222 235 254
222 235 254
222 235 254
222 235 254
222 235 254
222 235 254
222 235 254
222 235 254
222 235 254
222 235 254
222 235 254
222 235 254
222 235 254
222 235 254
222 235 254
222 235 254
222 235 254
222 235 254
222 235 254
222 235 254
222 235 254
222 235 254
222 235 254
222 235 254
222 235 254
222 235 254
222 235 254
222 235 254
222 235 254
222 235 254
222 235 254
222 235 254
222 235 254
222 235 254
222 235 254
222 235 254
222 235 254
222 235 254
222 235 254
222 235 254
222 235 254
222 235 254
222 235 254
222 235 254
222 235 254
222 235 254
222 235 254
222 235 254
222 235 254
222 235 254
222 235 254
222 235 254
222 235 254
222 235 254
222 235 254
222 235 254
222 235 254
222 235 254
222 235 254
222 235 254
222 235 254
222 235 254
222 235 254
222 235 254
222 235 254
222 235 254
222 235 254
222 235 254
222 235 254
222 235 254
222 235 254
222 235 254
222 235 254
222 235 254
222 235 254
222 235 254
222 235 254
222 235 254
222 235 254
222 235 254
222 235 254
222 235 254
222 235 254
221 235 254
152 145 147
113 89 72
114 90 72
114 90 72
114 90 72
114 90 73
114 90 72
114 90 72
113 89 72
113 89 72
114 90 72
113 90 72
115 91 73
128 118 115
157 174 196
142 160 183
135 156 185
156 190 234
144 170 205
134 154 179
176 197 225
136 154 178
132 148 171
128 145 167
126 142 165
125 141 164
124 141 164
123 138 160
123 139 161
122 137 159
122 135 157
120 130 153
118 127 149
111 119 138
113 128 127
172 208 189
167 210 196
158 201 190
138 171 159
175 176 177
175 177 180
172 175 180
169 174 180
167 173 180
165 172 180
163 171 180
162 170 180
161 170 180
159 169 180
158 168 180
157 168 180
156 168 180
155 167 180
155 167 180
154 166 180
153 166 180
153 166 180
152 166 180
152 165 180
151 165 180
151 165 180
151 165 180
151 165 180
151 165 180
151 165 180
151 165 180
151 165 180
151 165 180
151 165 180
151 165 180
152 165 180
152 166 180
152 166 180
153 166 180
154 166 180
154 167 180
155 167 180
156 167 180
157 168 180
158 168 180
159 169 180
160 169 180
161 170 180
163 171 180
164 171 180
166 172 180
168 173 180
170 174 180
173 176 180
177 178 180
200 206 216
222 235 254
222 235 254
222 235 254
222 235 254
222 235 254
222 235 254
222 235 254
222 235 254
222 235 254
222 235 254
222 235 254
222 235 254
222 235 254
222 235 254
222 235 254
222 235 254
222 235 254
222 235 254
222 235 254
222 235 254
222 235 254
222 235 254
222 235 254
222 235 254
222 235 254
222 235 254
222 235 254
222 235 254
222 235 254
222 235 254
222 235 254
222 235 254
222 235 254
222 235 254
222 235 254
222 235 254
222 235 254
222 235 254
222 235 254
222 235 254
222 235 254
222 235 254
222 235 254
222 235 254
222 235 254
222 235 254
222 235 254
222 235 254
222 235 254
222 235 254
222 235 254
222 235 254
222 235 254
222 235 254
222 235 254
222 235 254
222 235 254
222 235 254
222 235 254
222 235 254
222 235 254
222 235 254
222 235 254
222 235 254
222 235 254
222 235 254
222 235 254
222 235 254
222 235 254
222 235 254
222 235 254
222 235 254
222 235 254
222 235 254
222 235 254
222 235 254
222 235 254
222 235 254
222 235 254
222 235 254
222 235 254
222 235 254
222 235 254
222 235 254
222 235 254
222 235 254
222 235 254
222 235 254
222 235 254
222 235 254
222 235 254
222 235 254
222 235 254
222 235 254
222 235 254
222 235 254
222 235 254
222 235 254
222 235 254
222 235 254
222 235 254
222 235 254
222 235 254
222 235 254
222 235 254
222 235 254
222 235 254
222 235 254
214 225 242
121 102 90
113 89 71
114 90 72
114 90 72
112 88 71
112 88 71
113 89 71
113 89 72
112 88 71
111 88 70
113 89 71
112 88 71
113 90 72
163 177 197
141 157 179
137 155 178
158 189 230
156 191 238
147 167 192
145 159 188
136 153 169
127 143 164
130 148 172
128 145 169
124 140 164
120 135 158
113 127 149
111 124 145
115 129 149
118 131 153
118 131 152
115 125 147
108 113 128
101 104 110
98 99 106
86 87 94
80 85 92
83 85 87
160 164 164
176 177 180
173 176 180
170 174 180
168 173 180
166 172 180
164 171 180
163 171 180
161 170 180
160 169 180
159 169 180
158 168 180
157 168 180
156 168 180
155 167 180
155 167 180
154 167 180
153 166 180
153 166 180
152 166 180
152 166 180
152 165 180
152 165 180
151 165 180
151 165 180
151 165 180
151 165 180
151 165 180
151 165 180
151 165 180
151 165 180
152 165 180
152 166 180
152 166 180
153 166 180
153 166 180
154 166 180
154 167 180
155 167 180
156 167 180
157 168 180
158 168 180
159 169 180
160 169 180
161 170 180
162 170 180
164 171 180
165 172 180
167 173 180
169 174 180
171 175 180
174 176 180
178 178 180
213 224 239
222 235 254
222 235 254
222 235 254
222 235 254
222 235 254
222 235 254
222 235 254
222 235 254
222 235 254
222 235 254
222 235 254
222 235 254
222 235 254
222 235 254
222 235 254
222 235 254
222 235 254
222 235 254
222 235 254
222 235 254
222 235 254
222 235 254
222 235 254
222 235 254
222 235 254
222 235 254
222 235 254
222 235 254
222 235 254
222 235 254
222 235 254
222 235 254
222 235 254
222 235 254
222 235 254
222 235 254
222 235 254
222 235 254
222 235 254
222 235 254
222 235 254
222 235 254
222 235 254
222 235 254
222 235 254
222 235 254
222 235 254
222 235 254
222 235 254
222 235 254
222 235 254
222 235 254
222 235 254
222 235 254
222 235 254
222 235 254
222 235 254
222 235 254
222 235 254
222 235 254
222 235 254
222 235 254
222 235 254
222 235 254
222 235 254
222 235 254
222 235 254
222 235 254
222 235 254
222 235 254
222 235 254
222 235 254
222 235 254
222 235 254
222 235 254
222 235 254
222 235 254
222 235 254
222 235 254
222 235 254
222 235 254
222 235 254
222 235 254
222 235 254
222 235 254
222 235 254
222 235 254
222 235 254
222 235 254
222 235 254
222 235 254
222 235 254
222 235 254
222 235 254
222 235 254
222 235 254
222 235 254
222 235 254
222 235 254
222 235 254
222 235 254
222 235 254
222 235 254
222 235 254
222 235 254
222 235 254
222 235 254
192 199 212
113 89 71
113 89 71
113 89 71
113 89 71
111 88 70
111 88 71
113 89 71
112 88 71
112 88 71
111 88 70
111 88 70
112 89 71
131 123 124
148 162 182
138 154 176
136 153 176
162 192 232
135 156 181
130 147 170
134 153 177
133 150 173
129 145 169
129 146 172
122 138 164
104 117 142
80 90 117
79 88 112
101 111 131
110 122 143
112 124 145
116 127 151
109 114 131
116 120 130
113 118 125
108 112 120
98 101 107
85 88 91
122 133 135
177 178 180
174 176 180
171 175 180
169 174 180
167 173 180
165 172 180
164 171 180
163 171 180
161 170 180
160 169 180
159 169 180
158 168 180
157 168 180
156 168 180
156 167 180
155 167 180
154 167 180
154 166 180
153 166 180
153 166 180
153 166 180
152 166 180
152 166 180
152 165 180
152 165 180
152 165 180
152 165 180
152 165 180
152 165 180
152 165 180
152 166 180
152 166 180
152 166 180
153 166 180
153 166 180
154 166 180
154 167 180
155 167 180
155 167 180
156 167 180
157 168 180
158 168 180
159 169 180
160 169 180
161 170 180
162 170 180
163 171 180
165 172 180
166 172 180
168 173 180
170 174 180
172 175 180
175 177 180
179 179 180
221 235 254
222 235 254
222 235 254
222 235 254
222 235 254
222 235 254
222 235 254
222 235 254
222 235 254
222 235 254
222 235 254
222 235 254
222 235 254
222 235 254
222 235 254
222 235 254
222 235 254
222 235 254
222 235 254
222 235 254
222 235 254
222 235 254
222 235 254
222 235 254
222 235 254
222 235 254
222 235 254
222 235 254
222 235 254
222 235 254
222 235 254
222 235 254
222 235 254
222 235 254
222 235 254
222 235 254
222 235 254
222 235 254
222 235 254
222 235 254
222 235 254
222 235 254
222 236 254
222 236 254
222 236 254
222 236 254
222 236 254
222 236 254
222 236 254
222 236 254
222 236 254
222 236 254
222 236 254
222 236 254
222 236 254
222 236 254
222 236 254
222 236 254
222 236 254
222 236 254
222 236 254
222 236 254
222 236 254
222 236 254
222 236 254
222 236 254
222 236 254
222 236 254
222 236 254
222 236 254
222 236 254
222 236 254
222 236 254
222 236 254
222 236 254
222 236 254
222 236 254
222 236 254
222 236 254
222 236 254
222 236 254
222 236 254
222 236 254
222 236 254
222 236 254
222 236 254
222 236 254
222 236 254
222 236 254
222 236 254
222 236 254
222 236 254
222 236 254
222 236 254
222 236 254
222 236 254
222 236 254
222 236 254
222 236 254
222 236 254
222 236 254
222 236 254
222 236 254
222 236 254
222 236 254
222 236 254
222 235 254
162 160 166
112 88 71
111 87 70
111 87 70
111 88 70
111 87 70
110 86 69
111 88 70
112 88 71
110 87 70
111 87 70
110 87 70
110 87 70
163 175 193
138 151 171
139 155 178
135 153 176
131 149 172
129 146 169
137 155 178
135 153 178
134 151 174
132 150 175
129 146 172
119 134 165
103 116 158
99 112 152
98 110 147
102 115 147
117 132 153
118 131 153
113 125 146
101 106 125
144 147 154
165 169 175
146 160 150
162 168 168
81 82 81
179 179 180
175 177 180
173 176 180
170 174 180
168 173 180
167 173 180
165 172 180
164 171 180
163 171 180
161 170 180
160 170 180
159 169 180
158 169 180
158 168 180
157 168 180
156 168 180
156 167 180
155 167 180
154 167 180
154 166 180
154 166 180
153 166 180
153 166 180
153 166 180
153 166 180
152 166 180
152 166 180
152 166 180
152 166 180
152 166 180
153 166 180
153 166 180
153 166 180
153 166 180
153 166 180
154 166 180
154 167 180
155 167 180
155 167 180
156 167 180
157 168 180
157 168 180
158 168 180
159 169 180
160 169 180
161 170 180
162 170 180
163 171 180
164 172 180
166 172 180
167 173 180
169 174 180
171 175 180
174 176 180
177 178 180
183 183 183
222 236 254
222 235 254
220 234 252
220 233 252
220 233 252
222 235 254
222 236 254
222 236 254
222 236 254
222 236 254
222 236 254
222 236 254
222 236 254
222 236 254
222 235 254
222 236 254
222 236 254
222 236 254
222 236 254
222 236 254
222 236 254
222 236 254
222 236 254
222 236 254
222 236 254
222 236 254
222 236 254
222 236 254
222 236 254
222 236 254
222 236 254
222 236 254
222 236 254
222 236 254
222 235 254
222 236 254
222 236 254
222 236 254
222 236 254
222 236 254
222 236 254
222 236 254
222 236 254
222 236 254
222 236 254
222 236 254
222 236 254
222 236 254
222 235 254
222 236 254
222 235 254
222 235 254
222 235 254
222 235 254
222 235 254
222 235 254
221 235 254
222 235 254
222 235 254
221 235 254
221 235 254
221 235 254
221 235 254
222 235 254
221 235 253
221 234 253
221 234 253
221 235 254
221 234 253
220 234 253
220 234 253
220 234 253
221 234 253
220 233 252
220 233 252
219 233 252
220 234 253
220 233 252
220 233 252
219 232 251
219 233 252
218 232 251
219 233 252
218 232 251
218 231 250
219 232 251
218 231 250
219 232 251
218 232 251
218 232 251
217 230 249
217 231 250
218 231 250
217 230 250
216 230 249
216 229 249
217 230 249
217 230 250
217 230 249
216 229 248
218 231 250
216 229 248
216 230 249
215 229 247
215 229 248
214 228 247
139 131 131
110 86 69
109 86 69
110 86 69
109 85 68
111 87 70
110 86 69
109 86 69
109 86 69
110 87 69
111 88 70
110 87 69
115 97 88
152 165 185
141 156 179
135 153 176
132 149 172
131 149 172
135 153 174
133 152 175
136 154 178
130 147 171
130 147 171
130 146 171
110 124 169
120 135 182
108 131 160
107 115 138
92 102 131
112 126 145
112 125 142
110 122 142
151 159 171
184 192 195
178 189 195
173 185 191
103 94 91
173 173 173
177 178 180
174 176 180
172 175 180
170 174 180
168 173 180
166 173 180
165 172 180
164 171 180
163 171 180
162 170 180
161 170 180
160 169 180
159 169 180
158 168 180
157 168 180
157 168 180
156 168 180
156 167 180
155 167 180
155 167 180
154 167 180
154 167 180
154 166 180
154 166 180
153 166 180
153 166 180
153 166 180
153 166 180
153 166 180
153 166 180
153 166 180
154 166 180
154 166 180
154 166 180
154 167 180
155 167 180
155 167 180
155 167 180
156 167 180
157 168 180
157 168 180
158 168 180
159 169 180
159 169 180
160 169 180
161 170 180
162 170 180
163 171 180
164 172 180
166 172 180
167 173 180
169 174 180
171 175 180
173 176 180
175 177 180
178 179 180
205 212 224
214 227 245
204 218 234
201 215 230
204 218 234
215 229 247
219 233 252
220 234 253
221 234 253
220 234 253
220 233 252
221 234 253
220 234 253
217 229 249
216 227 248
219 231 251
221 234 253
220 234 253
221 235 254
221 234 253
220 233 253
218 232 252
218 232 252
220 234 253
219 233 252
219 232 252
222 235 254
222 235 254
222 235 254
222 235 254
222 236 254
222 236 254
221 235 253
220 234 252
218 232 250
219 234 252
222 235 254
222 235 254
222 236 254
221 235 253
219 233 251
212 225 245
211 225 244
212 226 245
209 223 242
208 222 242
210 224 243
210 224 243
208 222 242
207 221 241
209 223 242
208 222 241
206 220 240
205 219 239
206 220 239
205 219 239
207 221 240
207 221 240
205 219 238
201 216 235
203 217 237
201 215 235
200 215 234
199 213 233
200 214 234
200 214 234
200 214 234
199 213 233
199 213 233
196 211 231
195 210 230
195 210 230
194 208 229
193 207 228
193 207 228
195 210 230
189 204 225
190 204 225
188 203 224
187 202 222
188 203 223
186 201 221
187 202 222
185 200 220
184 199 220
186 201 222
185 200 221
182 197 218
183 199 219
183 198 219
182 197 218
180 195 216
178 194 215
178 193 215
177 193 214
177 192 213
179 194 215
177 192 213
176 192 213
176 191 212
174 189 211
173 188 209
171 187 205
166 184 199
168 186 201
167 183 200
118 104 97
108 84 68
108 85 68
108 85 68
109 85 69
108 85 68
109 86 69
109 86 69
108 85 68
109 86 68
109 86 68
108 85 68
144 146 155
135 139 155
136 153 172
119 134 153
127 143 165
130 147 171
139 156 179
138 155 179
132 148 171
126 142 165
127 142 166
126 141 167
158 173 229
161 181 244
148 166 222
85 74 77
106 117 143
114 128 146
112 127 144
114 129 147
136 144 148
179 191 196
170 186 195
113 108 107
115 110 109
179 179 180
176 177 180
173 176 180
171 175 180
169 174 180
168 173 180
167 173 180
165 172 180
164 171 180
163 171 180
162 170 180
161 170 180
160 170 180
160 169 180
159 169 180
158 168 180
158 168 180
157 168 180
157 168 180
156 167 180
156 167 180
155 167 180
155 167 180
155 167 180
155 167 180
154 167 180
154 167 180
154 167 180
154 167 180
154 167 180
154 167 180
154 167 180
155 167 180
155 167 180
155 167 180
155 167 180
156 167 180
156 167 180
156 168 180
157 168 180
157 168 180
158 168 180
159 169 180
159 169 180
160 169 180
161 170 180
162 170 180
163 171 180
164 171 180
165 172 180
166 172 180
167 173 180
169 174 180
170 174 180
172 175 180
174 176 180
177 178 180
181 180 180
172 186 203
161 176 189
160 175 188
167 182 195
177 192 209
189 203 224
191 206 226
192 207 227
194 208 228
193 208 228
193 207 227
191 201 224
185 190 217
187 192 218
190 197 221
194 207 228
199 215 233
201 215 235
198 212 233
190 204 230
186 200 229
186 200 227
192 206 230
189 204 226
187 202 224
198 213 233
205 219 239
208 222 241
206 220 240
207 221 241
207 221 240
204 220 237
202 218 233
203 220 235
204 220 236
208 222 240
210 224 243
210 223 243
207 220 239
198 210 228
163 180 201
161 178 199
162 178 200
160 177 199
161 177 199
160 176 199
159 175 198
160 177 199
158 175 197
158 175 197
157 174 196
158 175 197
156 173 196
156 173 196
152 169 192
154 171 193
154 171 193
154 171 194
151 168 191
153 170 193
151 169 192
150 168 191
151 168 191
150 167 190
149 166 189
151 168 191
148 165 188
148 166 189
148 165 189
148 165 188
145 163 187
147 164 187
146 164 187
146 164 187
145 163 186
147 164 188
144 162 185
144 162 185
145 163 186
146 163 187
144 162 185
143 161 185
144 161 185
143 161 185
143 161 185
143 161 184
143 161 185
143 161 184
143 161 184
141 159 183
142 160 184
141 159 183
141 159 183
140 158 182
140 158 182
142 160 183
141 159 183
141 159 182
139 158 182
140 159 183
137 156 177
130 151 165
122 147 152
121 146 150
124 147 154
107 90 78
105 83 66
106 83 67
107 84 67
109 86 68
106 83 67
107 84 67
108 85 68
107 84 67
106 84 67
108 85 68
106 83 67
164 175 194
120 119 134
119 131 139
107 123 141
128 145 166
131 149 172
123 139 162
82 90 114
117 131 154
129 145 169
128 144 167
126 142 166
159 180 243
147 174 243
134 150 201
139 151 195
116 130 149
108 122 139
110 124 140
117 133 151
124 140 161
133 145 160
174 182 185
122 115 112
180 179 179
177 178 180
175 177 180
173 176 180
171 175 180
169 174 180
168 173 180
167 173 180
166 172 180
165 172 180
164 171 180
163 171 180
162 170 180
161 170 180
160 170 180
160 169 180
159 169 180
158 169 180
158 168 180
158 168 180
157 168 180
157 168 180
156 168 180
156 168 180
156 167 180
156 167 180
156 167 180
155 167 180
155 167 180
155 167 180
155 167 180
155 167 180
156 167 180
156 167 180
156 167 180
156 167 180
156 168 180
157 168 180
157 168 180
157 168 180
158 168 180
158 169 180
159 169 180
159 169 180
160 169 180
161 170 180
161 170 180
162 170 180
163 171 180
164 171 180
165 172 180
166 172 180
167 173 180
169 174 180
170 174 180
172 175 180
174 176 180
176 177 180
179 179 180
167 169 172
112 129 140
110 128 137
115 133 143
122 140 155
143 161 184
145 163 186
145 163 186
147 164 188
146 164 187
145 161 185
141 144 175
137 133 170
136 130 168
138 136 171
138 154 176
140 168 183
147 166 188
142 159 188
123 140 181
117 135 180
122 140 183
125 142 179
121 140 172
125 144 173
133 151 178
152 169 192
156 173 195
156 173 196
156 173 195
157 175 196
160 180 196
156 177 190
161 182 196
162 182 196
161 179 197
160 176 197
162 176 196
147 161 179
130 141 158
128 147 168
127 146 167
129 149 170
135 154 178
137 156 180
137 156 180
137 156 180
137 156 180
137 156 180
137 156 180
137 156 180
137 156 180
138 156 180
137 156 180
137 156 180
137 156 180
137 156 180
137 156 180
136 155 180
131 154 182
128 154 183
128 154 183
131 154 182
137 156 180
137 156 180
137 156 180
137 156 180
138 156 180
137 156 180
137 156 180
137 156 180
137 156 180
137 156 180
137 156 180
137 156 180
137 156 180
137 156 180
137 156 180
137 156 180
137 156 180
137 155 180
137 156 180
137 155 180
137 156 180
137 156 180
137 156 180
138 156 180
137 156 180
138 156 180
137 156 180
137 155 180
138 156 180
137 156 180
137 156 180
137 156 180
137 156 180
137 156 180
137 156 180
137 156 180
137 155 180
128 149 165
115 141 143
110 139 132
109 138 132
114 139 138
105 89 77
105 82 65
105 82 65
103 81 65
106 84 67
106 84 67
106 84 67
106 83 66
104 82 66
105 83 66
105 82 66
106 85 70
152 162 182
139 149 169
111 120 103
78 95 108
131 148 167
133 152 174
119 134 161
96 106 142
118 133 161
130 148 170
121 138 158
90 105 114
124 140 180
157 179 241
136 153 196
107 121 137
98 110 120
94 105 114
94 106 117
100 112 126
118 133 152
119 134 154
96 85 127
118 117 128
179 179 180
177 178 180
174 177 180
173 176 180
171 175 180
170 174 180
168 173 180
167 173 180
166 172 180
165 172 180
164 171 180
163 171 180
163 171 180
162 170 180
161 170 180
161 170 180
160 169 180
160 169 180
159 169 180
159 169 180
158 169 180
158 168 180
158 168 180
157 168 180
157 168 180
157 168 180
157 168 180
157 168 180
157 168 180
157 168 180
157 168 180
157 168 180
157 168 180
157 168 180
157 168 180
157 168 180
157 168 180
158 168 180
158 168 180
158 169 180
159 169 180
159 169 180
160 169 180
160 170 180
161 170 180
162 170 180
162 170 180
163 171 180
164 171 180
165 172 180
166 172 180
167 173 180
168 173 180
169 174 180
170 174 180
172 175 180
173 176 180
175 177 180
178 178 180
181 180 180
99 115 131
92 111 114
93 113 113
111 129 141
134 153 176
137 156 180
137 156 180
137 156 180
137 156 180
134 148 175
125 115 156
123 106 153
122 101 150
119 114 150
114 135 154
114 157 162
128 154 174
110 128 168
94 113 166
88 107 165
89 109 165
95 115 163
90 111 152
90 111 147
100 120 153
126 144 171
137 156 180
137 156 180
137 156 180
139 159 178
142 165 177
144 167 177
146 170 179
145 168 178
141 162 176
127 138 152
118 126 137
104 113 128
91 99 114
115 136 153
117 138 155
120 140 158
126 146 166
135 154 177
137 156 180
137 156 180
137 156 180
138 156 180
137 156 180
138 156 180
136 155 180
137 156 180
137 156 180
138 156 180
137 156 180
138 156 180
137 156 180
130 153 181
121 151 183
113 150 185
116 150 185
119 151 185
130 154 181
137 156 180
138 156 180
137 155 180
137 156 180
137 156 180
137 156 180
137 155 180
137 156 180
137 156 180
137 156 180
137 156 180
135 156 179
131 156 178
130 156 178
132 156 178
135 155 179
136 154 179
137 155 180
137 155 180
137 156 180
137 156 180
137 156 180
137 156 180
137 156 180
137 156 180
137 156 180
137 156 180
137 156 180
137 156 180
137 156 180
137 156 180
137 156 180
136 155 179
135 154 178
135 154 177
136 155 179
124 146 159
102 132 120
96 129 109
95 130 107
99 129 113
103 90 75
103 81 64
104 82 65
106 83 66
105 82 65
102 80 64
102 80 64
104 82 65
105 83 66
105 82 66
106 84 67
113 97 88
143 143 165
144 160 175
98 111 115
92 108 121
137 155 175
122 140 154
131 143 179
134 142 184
120 136 158
130 149 171
130 149 170
56 83 69
58 82 70
118 136 155
118 135 154
90 104 112
92 103 108
88 98 103
82 92 96
93 104 115
117 133 151
116 131 150
91 59 120
181 179 179
178 179 180
176 177 180
174 176 180
173 176 180
171 175 180
170 174 180
169 174 180
168 173 180
167 173 180
166 172 180
165 172 180
164 171 180
164 171 180
163 171 180
162 170 180
162 170 180
161 170 180
161 170 180
160 169 180
160 169 180
159 169 180
159 169 180
159 169 180
159 169 180
158 169 180
158 168 180
158 168 180
158 168 180
158 168 180
158 168 180
158 168 180
158 168 180
158 168 180
158 168 180
158 169 180
158 169 180
159 169 180
159 169 180
159 169 180
160 169 180
160 169 180
160 170 180
161 170 180
161 170 180
162 170 180
163 171 180
163 171 180
164 171 180
165 172 180
165 172 180
166 172 180
167 173 180
168 173 180
169 174 180
171 175 180
172 175 180
173 176 180
175 177 180
177 178 180
180 179 180
158 158 162
76 98 86
81 103 93
99 119 121
130 149 170
137 155 180
137 156 180
137 156 180
138 156 180
134 147 174
118 101 147
115 80 138
111 78 134
107 95 134
100 123 138
97 152 148
120 151 167
97 115 162
71 91 155
62 84 155
63 85 156
64 86 150
65 89 134
67 91 133
83 105 141
122 141 168
137 156 180
137 156 180
138 156 180
140 160 177
142 165 172
142 166 172
145 170 175
142 165 171
135 157 160
109 119 109
98 97 85
76 75 76
65 66 86
106 129 141
104 127 139
110 131 145
116 137 154
132 151 173
137 156 180
137 156 180
137 156 180
137 156 180
137 155 180
137 155 180
138 155 180
137 156 180
137 156 180
137 156 180
137 156 180
137 156 180
136 155 180
119 150 182
103 146 184
99 146 186
100 145 185
105 146 183
119 150 182
136 155 180
137 156 180
137 156 180
137 156 180
137 156 180
137 155 180
138 156 180
137 156 180
137 156 180
137 156 180
136 156 179
127 156 177
121 155 174
119 155 174
122 149 174
125 144 173
129 145 175
131 149 176
136 154 179
137 156 180
137 156 180
137 156 180
137 156 180
136 155 179
136 155 179
137 155 179
137 156 180
137 156 179
136 154 177
134 151 174
135 155 177
132 153 173
128 149 170
124 146 167
123 145 164
127 148 169
119 143 153
91 124 101
77 117 73
79 118 75
88 122 93
101 91 72
101 80 63
103 81 64
105 82 65
103 81 64
103 81 64
103 81 65
105 82 65
103 81 65
105 82 66
104 81 65
129 123 126
143 147 169
146 161 175
97 115 133
163 181 179
128 145 160
120 138 142
145 159 200
145 161 216
131 149 169
133 151 173
125 144 159
64 94 77
57 87 70
111 129 145
61 83 75
63 83 71
73 83 72
76 84 78
73 80 77
84 95 99
98 115 124
97 113 122
109 105 127
180 180 180
178 178 180
176 177 180
174 177 180
173 176 180
172 175 180
171 175 180
169 174 180
168 174 180
168 173 180
167 173 180
166 172 180
165 172 180
165 172 180
164 171 180
163 171 180
163 171 180
162 170 180
162 170 180
161 170 180
161 170 180
161 170 180
160 170 180
160 169 180
160 169 180
160 169 180
160 169 180
159 169 180
159 169 180
159 169 180
159 169 180
159 169 180
159 169 180
159 169 180
159 169 180
160 169 180
160 169 180
160 169 180
160 169 180
161 170 180
161 170 180
161 170 180
162 170 180
162 170 180
163 171 180
163 171 180
164 171 180
164 171 180
165 172 180
166 172 180
166 172 180
167 173 180
168 173 180
169 174 180
170 174 180
171 175 180
172 175 180
174 176 180
175 177 180
177 178 180
179 179 180
182 181 180
67 86 72
66 92 65
84 108 98
121 142 155
136 155 178
138 156 180
137 156 180
137 155 180
132 145 172
115 89 140
107 60 127
103 55 121
101 73 122
91 110 126
83 145 135
117 148 164
94 112 160
50 72 145
40 66 147
46 70 148
52 75 141
47 71 118
53 78 121
74 96 132
121 140 167
137 156 180
137 156 180
137 156 180
140 159 176
139 161 166
142 166 167
139 164 164
135 163 154
121 150 126
91 119 64
85 89 71
67 59 111
60 38 140
93 117 125
91 116 123
96 119 129
105 127 140
130 149 171
137 156 180
137 156 180
137 156 180
134 153 179
130 147 178
130 143 178
134 144 179
133 148 179
135 152 179
135 152 177
136 152 177
137 155 179
135 154 179
107 144 179
85 139 182
80 139 184
77 137 183
84 138 181
105 143 179
135 155 180
137 156 180
137 155 180
137 156 180
138 156 180
137 156 180
137 156 180
137 156 180
137 155 180
141 156 185
137 155 186
120 153 175
113 153 170
110 149 169
112 138 167
114 130 166
118 132 167
121 136 168
130 146 175
137 155 180
138 156 180
137 155 180
134 153 177
127 145 169
127 144 167
131 149 172
134 152 175
120 133 150
101 107 116
103 114 122
114 138 148
116 145 156
113 140 154
112 137 153
110 136 152
113 137 153
110 135 143
87 120 96
72 111 64
74 114 67
83 118 86
97 96 78
100 79 63
101 79 63
102 80 64
101 80 63
102 80 63
102 80 64
101 79 63
103 81 64
101 80 64
100 79 63
132 129 136
128 147 166
137 153 174
124 149 173
138 154 177
121 140 127
110 129 98
120 146 147
77 129 64
132 144 168
129 142 166
135 153 175
66 100 78
77 106 92
119 134 151
66 95 80
71 92 78
76 89 77
83 91 90
88 96 100
69 86 73
79 104 93
81 103 95
174 173 173
180 179 180
178 178 180
176 177 180
175 177 180
173 176 180
172 175 180
171 175 180
170 174 180
169 174 180
168 174 180
168 173 180
167 173 180
166 172 180
166 172 180
165 172 180
165 172 180
164 171 180
164 171 180
163 171 180
163 171 180
162 171 180
162 170 180
162 170 180
162 170 180
161 170 180
161 170 180
161 170 180
161 170 180
161 170 180
161 170 180
161 170 180
161 170 180
161 170 180
161 170 180
161 170 180
161 170 180
161 170 180
161 170 180
162 170 180
162 170 180
162 170 180
163 171 180
163 171 180
163 171 180
164 171 180
164 171 180
165 172 180
165 172 180
166 172 180
167 173 180
167 173 180
168 173 180
169 174 180
170 174 180
171 175 180
172 175 180
173 176 180
174 176 180
175 177 180
177 178 180
179 179 180
181 180 180
114 118 112
65 82 53
74 95 76
111 132 139
135 153 176
137 156 180
138 156 180
137 156 180
132 143 171
114 94 141
109 75 131
107 69 127
104 73 124
94 103 125
99 143 140
142 170 172
150 175 179
116 137 161
75 95 148
70 90 151
81 95 146
97 94 130
102 92 126
95 101 134
119 137 163
132 151 174
135 154 178
137 155 178
138 155 167
136 155 154
137 158 153
135 158 149
128 154 137
110 142 105
82 121 55
76 89 100
71 65 145
68 52 162
77 104 106
76 103 104
79 105 108
94 117 126
124 143 163
137 156 180
137 156 180
135 154 179
114 136 174
101 118 171
98 111 174
111 115 174
127 128 174
120 120 159
116 105 139
120 110 137
130 136 160
135 154 178
99 139 176
69 132 178
56 130 178
53 130 179
60 129 176
94 139 178
134 154 179
134 154 178
134 154 177
135 155 178
137 156 179
137 156 180
137 155 180
137 156 180
146 158 190
151 160 206
137 155 198
112 150 175
102 147 165
97 135 159
97 121 155
102 113 155
103 112 155
106 116 155
117 131 165
135 153 178
137 156 180
134 152 177
122 139 162
113 129 151
111 127 149
113 130 152
112 126 145
78 76 73
66 57 39
74 89 78
87 121 113
90 129 127
88 125 128
92 124 133
94 123 135
99 126 139
95 124 127
91 122 107
112 144 140
131 164 176
134 167 182
118 130 135
99 77 62
100 78 63
100 78 62
102 80 64
100 78 62
100 79 63
100 79 63
100 79 63
102 80 64
100 79 63
122 119 131
140 163 184
118 126 139
115 145 168
124 137 170
133 157 119
113 130 103
126 151 158
87 146 82
122 90 147
130 119 162
135 154 177
127 145 161
120 141 126
116 129 134
76 115 137
76 107 111
80 82 128
96 107 116
96 106 118
71 84 84
74 101 74
76 97 77
182 180 180
180 179 180
178 178 180
176 178 180
175 177 180
174 176 180
173 176 180
172 175 180
171 175 180
170 174 180
169 174 180
169 174 180
168 173 180
167 173 180
167 173 180
166 172 180
166 172 180
165 172 180
165 172 180
165 172 180
164 171 180
164 171 180
164 171 180
163 171 180
163 171 180
163 171 180
163 171 180
163 171 180
162 171 180
162 170 180
162 170 180
162 170 180
162 170 180
162 170 180
162 171 180
162 171 180
163 171 180
163 171 180
163 171 180
163 171 180
163 171 180
164 171 180
164 171 180
164 171 180
165 172 180
165 172 180
165 172 180
166 172 180
166 173 180
167 173 180
168 173 180
168 173 180
169 174 180
170 174 180
170 175 180
171 175 180
172 175 180
173 176 180
174 177 180
176 177 180
177 178 180
179 179 180
181 180 180
178 176 174
68 72 49
71 82 62
99 118 119
133 152 175
137 156 180
137 155 180
135 155 181
128 147 174
114 122 153
112 101 142
113 97 139
112 102 140
115 121 143
163 186 173
180 210 193
179 212 196
180 209 192
151 173 173
127 157 184
138 171 195
148 166 186
143 133 155
127 104 128
103 115 134
101 124 140
117 138 157
131 146 165
130 142 149
130 145 139
132 148 140
130 146 138
127 146 132
108 134 103
76 106 54
71 83 106
70 73 124
65 69 142
64 94 90
60 91 85
68 97 95
90 114 121
123 143 162
137 156 180
137 156 180
123 144 175
73 107 164
54 96 166
55 93 168
69 94 170
84 93 161
97 79 133
97 71 120
101 68 107
108 78 103
127 134 158
100 140 177
51 126 174
31 121 172
38 121 169
77 131 169
109 139 164
127 147 163
118 145 163
112 143 161
116 145 163
129 151 173
136 154 179
137 155 179
138 155 180
154 158 196
154 159 203
138 154 191
98 143 160
84 137 148
89 121 148
88 104 145
87 93 142
86 91 141
90 97 142
103 113 151
134 152 177
138 156 180
128 145 168
109 125 146
99 114 135
92 107 127
98 113 133
82 91 105
57 48 40
61 53 46
76 103 98
84 124 117
76 117 112
68 110 107
66 106 106
71 106 110
85 109 117
107 117 130
138 144 159
153 181 202
142 177 199
130 168 183
124 154 160
98 80 65
96 76 60
100 78 62
98 77 61
99 78 62
97 76 61
98 77 61
98 77 61
98 77 61
97 77 61
148 153 166
169 186 206
131 148 155
121 148 154
103 125 138
143 172 166
113 118 108
97 117 117
81 137 120
130 102 155
114 113 148
144 161 185
75 94 130
117 144 100
147 163 173
94 136 185
76 118 170
88 85 179
106 118 134
101 113 122
79 87 112
89 102 92
119 123 120
182 180 180
180 179 180
178 178 180
177 178 180
176 177 180
175 177 180
174 176 180
173 176 180
172 175 180
171 175 180
171 175 180
170 174 180
169 174 180
169 174 180
168 173 180
168 173 180
167 173 180
167 173 180
166 172 180
166 172 180
166 172 180
165 172 180
165 172 180
165 172 180
165 172 180
164 172 180
164 171 180
164 171 180
164 171 180
164 171 180
164 171 180
164 171 180
164 171 180
164 171 180
164 171 180
164 171 180
164 171 180
164 171 180
164 172 180
165 172 180
165 172 180
165 172 180
165 172 180
166 172 180
166 172 180
166 172 180
167 173 180
167 173 180
168 173 180
168 173 180
169 174 180
169 174 180
170 174 180
171 175 180
171 175 180
172 175 180
173 176 180
174 176 180
175 177 180
176 177 180
177 178 180
179 179 180
181 180 180
183 181 180
69 55 43
69 64 49
88 99 97
133 151 173
136 154 180
130 147 184
116 149 187
107 156 186
105 156 184
106 151 168
112 125 149
120 123 153
129 138 153
173 195 175
181 207 184
184 211 189
178 197 178
171 197 198
163 205 221
147 189 209
138 178 198
128 158 173
84 93 107
62 82 91
58 90 96
78 107 113
119 133 146
125 134 136
124 133 124
122 131 120
123 134 124
117 129 112
104 123 92
77 103 53
73 90 83
69 84 101
58 96 144
44 91 69
38 116 84
48 134 103
68 128 112
119 143 159
137 156 180
137 155 180
105 131 168
33 90 152
48 92 154
59 93 162
61 92 162
65 90 163
82 78 144
87 71 128
90 66 112
95 58 85
112 102 126
102 138 174
69 128 171
58 122 166
93 128 156
126 137 144
128 137 137
105 130 131
90 129 135
86 130 142
91 128 145
109 133 159
126 141 171
130 146 175
135 151 177
132 135 169
118 121 156
112 126 155
88 130 143
101 127 142
114 110 140
113 96 137
99 87 132
80 78 128
75 77 128
92 100 142
135 153 177
137 155 179
111 128 149
87 102 122
78 92 110
74 87 106
76 89 107
63 69 85
51 42 51
56 49 56
75 104 104
76 110 111
68 103 104
56 95 94
54 96 95
57 95 95
64 94 98
104 113 130
177 150 189
170 162 188
119 150 152
105 142 136
100 137 128
95 87 73
97 76 60
96 75 59
95 74 59
95 74 59
96 76 60
96 76 60
97 76 60
96 76 60
98 78 62
144 148 159
203 218 238
208 222 240
208 222 240
215 229 248
150 169 168
189 202 220
126 130 149
147 182 184
120 124 165
103 158 205
163 180 202
129 148 185
130 157 140
117 141 155
97 111 167
105 141 177
91 140 108
92 105 105
75 86 79
129 145 166
116 128 135
173 172 171
182 180 180
180 179 180
179 179 180
177 178 180
176 178 180
175 177 180
175 177 180
174 176 180
173 176 180
172 175 180
172 175 180
171 175 180
170 175 180
170 174 180
169 174 180
169 174 180
169 174 180
168 173 180
168 173 180
167 173 180
167 173 180
167 173 180
167 173 180
166 172 180
166 172 180
166 172 180
166 172 180
166 172 180
166 172 180
166 172 180
165 172 180
165 172 180
165 172 180
165 172 180
166 172 180
166 172 180
166 172 180
166 172 180
166 172 180
166 172 180
166 172 180
167 173 180
167 173 180
167 173 180
167 173 180
168 173 180
168 173 180
169 174 180
169 174 180
169 174 180
170 174 180
171 175 180
171 175 180
172 175 180
172 176 180
173 176 180
174 176 180
175 177 180
176 177 180
177 178 180
178 178 180
179 179 180
181 180 180
183 181 180
98 81 86
81 61 62
86 83 84
131 148 171
127 143 180
108 128 184
92 130 189
93 136 192
92 134 191
96 149 183
105 158 168
118 141 167
126 150 166
127 156 147
132 157 140
138 161 141
138 152 138
155 188 194
144 180 191
136 170 184
125 157 172
78 107 120
36 70 81
29 66 76
28 68 74
47 89 89
97 114 117
113 124 123
109 117 107
113 119 108
112 116 102
110 116 95
95 110 72
74 99 42
72 95 55
65 98 91
82 144 168
29 138 93
30 162 112
30 173 121
40 173 127
92 159 147
135 156 178
137 155 179
109 133 164
39 91 138
60 96 142
69 99 148
71 96 150
73 95 152
75 84 145
78 72 133
81 66 118
87 54 79
108 98 120
113 142 173
93 134 170
87 127 160
119 130 136
129 132 130
107 124 123
72 117 117
49 113 113
49 108 119
62 102 129
82 104 141
107 115 158
117 126 164
119 130 164
115 123 154
102 106 139
98 112 139
103 114 132
120 111 131
124 107 129
125 104 127
123 97 128
102 86 127
80 82 125
95 104 142
126 144 167
128 146 169
106 122 143
64 78 95
50 63 80
44 57 74
48 58 79
51 56 83
47 41 65
52 47 62
66 88 98
70 96 104
59 89 97
51 86 90
55 91 92
62 92 94
65 91 94
103 107 122
170 142 178
157 137 159
82 113 97
64 109 80
65 111 81
77 97 71
94 73 58
94 73 58
95 74 59
92 72 58
95 75 58
95 75 59
94 75 59
93 74 58
95 75 59
133 134 142
198 211 234
207 223 240
215 229 248
215 231 250
215 229 249
216 231 249
211 223 244
216 230 249
195 209 225
210 226 247
217 231 251
217 231 249
199 217 223
208 222 240
164 175 210
193 210 235
204 222 235
207 220 238
202 215 232
216 229 248
194 200 218
184 181 180
182 180 180
180 180 180
179 179 180
178 178 180
177 178 180
176 177 180
175 177 180
175 177 180
174 176 180
173 176 180
173 176 180
172 175 180
172 175 180
171 175 180
171 175 180
170 174 180
170 174 180
170 174 180
169 174 180
169 174 180
169 174 180
168 174 180
168 173 180
168 173 180
168 173 180
168 173 180
167 173 180
167 173 180
167 173 180
167 173 180
167 173 180
167 173 180
167 173 180
167 173 180
167 173 180
167 173 180
167 173 180
167 173 180
168 173 180
168 173 180
168 173 180
168 173 180
168 173 180
169 174 180
169 174 180
169 174 180
170 174 180
170 174 180
170 174 180
171 175 180
171 175 180
172 175 180
172 175 180
173 176 180
174 176 180
174 176 180
175 177 180
176 177 180
176 178 180
177 178 180
178 179 180
180 179 180
181 180 180
183 181 180
162 164 164
161 178 181
157 172 174
148 162 177
112 121 177
86 105 183
79 97 193
78 97 193
81 107 189
89 133 185
111 159 184
120 161 187
117 160 184
112 153 161
109 145 141
114 134 120
112 128 119
123 154 162
100 128 139
91 116 131
81 105 121
41 68 85
32 60 78
31 62 77
29 62 73
41 96 100
82 106 103
99 111 106
99 111 103
101 110 100
105 105 90
99 100 71
86 98 55
73 97 39
71 97 39
62 111 96
55 151 175
32 153 103
31 158 107
29 167 115
27 177 125
51 176 133
123 160 170
136 155 179
122 144 163
66 103 128
69 100 132
80 105 138
81 103 144
80 100 144
79 91 141
77 84 135
72 71 120
82 61 84
119 126 148
124 147 175
110 140 171
105 132 159
121 125 124
120 123 121
87 115 113
34 106 106
24 103 105
44 90 116
55 80 126
65 73 135
90 91 148
97 96 151
107 112 155
122 135 165
112 122 149
99 106 131
107 106 122
104 110 118
96 112 115
97 110 115
106 105 116
112 94 118
97 100 133
106 119 150
121 138 157
120 133 151
99 111 127
53 64 80
23 41 57
28 54 66
31 41 67
38 41 75
56 57 88
64 63 89
68 80 100
66 84 100
59 79 95
66 78 90
80 88 94
80 90 98
79 89 98
86 92 102
119 102 129
96 104 105
62 106 75
57 103 70
57 103 70
59 99 68
88 75 58
91 72 57
91 71 57
90 71 56
92 72 57
91 72 56
91 72 56
90 72 55
90 72 56
119 116 119
197 207 233
206 223 241
211 226 246
214 229 249
214 228 249
216 231 251
216 231 251
217 231 252
217 232 252
217 231 251
217 231 252
217 231 252
217 231 251
215 230 249
211 224 244
215 229 248
216 230 250
214 228 248
214 229 248
215 230 249
197 209 224
184 181 180
182 180 180
181 180 180
180 179 180
179 179 180
178 178 180
177 178 180
177 178 180
176 177 180
175 177 180
175 177 180
174 176 180
174 176 180
173 176 180
173 176 180
172 175 180
172 175 180
171 175 180
171 175 180
171 175 180
171 175 180
170 174 180
170 174 180
170 174 180
170 174 180
169 174 180
169 174 180
169 174 180
169 174 180
169 174 180
169 174 180
169 174 180
169 174 180
169 174 180
169 174 180
169 174 180
169 174 180
169 174 180
169 174 180
169 174 180
169 174 180
170 174 180
170 174 180
170 174 180
170 174 180
170 175 180
171 175 180
171 175 180
171 175 180
172 175 180
172 175 180
173 176 180
173 176 180
174 176 180
174 176 180
175 177 180
175 177 180
176 177 180
177 178 180
177 178 180
178 178 180
179 179 180
180 179 180
181 180 180
183 181 180
177 174 172
165 181 188
167 182 188
169 183 188
107 103 172
70 62 185
65 51 192
65 47 195
66 68 193
81 115 190
104 149 186
103 156 183
104 157 184
106 154 180
105 140 151
106 122 121
113 125 130
113 137 150
89 115 129
71 92 112
60 80 102
34 56 80
34 55 80
32 55 76
30 57 73
47 111 119
80 117 117
90 101 92
94 98 86
95 99 86
95 96 83
95 95 69
90 101 76
79 102 65
77 100 68
63 117 117
26 154 186
35 131 85
32 137 90
29 146 98
29 166 118
27 168 119
100 161 153
134 153 174
128 150 158
100 129 133
81 108 125
87 111 131
87 108 137
86 106 136
84 102 135
78 100 134
72 95 126
105 119 133
133 150 173
132 152 177
123 145 173
117 139 165
114 120 122
111 114 111
79 108 107
23 100 100
27 94 99
57 77 125
70 64 145
76 54 153
80 55 156
85 68 153
89 81 145
109 117 153
127 143 167
117 132 152
89 106 110
77 109 106
75 109 105
77 110 106
79 109 105
93 100 106
110 115 142
119 134 160
139 157 177
172 187 204
149 161 179
94 106 121
32 65 73
35 79 83
36 62 81
37 41 78
57 59 96
89 95 128
86 94 125
81 86 111
89 69 94
101 71 94
116 80 92
108 81 90
94 86 98
97 90 108
114 95 121
86 99 95
55 98 67
52 94 64
53 95 64
52 93 63
68 83 60
89 70 55
90 71 56
89 70 55
87 69 54
88 70 54
86 68 53
87 70 53
88 70 53
105 95 91
192 206 231
208 225 245
210 226 247
212 227 249
213 229 250
214 229 250
215 230 252
215 231 252
215 231 251
216 231 252
214 228 250
215 230 252
215 230 251
214 229 249
215 230 250
214 229 248
214 230 248
215 229 249
215 229 249
215 229 248
192 196 203
184 181 180
183 181 180
181 180 180
181 180 180
180 179 180
179 179 180
178 178 180
178 178 180
177 178 180
176 178 180
176 177 180
175 177 180
175 177 180
174 177 180
174 176 180
174 176 180
173 176 180
173 176 180
173 176 180
172 175 180
172 175 180
172 175 180
172 175 180
171 175 180
171 175 180
171 175 180
171 175 180
171 175 180
171 175 180
171 175 180
171 175 180
171 175 180
170 175 180
170 175 180
170 175 180
171 175 180
171 175 180
171 175 180
171 175 180
171 175 180
171 175 180
171 175 180
171 175 180
172 175 180
172 175 180
172 175 180
172 175 180
173 176 180
173 176 180
173 176 180
174 176 180
174 176 180
174 177 180
175 177 180
175 177 180
176 177 180
176 178 180
177 178 180
178 178 180
178 179 180
179 179 180
180 179 180
181 180 180
182 180 180
183 181 180
185 182 180
160 162 171
162 165 176
158 164 177
99 81 166
63 33 177
58 28 183
59 28 185
55 63 185
56 111 190
79 144 183
87 154 181
90 148 174
98 143 168
107 140 162
108 125 143
119 127 144
120 131 149
87 102 118
61 78 99
52 67 92
36 52 82
34 52 79
39 57 81
47 69 86
74 123 134
83 106 103
89 85 65
92 79 52
93 80 52
91 84 64
99 99 88
91 99 86
78 89 65
79 91 71
69 114 124
29 144 173
37 114 71
54 121 88
80 130 114
116 158 162
106 164 157
110 157 158
128 147 167
123 145 149
118 142 139
93 117 121
90 114 124
90 114 121
88 111 120
84 107 123
77 111 121
69 112 126
106 139 144
125 146 165
130 147 172
128 146 170
125 144 169
117 129 143
104 109 110
79 99 99
50 111 87
66 136 76
80 117 117
86 88 146
83 56 160
82 48 164
80 47 159
78 53 148
95 95 144
130 147 171
109 129 145
70 99 98
69 100 97
71 103 99
71 102 97
71 102 97
73 98 95
113 128 149
128 145 169
137 155 180
180 202 229
170 189 215
100 122 137
38 87 88
43 102 101
42 80 94
41 60 88
55 62 96
86 91 126
85 88 125
86 71 113
90 70 113
95 73 110
107 76 94
108 74 85
104 74 83
102 83 103
113 96 120
99 110 119
65 99 82
52 90 65
51 89 63
53 90 66
68 98 85
87 82 74
89 70 55
87 69 54
85 67 53
85 67 51
82 66 49
79 65 47
82 66 49
87 72 59
179 194 218
202 219 242
208 224 249
211 227 249
212 228 250
213 229 251
213 229 251
212 228 250
214 230 251
214 230 251
215 230 252
215 230 253
214 230 252
215 230 251
214 230 251
215 230 251
214 230 250
214 230 251
215 231 251
215 230 250
166 166 166
184 182 180
183 181 180
182 180 180
181 180 180
181 180 180
180 179 180
179 179 180
179 179 180
178 178 180
178 178 180
177 178 180
177 178 180
176 177 180
176 177 180
175 177 180
175 177 180
175 177 180
174 177 180
174 176 180
174 176 180
174 176 180
173 176 180
173 176 180
173 176 180
173 176 180
173 176 180
173 176 180
173 176 180
172 176 180
172 175 180
172 175 180
172 175 180
172 175 180
172 175 180
172 175 180
172 175 180
172 175 180
172 175 180
172 176 180
173 176 180
173 176 180
173 176 180
173 176 180
173 176 180
173 176 180
174 176 180
174 176 180
174 176 180
174 177 180
175 177 180
175 177 180
175 177 180
176 177 180
176 177 180
177 178 180
177 178 180
178 178 180
178 178 180
179 179 180
179 179 180
180 179 180
181 180 180
181 180 180
182 181 180
183 181 180
185 182 180
139 136 168
134 129 167
137 141 177
130 133 178
78 62 167
55 28 171
55 27 175
49 76 175
41 111 183
61 141 179
81 147 171
71 139 160
77 130 150
93 125 147
109 126 146
119 121 139
117 124 141
88 93 114
64 76 101
53 65 93
47 60 90
49 61 90
59 72 97
70 86 107
87 124 136
85 91 79
83 76 49
85 77 45
84 76 44
88 79 53
94 86 72
85 74 58
73 65 34
72 69 34
68 94 99
50 119 141
44 83 60
59 86 80
70 99 99
109 132 155
129 148 172
132 151 176
117 136 158
109 131 137
105 129 120
93 118 115
89 114 111
90 116 106
88 114 107
84 115 104
80 120 100
62 119 113
89 133 126
102 134 139
119 136 159
119 137 160
121 139 162
121 138 161
112 127 145
96 128 114
80 147 51
90 130 55
97 108 75
99 92 96
96 81 118
86 58 148
81 46 161
82 47 157
101 77 148
136 135 174
116 114 147
80 90 104
65 92 90
64 93 89
65 94 90
66 94 89
67 93 89
112 131 148
125 144 166
127 145 169
132 151 175
134 154 179
78 111 120
44 104 102
48 116 112
48 94 105
47 74 99
50 65 98
73 79 119
79 83 133
80 74 131
80 74 128
86 79 132
98 80 117
98 75 101
100 67 78
107 100 116
116 124 145
111 126 142
89 111 115
78 103 100
72 98 93
75 101 98
93 116 122
113 128 144
86 72 64
82 64 51
84 66 52
80 72 47
80 80 46
77 79 43
75 73 42
74 65 43
166 180 201
197 215 243
204 221 248
209 226 249
211 228 249
211 226 250
213 230 252
210 226 249
212 228 250
213 229 251
213 229 251
212 229 252
213 229 253
214 230 251
214 230 251
214 230 252
214 230 251
214 230 251
214 229 251
214 230 251
125 129 133
185 182 180
184 181 180
183 181 180
182 181 180
181 180 180
181 180 180
180 180 180
180 179 180
179 179 180
179 179 180
178 179 180
178 178 180
178 178 180
177 178 180
177 178 180
177 178 180
176 178 180
176 177 180
176 177 180
176 177 180
175 177 180
175 177 180
175 177 180
175 177 180
175 177 180
174 177 180
174 176 180
174 176 180
174 176 180
174 176 180
174 176 180
174 176 180
174 176 180
174 176 180
174 176 180
174 176 180
174 176 180
174 176 180
174 176 180
174 176 180
174 177 180
175 177 180
175 177 180
175 177 180
175 177 180
175 177 180
175 177 180
176 177 180
176 177 180
176 177 180
176 178 180
177 178 180
177 178 180
178 178 180
178 178 180
178 179 180
179 179 180
179 179 180
180 179 180
180 180 180
181 180 180
181 180 180
182 181 180
183 181 180
184 181 180
185 182 180
124 108 146
129 114 155
129 122 160
136 139 174
137 155 192
66 58 165
61 48 162
55 92 167
33 122 174
56 146 181
89 151 178
81 143 167
97 142 165
101 131 154
107 122 144
120 119 140
121 122 143
91 89 112
72 80 105
69 82 108
65 77 103
67 80 106
71 84 109
84 99 121
95 118 128
81 87 72
76 73 42
77 73 38
76 73 38
79 74 45
82 67 42
77 56 35
77 51 33
75 53 31
71 65 59
61 88 99
43 63 44
40 65 52
31 75 72
51 91 117
109 130 156
119 139 164
114 134 157
104 128 135
105 132 126
92 119 113
86 114 100
89 117 95
87 119 90
84 123 85
77 122 87
54 125 96
83 139 119
100 140 137
125 143 166
123 142 164
121 138 161
118 136 157
116 133 152
87 140 83
92 111 57
99 94 63
99 92 62
97 90 61
97 90 62
95 85 81
88 58 140
115 62 167
132 74 165
150 105 178
141 93 166
117 83 138
90 85 111
61 85 84
60 87 83
59 84 80
70 94 94
114 131 150
120 136 158
122 138 160
124 142 164
122 141 163
67 109 114
47 112 108
48 114 109
47 91 101
47 73 98
47 60 97
61 76 126
74 82 141
73 79 145
76 84 151
79 82 140
89 85 134
91 81 123
89 69 96
109 112 130
120 136 158
122 139 161
110 129 145
99 119 130
98 118 128
95 116 127
105 124 140
115 132 154
105 117 133
83 70 62
83 77 50
84 96 46
82 102 43
81 104 41
78 97 40
69 80 36
140 154 166
192 210 240
202 219 246
209 227 250
209 227 247
210 227 249
211 227 251
211 228 251
213 229 252
213 229 252
212 228 251
212 229 252
212 229 252
213 229 252
213 229 251
213 229 251
213 229 251
213 229 251
213 230 252
213 229 251
85 88 100
184 181 178
184 182 180
184 181 180
183 181 180
182 181 180
182 180 180
181 180 180
181 180 180
181 180 180
180 179 180
180 179 180
179 179 180
179 179 180
179 179 180
178 179 180
178 178 180
178 178 180
178 178 180
177 178 180
177 178 180
177 178 180
177 178 180
177 178 180
176 178 180
176 178 180
176 177 180
176 177 180
176 177 180
176 177 180
176 177 180
176 177 180
176 177 180
176 177 180
176 177 180
176 177 180
176 177 180
176 177 180
176 177 180
176 177 180
176 177 180
176 177 180
176 177 180
176 178 180
176 178 180
177 178 180
177 178 180
177 178 180
177 178 180
177 178 180
178 178 180
178 178 180
178 178 180
179 179 180
179 179 180
179 179 180
180 179 180
180 179 180
180 180 180
181 180 180
181 180 180
182 180 180
182 181 180
183 181 180
184 181 180
184 182 180
179 175 174
113 93 126
127 97 138
129 107 145
132 122 155
143 163 185
89 100 158
80 82 157
72 112 167
39 136 171
38 138 167
55 128 154
64 124 151
71 119 143
80 118 141
99 111 132
116 110 130
115 110 130
89 83 106
83 89 112
80 94 118
77 90 114
75 88 112
83 97 120
84 98 117
91 104 109
79 84 69
70 71 36
70 71 32
69 71 32
70 68 33
71 56 29
72 52 28
73 52 29
73 52 29
73 51 30
71 58 49
66 60 42
65 64 47
49 68 60
21 75 100
71 99 125
102 124 138
101 119 141
99 125 128
100 129 120
90 120 104
85 115 94
86 117 84
87 128 73
85 130 64
74 131 69
49 130 78
71 139 102
94 141 128
127 147 169
129 147 170
127 146 169
127 146 168
123 141 161
84 123 72
92 86 67
90 84 65
92 84 64
93 86 59
92 85 57
93 86 58
114 74 127
143 76 172
155 82 177
156 83 178
154 81 175
147 79 166
127 78 145
75 78 94
56 80 77
65 87 87
95 113 125
124 140 163
126 143 166
126 143 166
128 145 168
126 144 167
74 117 122
45 106 101
47 95 89
48 71 82
46 52 84
49 54 101
56 72 138
67 84 154
70 85 158
73 88 160
75 89 158
84 89 146
83 87 141
88 88 133
116 132 160
119 140 169
121 142 169
122 141 164
117 135 155
114 132 151
118 136 155
121 139 160
122 139 160
123 141 163
111 122 136
81 94 48
84 110 43
84 113 42
83 111 41
80 107 39
76 101 38
87 101 79
187 205 231
201 219 244
205 222 247
207 226 246
208 226 247
210 227 251
210 227 251
211 228 251
211 228 251
212 229 252
212 229 252
211 228 251
212 229 252
211 228 251
211 228 251
213 229 252
212 229 252
212 228 251
213 229 252
63 67 88
115 122 114
183 181 178
184 182 180
184 181 180
183 181 180
183 181 180
183 181 180
182 181 180
182 180 180
181 180 180
181 180 180
181 180 180
181 180 180
180 180 180
180 179 180
180 179 180
179 179 180
179 179 180
179 179 180
179 179 180
179 179 180
178 179 180
178 179 180
178 178 180
178 178 180
178 178 180
178 178 180
178 178 180
178 178 180
178 178 180
178 178 180
178 178 180
177 178 180
177 178 180
177 178 180
178 178 180
178 178 180
178 178 180
178 178 180
178 178 180
178 178 180
178 178 180
178 178 180
178 178 180
178 179 180
178 179 180
179 179 180
179 179 180
179 179 180
179 179 180
179 179 180
180 179 180
180 179 180
180 180 180
181 180 180
181 180 180
181 180 180
182 180 180
182 180 180
182 181 180
183 181 180
183 181 180
184 181 180
184 182 180
185 182 179
122 108 121
99 64 96
115 59 109
112 68 113
108 78 114
101 115 136
100 114 153
100 110 158
85 129 166
57 141 168
60 133 160
67 120 146
68 111 136
71 107 131
75 101 124
87 104 126
114 104 123
114 106 125
92 81 102
91 96 118
91 106 129
88 102 124
93 107 130
96 111 134
89 104 119
91 106 109
73 83 67
63 70 29
60 68 22
62 68 24
63 62 24
64 55 23
63 58 21
66 55 24
68 56 25
67 55 25
69 53 26
80 54 49
78 58 50
59 65 54
25 72 96
45 82 103
93 128 104
114 135 150
95 120 128
88 118 113
91 122 105
82 112 89
82 118 79
85 133 53
82 133 49
74 136 55
45 133 64
50 135 79
85 141 118
127 147 169
129 148 171
127 146 169
122 139 163
112 128 150
86 96 88
84 76 72
83 75 73
84 75 70
84 75 64
85 77 54
87 76 60
133 78 145
148 78 168
150 79 169
151 79 170
150 80 168
145 76 164
140 74 158
102 79 120
88 105 116
98 114 129
112 127 146
120 135 156
122 137 159
121 136 158
120 136 158
120 137 158
82 117 125
48 91 85
47 67 58
45 53 68
44 43 77
49 49 104
57 71 144
62 84 163
67 94 176
68 93 172
72 93 166
78 97 166
79 94 156
93 112 163
117 139 175
116 139 174
115 137 169
114 135 165
115 133 157
114 130 148
115 132 150
115 132 151
120 137 157
120 137 157
117 135 147
83 109 53
82 111 42
82 111 41
81 109 41
80 108 40
79 106 39
72 95 35
169 186 208
196 215 241
203 222 247
206 224 248
206 224 247
207 225 248
208 226 250
209 226 250
210 228 252
209 227 251
210 228 252
210 227 251
211 228 251
210 228 251
210 227 250
211 228 252
213 230 253
211 228 252
211 228 251
78 69 101
78 93 67
94 117 100
165 161 163
183 179 177
185 182 180
184 182 180
184 181 180
183 181 180
183 181 180
183 181 180
183 181 180
182 181 180
182 180 180
182 180 180
181 180 180
181 180 180
181 180 180
181 180 180
181 180 180
180 180 180
180 180 180
180 179 180
180 179 180
180 179 180
180 179 180
180 179 180
180 179 180
179 179 180
179 179 180
179 179 180
179 179 180
179 179 180
179 179 180
179 179 180
179 179 180
179 179 180
179 179 180
179 179 180
179 179 180
179 179 180
180 179 180
180 179 180
180 179 180
180 179 180
180 179 180
180 179 180
180 180 180
180 180 180
181 180 180
181 180 180
181 180 180
181 180 180
181 180 180
182 180 180
182 180 180
182 181 180
183 181 180
183 181 180
183 181 180
183 181 180
184 181 180
184 182 180
185 182 180
184 180 178
140 146 139
108 68 88
92 57 84
110 45 101
109 59 106
107 83 119
101 121 140
116 137 160
116 138 158
108 150 172
140 178 222
140 166 218
124 130 177
116 113 152
98 96 124
77 91 111
84 84 104
109 91 109
109 94 113
98 87 106
97 103 125
103 119 142
98 114 137
100 116 138
104 120 142
96 112 127
80 97 95
64 79 57
55 66 18
55 67 15
55 67 15
55 61 15
56 61 14
58 59 16
63 53 22
63 54 23
64 54 23
64 54 23
97 50 61
89 51 57
73 59 61
30 68 90
64 91 119
136 158 176
125 144 172
86 112 119
83 113 109
79 110 97
83 115 86
81 118 73
85 127 51
82 130 46
73 129 50
45 130 61
48 130 76
80 138 111
125 145 166
128 146 170
126 144 168
113 127 152
107 117 145
88 89 108
75 66 78
75 66 78
77 68 75
77 68 71
79 70 62
85 72 64
136 73 152
142 78 157
162 142 170
173 185 180
173 189 181
171 176 177
143 106 154
119 78 135
106 122 140
113 128 148
116 132 153
119 136 156
120 137 159
121 139 161
122 139 162
123 141 164
97 122 136
48 68 60
45 61 52
44 51 66
42 39 76
48 52 109
60 83 163
63 89 170
66 96 178
68 99 183
70 102 183
77 107 183
85 117 190
101 131 192
114 138 180
116 140 182
117 141 183
120 143 181
123 143 175
125 142 166
125 142 164
125 141 163
128 144 167
126 143 165
116 133 144
76 100 39
77 103 38
76 103 38
78 104 39
76 103 38
76 102 38
73 97 40
141 161 172
188 207 233
199 218 244
204 223 249
205 224 248
207 225 249
208 225 249
208 225 248
208 225 248
210 228 252
210 227 252
210 227 252
209 227 251
210 227 251
209 227 251
210 228 252
210 227 251
211 228 252
210 227 251
88 82 115
61 74 46
93 100 97
81 99 85
97 104 118
155 163 156
184 181 177
185 182 180
185 182 180
184 182 180
184 182 180
184 181 180
184 181 180
183 181 180
183 181 180
183 181 180
183 181 180
183 181 180
182 181 180
182 181 180
182 180 180
182 180 180
182 180 180
182 180 180
182 180 180
181 180 180
181 180 180
181 180 180
181 180 180
181 180 180
181 180 180
181 180 180
181 180 180
181 180 180
181 180 180
181 180 180
181 180 180
181 180 180
181 180 180
181 180 180
181 180 180
181 180 180
181 180 180
181 180 180
181 180 180
182 180 180
182 180 180
182 180 180
182 180 180
182 181 180
182 181 180
182 181 180
183 181 180
183 181 180
183 181 180
183 181 180
184 181 180
184 181 180
184 181 180
184 182 180
185 182 180
184 181 179
185 182 180
170 169 168
105 105 98
92 107 85
87 69 93
90 66 87
107 54 102
105 63 106
104 85 109
108 130 137
115 140 148
118 148 154
149 186 217
147 187 230
135 169 210
117 124 160
112 103 143
111 95 129
95 78 102
84 74 92
105 78 97
106 83 101
106 93 112
107 115 137
114 131 154
109 126 148
109 126 148
113 130 152
103 120 134
67 82 68
53 68 30
50 65 9
50 65 3
50 65 5
50 64 7
51 62 9
55 57 15
60 51 21
60 51 21
60 51 21
61 51 22
105 48 67
99 47 64
76 53 60
35 66 91
90 113 144
120 141 173
87 108 138
74 102 109
70 102 96
71 104 90
72 105 88
77 110 80
87 121 65
87 126 64
80 125 67
63 128 80
65 130 93
86 136 118
124 142 164
125 142 166
121 137 161
104 114 141
98 104 134
84 83 112
69 57 83
69 58 82
70 59 82
70 59 78
70 61 68
79 67 64
130 75 143
173 181 177
173 199 186
166 195 186
165 195 186
170 197 186
177 199 183
140 138 149
113 129 149
116 133 154
118 134 156
120 137 158
124 142 164
122 140 165
117 135 174
111 130 181
95 115 168
47 66 110
43 59 70
42 49 62
42 42 71
45 49 102
59 83 165
64 94 179
67 101 188
68 103 188
71 110 193
79 118 199
84 121 196
91 125 195
105 131 181
110 136 183
111 136 182
115 139 181
116 139 178
120 139 170
125 140 162
124 139 160
124 139 161
123 139 160
113 129 140
73 96 45
72 97 36
74 99 37
72 96 36
70 95 35
70 95 35
109 133 124
178 213 231
177 197 223
195 215 242
200 219 246
203 223 249
205 223 248
207 224 249
207 224 248
207 225 249
208 225 250
207 225 250
208 227 252
208 226 251
208 226 251
209 227 252
209 227 252
209 227 252
209 227 252
209 227 251
73 85 125
64 71 81
87 75 77
61 97 64
82 89 85
84 92 75
120 113 96
113 108 107
115 101 108
142 143 141
174 172 171
167 176 163
185 182 180
185 182 180
185 182 180
185 182 180
184 182 180
184 182 180
184 181 180
184 181 180
184 181 180
184 181 180
183 181 180
183 181 180
183 181 180
183 181 180
183 181 180
183 181 180
183 181 180
183 181 180
183 181 180
183 181 180
183 181 180
183 181 180
183 181 180
183 181 180
183 181 180
183 181 180
183 181 180
183 181 180
183 181 180
183 181 180
183 181 180
183 181 180
183 181 180
183 181 180
183 181 180
183 181 180
184 181 180
184 181 180
184 181 180
184 181 180
184 182 180
184 182 180
184 182 180
185 182 180
185 182 180
181 178 176
185 182 180
168 164 169
148 154 157
91 86 109
114 109 122
109 116 118
113 112 121
101 118 110
69 86 89
94 75 92
98 55 95
100 72 99
108 101 110
115 143 139
118 153 143
127 168 164
137 172 186
133 163 189
132 166 184
114 127 135
109 101 120
105 78 107
102 68 93
88 55 73
100 66 83
104 79 96
108 96 115
117 128 150
116 133 155
118 135 157
119 135 158
121 138 160
104 119 131
67 81 66
53 67 35
48 63 14
47 62 3
48 63 6
49 63 15
55 68 38
52 55 16
57 48 20
56 47 20
56 47 20
58 48 21
113 48 73
108 47 71
88 47 65
57 74 101
83 104 136
82 103 134
73 94 126
64 92 101
62 92 97
62 93 95
67 97 90
71 102 85
95 125 89
96 128 89
92 128 89
78 127 100
81 129 112
95 136 129
124 144 165
125 144 167
111 125 147
90 96 123
79 80 110
71 66 101
63 51 88
64 51 87
65 51 88
65 53 81
66 55 74
75 75 82
136 139 155
169 193 186
161 189 188
157 187 188
162 191 187
171 197 186
177 200 184
120 121 107
124 141 160
124 142 164
125 143 166
125 142 165
124 141 169
105 124 182
90 110 193
79 101 199
72 94 197
52 75 173
47 68 143
41 51 89
39 43 61
45 55 100
56 82 164
65 100 188
66 102 189
68 106 192
73 115 202
76 119 205
82 123 205
88 128 204
106 136 190
108 137 189
109 137 186
106 133 181
112 136 179
113 134 171
120 135 155
118 131 150
117 130 149
115 127 146
111 124 139
80 98 77
67 89 37
66 89 33
66 89 33
65 88 32
65 87 37
135 161 169
165 196 211
167 195 215
188 209 236
195 216 243
201 221 249
203 222 249
206 224 249
206 224 249
206 223 248
206 224 249
206 225 250
206 224 250
207 226 251
208 227 253
207 226 251
207 226 251
208 226 252
208 226 251
208 227 252
77 94 108
57 70 93
83 85 82
99 114 111
64 89 66
80 76 82
92 87 96
101 86 71
64 42 60
114 75 67
110 117 121
66 101 50
109 106 111
115 118 123
91 107 96
126 108 102
130 126 114
151 152 153
164 163 163
168 162 158
152 149 147
181 179 177
185 182 180
184 181 178
180 177 176
185 182 180
185 182 180
185 182 180
185 182 180
185 182 180
185 182 180
185 182 180
185 182 180
185 182 180
185 182 180
185 182 180
185 182 180
185 182 180
185 182 180
185 182 180
185 182 180
185 182 180
185 182 180
185 182 180
185 182 180
185 182 180
185 182 180
185 182 180
185 182 180
184 181 178
171 172 166
180 177 175
167 168 169
160 159 160
120 134 124
117 125 127
104 94 95
82 68 90
93 89 104
83 86 53
85 110 115
40 53 100
121 108 60
38 40 112
45 91 139
95 77 96
81 96 96
99 90 104
107 85 117
107 102 110
109 124 111
117 152 136
117 161 134
117 160 146
105 142 116
125 172 150
133 185 168
107 129 104
101 100 84
103 88 99
100 63 82
92 45 64
92 53 72
94 61 81
101 86 106
114 126 148
119 136 158
121 138 160
123 139 162
125 142 164
105 120 132
81 95 93
68 82 71
62 76 59
56 70 46
59 73 53
63 77 62
72 86 77
64 72 61
60 56 44
56 50 32
57 52 37
66 64 58
119 49 78
114 47 75
98 46 70
79 85 113
75 95 126
67 89 122
63 86 120
54 83 100
53 82 99
55 84 98
59 88 92
68 95 96
98 123 109
102 130 108
100 129 111
95 132 119
92 131 125
107 139 144
125 144 166
124 142 163
104 117 140
78 77 108
70 62 99
61 47 90
61 46 90
61 46 90
61 46 90
62 47 89
61 52 85
73 88 122
110 143 145
141 167 166
155 182 188
151 179 187
158 185 188
159 182 179
175 195 176
124 135 122
103 123 131
117 139 158
119 140 159
120 140 160
101 121 174
71 93 196
57 82 201
55 81 203
55 80 201
55 80 201
57 80 188
62 75 151
59 63 91
55 63 106
58 86 164
61 94 179
66 101 182
69 107 183
72 115 198
74 118 203
76 121 206
81 126 209
100 133 194
102 133 188
103 134 188
103 132 183
106 131 175
104 126 166
110 123 143
111 123 140
106 117 132
106 116 132
103 112 127
90 101 102
72 87 66
64 83 46
62 82 39
65 82 41
70 81 49
125 145 151
134 157 168
140 169 185
168 189 215
190 211 240
196 217 245
200 221 249
202 221 246
204 222 248
204 222 248
204 222 247
205 224 250
205 224 251
206 225 251
205 224 250
205 224 250
206 226 252
206 226 252
207 226 252
207 226 252
87 98 88
85 96 111
70 94 88
87 93 104
80 87 90
125 102 124
103 106 114
128 134 154
98 84 96
101 103 73
91 102 99
90 96 96
96 76 69
95 74 83
64 95 86
78 60 75
114 94 100
93 73 85
105 105 143
96 67 69
95 84 87
64 100 108
107 115 115
103 100 80
84 73 90
115 111 123
93 89 106
112 115 122
107 99 104
111 116 125
115 119 128
106 107 130
117 122 128
120 125 131
120 125 131
120 125 131
121 125 131
121 125 131
120 125 131
118 123 129
118 123 129
115 122 127
106 113 121
106 108 117
112 115 123
109 114 123
100 105 117
107 129 114
114 121 126
62 117 71
70 91 66
102 106 111
81 105 109
95 78 95
83 97 88
122 119 118
31 106 49
77 73 90
33 49 103
73 88 86
93 111 101
64 64 127
109 113 102
88 93 109
140 135 142
108 69 71
94 99 101
107 102 123
111 103 132
110 115 124
111 133 118
120 163 133
120 167 133
106 155 124
118 171 136
138 207 177
120 177 143
101 124 85
96 101 60
100 87 94
93 61 76
87 46 66
88 51 71
87 56 76
92 77 97
109 121 143
114 131 154
119 136 158
121 138 160
123 139 161
108 123 138
88 102 106
76 90 88
74 87 83
70 84 77
72 86 80
76 90 87
88 102 106
83 93 97
77 81 85
77 82 86
79 83 88
86 92 99
129 51 85
123 49 82
109 46 76
78 68 99
63 79 112
57 80 115
48 73 109
45 73 104
45 73 104
46 72 104
60 85 106
74 99 108
101 124 120
111 134 130
109 133 129
103 132 132
106 135 141
117 140 155
127 145 168
124 142 164
102 112 136
62 52 89
57 43 84
58 43 85
58 44 86
59 44 87
58 44 87
58 44 87
59 63 109
76 100 142
82 119 143
91 127 154
102 133 161
84 114 151
107 138 163
93 121 148
116 142 136
98 123 108
95 117 119
111 135 150
112 136 151
114 136 156
68 94 175
52 79 191
52 76 193
52 76 192
51 75 189
69 88 192
85 99 186
91 102 179
90 95 135
85 92 141
82 100 175
72 99 171
77 117 155
86 131 146
80 125 181
78 125 194
76 122 205
76 123 206
93 131 197
98 132 192
97 131 191
99 130 184
98 127 179
99 124 168
107 120 140
107 118 134
104 114 129
101 111 125
98 107 121
93 101 112
84 93 96
75 85 79
83 83 57
94 84 51
102 87 59
119 116 106
126 131 128
120 136 142
119 145 159
178 200 228
191 212 241
197 218 247
199 220 249
201 221 248
202 222 248
201 220 247
203 222 249
204 224 251
203 223 250
205 225 252
204 224 251
205 224 251
205 225 251
205 224 251
205 225 251
104 100 88
97 106 119
52 86 73
86 90 101
96 102 109
67 64 76
105 108 116
102 100 109
97 92 107
96 93 80
103 109 110
89 95 97
90 70 65
86 84 99
20 98 69
82 83 92
104 102 109
115 93 103
88 80 76
89 54 78
58 41 84
73 92 86
58 82 63
101 105 110
102 66 92
109 86 108
78 75 66
38 56 111
106 110 120
79 81 134
96 100 144
101 103 122
116 120 126
116 116 121
146 69 82
114 120 127
115 122 130
116 122 127
108 128 120
93 108 111
95 115 106
55 107 77
70 82 92
64 53 77
103 103 113
101 107 116
98 103 113
75 129 66
109 120 121
64 90 57
82 82 83
104 111 116
91 106 103
95 93 96
101 70 52
104 92 79
101 84 95
85 84 96
55 82 122
85 99 113
79 106 84
97 102 119
116 141 161
101 105 113
101 99 106
97 71 84
94 95 96
104 102 129
108 107 135
105 118 123
109 142 125
113 157 130
114 167 122
106 159 114
130 197 147
134 204 165
116 171 125
97 128 53
92 101 37
89 71 67
82 49 68
81 57 78
83 62 82
81 63 83
83 71 92
102 116 139
111 131 154
118 136 160
125 143 166
127 145 168
117 134 153
99 114 125
89 103 109
85 100 103
83 97 100
85 98 102
83 96 100
89 101 109
92 102 113
88 95 105
87 94 104
92 99 109
97 106 119
126 49 84
124 48 82
107 43 74
76 55 89
64 74 107
57 80 115
52 76 113
49 73 110
51 75 112
56 78 113
66 88 117
79 101 121
105 127 133
115 136 141
118 139 146
113 137 148
117 139 156
126 145 166
128 146 168
128 146 169
108 119 143
61 52 87
53 40 78
55 41 81
56 42 82
56 42 82
55 41 82
55 45 87
53 71 123
74 103 152
82 122 167
79 120 163
80 122 168
80 121 164
81 122 160
85 122 146
92 124 129
95 121 107
96 120 124
104 128 140
105 130 142
100 126 145
47 82 169
47 79 171
50 74 183
51 74 187
67 85 184
92 102 178
105 113 177
110 118 175
110 116 166
107 113 163
102 112 171
87 105 162
93 140 107
99 149 89
93 143 147
90 140 161
87 137 185
77 125 198
90 129 197
94 131 193
94 130 191
96 130 188
99 129 183
98 125 171
112 128 151
111 125 143
108 121 138
108 121 136
102 115 129
99 111 123
93 104 114
99 96 91
108 93 69
118 94 58
124 98 58
123 101 69
130 118 97
129 124 110
120 131 130
124 164 149
180 203 230
191 213 242
195 217 246
198 219 248
199 221 249
200 221 249
201 222 251
201 221 249
202 223 251
202 223 251
203 223 251
204 224 252
203 223 250
204 224 251
203 223 251
120 115 106
94 106 125
49 97 68
97 107 110
104 109 117
74 80 86
109 114 120
88 75 38
90 77 100
79 62 82
105 110 114
105 110 116
93 94 97
77 132 123
79 109 106
93 98 105
92 95 102
130 29 56
113 37 82
81 70 128
92 83 94
95 94 101
93 103 105
108 114 120
103 101 111
105 105 114
84 97 68
95 101 102
103 109 117
81 84 140
87 90 140
114 110 116
110 103 104
104 96 93
62 63 66
72 82 91
96 108 127
109 116 121
61 86 85
91 100 69
112 113 89
102 110 114
88 96 103
93 103 86
99 116 59
97 91 101
90 53 78
98 108 108
99 109 110
73 93 35
93 104 93
102 109 114
101 107 112
29 36 115
69 76 106
93 105 99
96 36 61
102 106 113
70 86 111
95 105 108
79 102 83
149 155 149
115 139 156
108 113 120
96 92 112
72 82 114
133 135 136
101 106 132
102 109 133
101 123 124
106 144 125
104 151 116
109 163 112
106 164 102
108 172 99
123 191 139
113 166 98
99 136 55
91 115 36
83 75 67
76 60 80
76 69 90
77 70 91
76 71 93
77 72 94
92 109 131
99 120 143
109 129 153
119 138 162
127 146 169
123 140 162
107 123 139
101 117 130
97 112 123
96 111 121
94 108 117
98 112 124
107 122 138
116 131 151
113 127 147
110 123 142
113 126 146
119 134 155
122 47 80
117 46 78
104 42 72
74 60 90
67 80 111
68 88 120
65 86 118
62 83 116
61 82 115
69 89 121
74 94 124
83 103 129
102 123 137
115 135 144
114 134 145
112 133 148
116 136 155
116 135 156
118 136 157
122 141 162
107 121 143
76 77 104
60 54 86
53 43 78
53 40 79
55 42 80
56 46 82
56 56 95
50 81 137
59 101 160
71 117 175
64 116 172
62 116 174
65 116 170
66 114 158
70 116 143
81 117 124
92 120 107
95 122 129
97 125 133
95 124 130
86 116 138
42 81 153
43 79 158
45 75 167
51 72 175
87 98 171
106 113 168
112 118 166
113 118 166
112 118 165
113 118 165
112 117 164
103 113 153
97 145 46
101 150 53
92 141 136
89 138 165
87 138 176
85 135 181
88 130 195
91 130 195
91 129 195
92 129 191
93 126 184
100 130 180
119 136 160
119 135 154
120 137 156
119 135 154
120 137 156
117 133 151
118 128 141
127 118 108
132 111 83
138 108 64
140 106 52
141 107 51
137 106 59
130 108 72
119 110 89
110 157 77
115 174 101
170 198 214
190 213 242
193 216 245
196 218 247
197 219 248
199 221 250
200 221 250
201 223 252
201 223 251
202 223 252
201 222 251
202 223 252
202 223 252
202 222 251
143 146 154
82 96 118
79 114 93
75 109 90
97 102 109
91 96 103
108 114 121
77 65 32
82 66 89
70 35 80
100 104 109
108 113 119
107 112 118
84 109 101
87 109 102
102 105 111
97 100 107
118 98 101
112 99 106
90 91 110
69 19 48
71 19 50
105 110 117
107 111 118
106 110 116
103 107 114
111 126 118
108 122 114
108 113 121
159 159 159
159 158 158
133 78 71
110 78 65
102 78 66
77 54 40
67 75 83
98 105 113
106 112 120
93 103 106
105 99 35
108 102 41
99 108 107
101 111 111
107 117 103
77 91 22
90 89 96
101 108 83
107 114 92
104 110 115
90 97 94
103 109 113
107 113 119
109 114 120
34 50 99
72 95 90
75 98 80
78 62 66
102 108 116
93 99 107
124 130 119
96 106 104
107 106 101
86 103 118
106 109 131
87 81 113
86 85 107
113 99 98
100 107 133
100 110 136
98 124 125
99 138 118
99 148 107
103 158 102
103 167 92
98 166 87
96 164 85
98 157 61
96 145 48
92 128 47
78 80 77
71 69 88
71 72 93
69 77 98
71 79 101
72 78 101
83 100 123
95 115 139
100 119 142
113 132 155
126 144 167
126 144 167
118 133 151
114 120 135
113 114 127
103 114 127
102 116 130
104 119 133
107 121 137
112 126 144
108 121 138
110 123 141
111 125 143
116 130 150
116 61 88
112 58 85
105 60 83
78 77 103
80 95 122
75 95 122
73 92 120
73 93 121
76 95 123
74 94 122
80 99 125
84 104 129
95 116 131
103 122 131
98 118 129
97 116 129
102 120 136
101 120 135
105 124 140
108 127 144
104 119 139
83 90 113
77 81 106
75 78 104
82 89 116
90 101 128
79 83 109
66 75 111
46 85 142
50 102 164
60 114 177
50 111 178
46 109 177
46 110 177
46 107 157
52 109 143
60 108 126
88 121 124
92 125 128
90 124 126
88 122 123
83 117 128
38 82 136
40 80 145
40 74 149
58 75 164
102 108 159
108 114 160
108 113 160
109 114 160
109 113 160
108 112 157
109 113 157
104 110 147
96 142 40
97 145 52
89 136 139
87 136 165
84 133 180
82 131 182
83 132 187
86 128 197
87 128 196
89 127 192
94 130 192
103 134 187
122 140 166
123 139 161
123 140 161
123 140 162
122 139 160
123 140 161
128 127 130
133 110 81
138 103 43
139 101 30
139 101 30
138 101 30
141 102 31
138 101 32
127 98 52
119 144 46
100 166 53
98 155 77
156 188 192
188 212 242
192 215 245
193 216 247
196 219 249
197 220 250
197 220 249
198 220 249
200 222 252
199 221 251
200 222 252
200 222 251
200 222 251
151 156 184
92 102 115
110 114 93
41 112 61
103 109 115
94 99 104
102 107 113
80 77 69
93 92 101
76 61 84
103 106 115
109 115 121
107 111 117
93 83 80
98 80 77
107 96 100
104 108 115
126 118 115
136 127 125
95 95 102
79 73 82
68 54 65
105 110 117
108 113 120
107 113 119
104 110 116
79 86 86
87 94 96
103 109 116
107 105 105
106 98 96
128 49 24
99 56 24
95 61 35
99 80 72
105 111 117
106 112 118
104 111 117
101 106 109
99 97 74
87 92 45
76 97 69
93 111 95
124 134 141
94 100 102
101 106 109
87 92 69
87 92 70
109 115 121
109 115 120
70 75 74
53 58 52
93 99 105
74 89 91
58 95 64
59 95 66
86 96 96
105 111 118
146 147 131
154 157 140
95 101 103
100 106 110
102 109 117
95 93 143
84 83 105
104 88 107
80 79 65
89 97 121
89 99 121
86 113 107
89 127 101
90 136 95
95 148 89
101 165 83
101 173 84
100 171 81
97 162 62
94 147 47
91 136 57
70 75 79
66 75 94
64 80 101
64 82 103
63 84 106
65 85 108
71 92 115
79 100 123
89 108 131
103 121 143
127 144 168
136 120 135
152 90 93
160 78 73
162 78 72
158 79 73
141 100 106
120 132 152
122 138 160
122 138 160
121 137 158
118 134 155
119 134 155
120 136 158
115 73 97
111 73 96
106 78 98
84 87 110
87 103 127
83 101 127
79 98 123
80 99 124
80 99 123
84 103 128
80 99 124
90 107 132
97 115 135
104 122 138
106 124 141
103 122 138
104 123 140
103 121 139
103 121 140
108 126 145
108 126 146
93 105 126
129 155 184
142 178 218
137 176 218
137 175 218
140 177 218
125 159 199
48 98 159
44 104 170
42 107 176
41 106 175
41 107 176
40 104 171
37 105 153
36 106 143
48 106 130
70 111 111
76 115 107
81 118 114
78 117 112
79 116 114
37 84 123
37 81 131
38 74 140
66 79 156
103 108 153
103 108 153
101 107 152
103 109 153
105 111 155
105 109 152
103 107 149
100 105 142
89 132 39
92 137 44
87 134 141
84 131 166
81 128 177
81 130 189
79 127 190
82 127 192
84 126 197
88 126 191
96 132 193
104 134 186
123 142 170
126 144 166
125 144 166
127 145 167
126 144 167
126 144 166
128 117 107
133 98 36
134 98 29
133 97 29
134 98 29
133 97 29
134 97 29
133 96 29
135 98 30
125 122 38
93 153 49
93 152 49
90 149 54
140 176 169
183 208 237
188 212 243
191 215 246
195 218 249
196 219 250
196 219 250
197 220 250
198 221 251
197 220 250
198 221 251
198 220 251
148 148 187
105 109 114
116 108 70
36 102 50
104 111 116
104 110 116
104 109 115
91 94 97
92 95 98
88 86 98
99 102 110
105 111 117
103 109 115
100 66 65
103 66 64
102 70 70
105 111 117
88 87 88
89 84 84
96 99 105
97 100 106
95 97 103
104 108 115
107 112 118
108 114 120
109 114 121
108 114 120
106 111 117
106 110 116
96 98 100
95 96 98
109 80 79
98 80 74
96 81 76
102 93 91
108 113 119
107 112 118
107 112 117
104 109 114
98 102 101
57 81 32
52 82 14
52 82 17
74 89 77
102 109 114
98 104 108
81 86 81
98 104 107
107 113 118
102 107 112
36 40 28
36 40 28
87 98 99
81 103 97
59 95 72
55 90 62
95 108 109
108 113 119
96 100 85
105 106 99
104 110 114
107 113 119
108 114 124
84 76 144
91 95 107
96 94 103
84 101 106
93 104 130
92 105 127
84 112 107
85 123 98
88 137 90
91 147 81
99 163 76
97 170 63
95 168 63
96 165 57
92 154 45
91 141 66
64 79 85
59 79 99
58 81 101
60 82 103
60 83 104
60 83 104
62 84 107
64 85 108
76 96 118
93 110 131
130 92 100
143 68 63
153 72 67
156 74 68
160 76 69
163 77 70
164 77 71
158 87 86
122 133 153
120 137 158
121 138 160
123 139 162
124 141 164
125 141 163
113 90 111
113 90 111
107 92 111
96 102 123
93 109 132
90 108 131
87 105 128
91 108 132
86 104 127
77 92 121
78 91 124
81 94 124
91 106 129
99 115 131
99 116 131
98 115 131
96 114 131
97 115 132
100 118 137
100 117 136
106 123 144
123 151 179
131 166 203
135 175 218
132 173 218
132 173 218
120 159 206
80 119 172
52 109 173
39 103 168
40 104 171
38 100 165
39 101 166
39 103 168
35 101 141
33 102 131
34 103 125
60 111 117
72 115 107
74 115 109
74 116 110
74 115 109
52 98 108
33 82 115
34 77 120
69 80 145
95 100 142
98 103 146
97 103 145
98 103 146
100 105 146
100 104 145
100 104 144
94 99 133
83 122 36
87 130 40
82 127 138
80 126 166
79 127 180
77 125 186
78 127 195
79 125 191
85 128 198
89 128 195
95 130 190
106 136 188
125 145 173
127 145 168
128 146 170
129 148 171
127 146 168
127 146 168
126 102 69
126 93 28
129 94 28
128 93 28
125 92 27
127 92 27
129 93 28
127 91 27
127 91 27
127 97 30
88 145 46
88 145 46
87 143 47
88 147 50
126 163 148
176 202 230
185 210 241
190 215 247
191 215 247
193 217 249
194 218 249
194 217 248
195 218 250
196 220 251
196 220 251
149 152 190
102 96 95
119 95 61
90 100 56
101 109 113
106 112 118
108 114 120
104 109 115
101 106 112
93 96 102
95 99 105
103 108 114
104 110 116
96 71 72
90 57 56
94 66 66
109 107 112
97 99 104
88 89 92
99 102 107
106 111 117
107 112 118
110 115 122
110 115 121
114 117 122
111 116 122
109 114 120
110 115 121
109 113 119
107 110 115
104 105 110
99 96 99
94 88 88
94 88 89
101 101 105
103 106 111
105 110 115
105 109 114
102 107 111
100 104 107
64 83 53
49 74 21
51 74 29
90 98 97
102 108 114
101 107 113
102 108 113
103 109 114
104 109 115
90 95 99
32 35 24
32 35 25
89 106 105
68 96 86
58 90 73
62 90 73
98 108 110
103 108 111
89 91 78
104 109 114
108 114 120
110 115 122
92 91 131
76 68 130
91 86 98
83 87 90
87 100 125
92 104 130
88 103 124
81 111 103
79 122 88
83 137 77
83 142 67
91 158 57
96 170 46
96 169 52
94 166 55
90 153 53
87 142 72
59 83 92
56 78 96
57 78 97
56 78 96
57 80 98
57 79 99
59 81 102
59 80 102
62 83 105
91 95 114
122 58 54
131 62 58
143 68 62
150 71 65
155 73 67
156 74 67
160 75 69
160 75 69
150 92 97
122 138 160
121 137 160
121 138 161
135 156 176
146 170 188
116 105 125
115 105 126
111 107 126
105 114 134
107 124 145
104 121 145
101 118 141
93 110 134
81 93 125
70 79 118
69 77 118
73 82 119
84 96 125
92 106 132
101 118 139
98 115 135
96 114 134
93 110 130
96 114 134
99 116 136
93 112 134
122 151 182
125 158 194
137 175 216
137 175 218
137 175 218
129 167 210
57 98 154
35 94 156
38 98 162
38 99 163
37 98 161
37 97 158
37 97 158
32 97 127
31 99 117
30 99 109
36 102 104
64 111 99
62 109 98
65 109 99
64 110 99
67 110 102
46 91 102
34 78 104
86 100 145
92 97 137
93 98 138
91 96 137
94 98 139
91 95 134
96 100 139
94 100 135
88 106 126
77 130 51
80 136 56
76 133 142
76 128 166
76 124 177
76 122 182
74 120 182
84 125 191
88 128 195
89 126 190
95 129 189
104 133 183
122 143 173
127 146 170
129 148 171
128 147 170
128 147 170
130 148 172
121 100 72
123 90 27
121 88 26
122 89 27
123 89 27
121 88 26
121 87 26
122 88 26
121 87 26
123 94 42
82 137 45
83 137 44
83 137 44
83 138 45
84 141 46
119 160 139
167 193 220
179 204 235
185 206 238
187 206 237
188 205 235
189 204 234
190 209 239
191 211 242
192 215 247
143 148 189
95 87 129
119 92 82
119 90 41
87 96 95
105 111 116
106 113 118
107 112 118
105 110 116
102 106 113
103 107 114
104 109 116
105 109 116
102 101 106
88 75 77
130 125 133
124 123 133
133 123 128
106 111 117
107 112 119
108 113 119
108 113 120
109 114 121
114 117 122
111 115 121
110 114 119
111 114 120
109 113 119
108 112 118
108 111 117
105 108 113
101 102 107
97 97 101
96 98 101
100 101 105
103 107 111
103 108 113
105 110 114
104 109 114
101 107 111
87 95 92
74 85 74
82 92 86
104 110 115
105 111 117
106 112 118
106 111 117
104 110 115
100 105 111
90 94 98
62 65 65
87 92 95
77 99 94
64 94 84
61 91 78
75 95 89
104 110 115
104 109 114
97 101 103
105 111 115
109 115 121
108 114 121
78 73 122
87 86 122
81 66 81
92 97 100
77 87 113
81 93 119
76 91 111
72 103 92
69 112 75
73 127 65
78 137 59
90 158 55
95 166 51
97 170 54
93 163 51
87 153 52
81 135 64
58 80 93
53 73 91
52 73 89
56 79 95
56 79 97
57 81 98
59 82 101
58 80 100
60 81 101
78 67 81
104 49 45
125 59 54
134 64 58
144 69 62
147 70 63
149 70 64
155 73 66
153 72 66
154 72 66
129 144 167
161 190 206
179 221 242
171 216 242
169 215 242
135 164 174
117 118 139
117 122 143
114 125 145
117 134 157
111 127 150
107 124 147
91 104 133
72 77 119
58 59 110
56 54 110
55 59 105
68 75 113
74 85 117
80 94 120
88 104 126
90 107 127
87 104 125
87 104 124
90 106 127
91 111 133
114 140 168
122 151 182
140 174 210
145 180 218
145 180 218
145 179 216
57 95 147
32 86 145
37 92 152
45 96 154
38 93 153
36 92 151
36 92 150
37 97 119
31 96 108
29 96 98
27 97 90
45 100 81
44 101 80
45 101 82
49 102 85
49 100 85
56 101 92
63 97 103
90 103 133
93 100 136
87 92 130
86 91 129
87 92 129
87 91 128
85 100 126
83 111 123
76 117 114
66 134 62
70 141 67
68 142 144
70 138 170
68 130 165
71 119 163
81 122 181
89 126 186
92 128 188
90 126 186
97 129 185
104 135 187
125 145 174
128 146 169
128 146 170
129 147 170
129 148 171
131 148 168
124 115 99
123 97 37
121 96 37
122 93 33
117 87 28
116 84 25
117 84 25
118 85 25
116 83 28
120 109 99
91 136 85
80 130 50
76 128 41
79 132 44
79 134 45
84 139 61
118 153 133
157 173 195
175 186 213
179 189 217
181 189 216
182 191 219
183 192 220
184 199 228
184 202 233
92 70 167
79 48 161
117 93 93
125 76 33
97 100 98
105 111 116
107 113 118
107 112 118
107 112 118
106 111 117
106 111 117
106 111 118
104 109 115
101 105 111
91 88 92
130 121 126
117 108 111
135 125 130
96 95 100
106 111 117
107 112 119
108 113 120
108 114 120
113 117 123
111 115 120
111 115 121
112 116 121
108 113 119
108 112 118
107 111 117
106 110 116
106 110 115
105 108 113
105 109 115
106 111 116
104 109 114
104 109 115
103 108 113
103 108 113
99 104 107
92 97 98
87 92 92
91 97 98
98 104 108
103 109 114
104 110 116
104 110 115
104 110 116
101 107 112
93 98 103
87 92 95
88 97 98
75 99 93
69 94 86
69 95 86
84 100 96
105 110 116
107 113 118
108 113 118
107 112 119
107 113 120
105 110 120
82 80 116
102 106 114
94 94 102
74 85 93
69 78 104
73 82 109
69 84 99
61 96 77
63 107 67
64 109 68
72 126 62
93 151 75
99 163 71
98 159 75
100 163 79
104 165 86
103 151 103
75 94 108
63 82 98
55 78 92
55 79 94
57 82 96
58 83 98
59 84 100
58 82 98
73 95 113
73 69 81
98 48 45
115 54 50
130 62 56
138 65 59
142 67 60
144 68 62
146 68 62
146 69 62
147 68 62
171 184 197
175 215 241
165 208 241
161 205 241
159 204 241
160 200 211
120 140 154
119 131 152
121 135 157
122 138 162
116 132 155
110 125 150
79 85 122
57 54 108
58 52 110
59 52 112
54 54 103
52 56 100
51 57 97
53 62 97
66 79 106
79 96 116
75 92 112
77 94 113
79 95 114
68 89 105
96 119 140
109 133 160
132 160 190
129 155 187
139 168 197
108 132 144
70 99 141
48 86 136
41 85 135
59 100 151
57 99 150
54 94 147
56 94 149
51 94 114
39 91 96
38 91 85
36 92 80
37 95 75
26 93 65
29 95 68
30 95 68
38 96 74
49 96 84
68 102 104
97 113 138
97 107 136
89 96 129
83 89 123
81 86 122
80 93 119
76 114 115
74 124 112
65 132 103
60 141 71
61 145 74
61 149 147
63 147 156
64 139 162
66 128 157
92 129 181
95 128 184
94 127 183
99 130 184
102 132 183
107 136 183
123 144 173
129 148 171
131 149 172
129 147 169
133 149 162
135 150 156
132 132 117
127 110 52
126 108 48
122 102 44
118 95 38
114 87 32
111 80 24
112 82 37
113 98 82
123 124 129
112 141 137
97 131 109
88 129 89
85 128 81
90 133 91
104 139 117
124 138 134
139 136 151
147 140 156
162 160 182
173 169 193
173 173 198
176 179 205
174 181 209
173 182 213
89 43 146
78 41 156
113 93 95
125 69 41
119 77 54
102 108 112
107 112 118
108 113 119
108 114 120
107 112 118
106 111 117
106 110 116
104 108 113
101 104 110
95 97 101
87 81 83
69 60 60
95 89 91
86 82 86
102 106 112
105 110 115
106 111 117
108 113 118
112 115 120
111 116 122
110 115 121
109 112 119
109 114 119
109 114 120
109 114 120
107 112 118
108 113 118
108 112 118
108 113 118
107 112 118
107 113 118
106 112 117
105 110 115
103 109 113
102 107 112
101 106 110
98 104 107
100 106 110
101 107 112
102 108 113
103 109 115
104 110 115
104 110 116
103 109 114
101 107 112
99 105 110
86 102 101
77 96 92
74 93 87
78 95 90
100 108 111
106 108 108
110 109 106
109 110 110
106 110 117
103 108 116
96 100 113
95 98 115
93 95 101
106 112 118
63 70 96
60 68 95
62 70 97
57 73 89
51 81 70
53 87 70
60 101 67
72 116 74
93 145 84
100 156 87
103 158 91
107 162 99
108 161 104
112 159 118
89 108 124
75 96 111
63 87 100
58 84 95
57 85 97
58 85 98
60 88 101
69 95 109
84 106 122
78 70 76
93 57 54
111 56 51
121 57 51
129 61 55
135 64 57
137 65 58
135 64 58
137 69 69
138 90 107
163 191 219
162 191 228
158 190 232
157 194 238
158 198 240
156 196 209
130 163 175
118 130 150
120 133 155
121 134 155
115 128 149
99 109 136
65 63 111
58 51 109
58 50 109
57 50 108
51 53 96
49 56 93
47 58 92
47 57 91
45 58 89
59 74 98
67 83 102
69 86 106
71 87 106
57 77 97
62 83 103
66 86 108
86 107 133
81 101 127
90 113 139
88 113 136
84 110 140
64 95 134
59 94 136
78 109 152
73 101 148
68 97 148
67 93 145
59 91 111
48 86 93
47 88 84
44 89 80
39 88 74
37 89 73
25 90 63
26 92 64
37 95 72
57 102 91
81 115 118
120 140 163
121 138 163
107 121 148
99 110 139
94 104 132
73 107 109
65 124 104
61 140 101
59 145 98
51 151 82
54 152 82
56 155 129
56 149 133
58 146 139
61 137 148
82 130 164
99 128 174
98 128 177
99 128 177
104 131 176
110 136 180
124 144 173
129 148 170
129 147 168
132 148 159
135 148 148
137 148 140
138 144 125
129 119 64
127 115 55
127 113 53
124 108 50
116 98 43
108 87 47
111 98 85
114 113 112
120 135 146
118 139 152
106 132 131
101 128 122
99 128 120
101 129 125
119 129 133
132 127 137
139 125 134
142 122 130
145 120 129
146 122 132
151 133 148
159 150 171
163 158 181
150 145 178
94 43 133
81 40 143
90 72 132
123 71 63
130 57 20
105 99 100
106 110 115
108 112 118
108 112 118
108 112 118
106 111 116
107 111 117
104 108 113
102 106 111
95 97 102
88 88 92
80 75 79
80 75 79
80 79 82
98 101 106
104 108 113
105 109 115
107 112 118
108 113 119
138 144 147
155 157 160
117 122 128
108 113 119
109 114 119
109 114 119
108 113 118
108 113 118
109 113 119
108 113 119
107 112 118
108 113 119
107 112 117
106 111 116
105 111 116
105 111 116
104 110 115
104 110 115
104 109 114
104 110 115
105 111 116
105 111 116
105 110 116
103 109 114
103 109 114
102 108 113
100 107 111
90 102 103
81 95 93
81 95 92
88 100 99
107 105 98
108 102 88
110 104 91
108 106 99
106 109 112
101 106 114
90 88 100
102 107 115
97 101 107
89 95 101
49 55 82
49 55 84
48 53 84
44 59 75
44 67 70
49 75 73
60 94 76
74 109 88
99 147 98
104 155 100
106 156 104
109 158 112
113 160 119
116 157 131
100 121 138
85 107 122
76 102 115
68 94 105
66 95 106
69 97 109
72 100 112
82 109 123
95 120 135
87 78 81
95 67 64
108 62 58
116 56 50
123 58 52
128 60 54
129 60 54
129 74 84
127 87 116
110 100 143
137 145 193
139 146 202
142 153 210
148 167 220
154 182 231
136 172 186
118 151 164
105 115 132
105 113 130
105 115 133
109 120 139
79 82 113
58 50 107
57 49 106
56 48 105
56 48 104
50 52 94
46 55 89
45 57 88
43 57 85
43 59 85
42 58 83
57 74 93
58 75 93
62 80 99
55 73 92
57 77 98
67 87 109
82 106 131
91 117 145
89 114 142
86 110 137
82 106 133
68 93 124
70 98 134
94 116 155
85 105 149
81 99 147
78 94 144
65 87 110
52 84 87
51 83 85
50 83 84
48 85 82
44 85 77
36 85 70
46 96 79
50 98 82
63 105 96
81 114 116
118 136 158
123 140 164
117 134 157
108 123 147
97 115 134
69 125 104
57 138 95
54 150 93
55 159 96
49 159 90
48 161 89
49 160 101
51 157 110
53 152 117
54 142 125
66 131 141
95 123 164
99 126 167
99 126 167
105 130 168
111 135 169
125 144 169
128 146 166
127 144 158
133 145 141
138 147 132
139 147 122
139 145 113
136 133 84
133 126 63
128 119 59
124 114 55
121 108 51
112 100 64
110 111 108
112 123 126
108 129 135
103 123 128
96 116 118
87 108 107
90 109 110
93 112 113
116 110 109
127 111 108
137 111 111
143 110 112
148 108 110
147 111 117
145 111 119
142 113 123
139 115 128
129 108 131
98 43 123
87 39 128
69 37 142
114 77 75
130 50 21
129 57 36
106 110 114
108 112 118
108 112 117
106 110 115
107 111 117
106 109 115
105 109 115
103 106 112
101 105 110
95 98 103
83 83 86
77 76 78
88 88 91
98 101 105
102 106 111
106 110 115
107 112 117
107 111 117
108 112 118
107 112 118
108 113 118
109 113 119
108 113 118
107 110 114
108 109 112
107 110 115
107 112 118
108 113 119
107 112 118
106 112 117
107 112 118
106 111 116
106 111 117
107 112 117
106 111 116
106 112 117
106 112 117
105 111 116
105 111 116
105 110 115
104 109 114
103 109 113
102 107 112
100 106 110
96 102 106
92 101 102
89 98 99
90 99 100
102 98 87
110 98 72
110 97 69
108 97 76
106 100 91
105 106 107
105 40 68
108 18 61
103 109 116
103 109 116
54 60 84
47 52 80
41 45 77
41 46 78
40 46 77
46 57 79
55 72 87
64 88 89
78 107 99
103 142 114
108 152 116
109 151 119
113 155 123
116 156 131
116 153 139
108 131 149
95 119 133
88 114 127
80 108 119
80 108 119
80 111 122
86 115 126
92 118 132
103 130 145
108 121 133
89 72 69
100 67 63
107 60 55
112 53 47
117 54 49
118 68 78
123 91 118
123 103 153
119 107 168
119 109 177
120 110 186
120 111 188
123 116 194
136 142 210
119 152 164
105 137 152
116 131 152
118 132 154
117 131 153
117 132 154
80 85 120
55 47 102
55 47 102
55 48 103
53 46 98
49 51 92
44 55 85
42 57 83
41 57 80
40 58 79
40 58 79
42 60 78
46 64 81
48 66 84
55 72 90
50 69 88
59 79 99
77 100 124
85 109 135
83 107 133
79 102 128
70 90 115
63 83 107
95 113 145
102 118 153
93 106 148
92 103 147
90 98 143
74 89 111
58 79 92
58 77 92
56 77 88
53 79 85
51 80 83
43 81 74
51 90 82
61 101 93
73 107 105
79 110 112
110 127 149
109 124 146
103 116 137
95 107 127
80 106 108
52 132 85
46 147 85
47 159 89
46 160 89
46 160 89
46 159 88
46 158 87
46 157 86
46 155 86
49 149 103
55 134 129
93 123 154
97 122 159
102 127 164
107 130 162
113 134 164
123 142 163
126 144 163
128 141 145
135 143 125
139 144 112
139 142 100
141 142 93
140 140 85
136 133 70
133 129 66
128 122 62
122 114 58
118 115 88
117 123 123
118 133 147
119 135 151
119 136 151
121 139 154
119 137 152
118 136 153
121 134 150
135 121 132
145 117 124
148 113 119
152 107 109
152 106 108
150 107 112
149 103 107
146 103 108
138 102 109
133 104 116
98 41 108
89 39 115
69 35 132
92 77 113
120 46 22
127 47 12
116 89 87
106 110 115
106 110 115
107 111 116
106 110 116
106 110 115
105 109 114
103 107 112
103 106 112
101 104 109
97 100 104
98 100 104
99 102 106
102 105 110
104 108 114
105 109 114
106 111 116
107 111 116
108 112 117
108 113 118
108 112 118
109 112 117
111 112 114
107 108 112
106 108 112
105 106 109
108 109 109
105 110 115
107 112 117
108 113 118
106 111 117
106 112 117
106 111 116
106 111 116
105 110 115
105 111 116
105 110 115
106 111 116
105 110 115
105 111 116
103 108 113
103 108 113
101 107 111
97 102 106
95 100 103
90 96 98
92 98 101
97 94 86
109 94 60
109 93 60
106 90 57
104 89 60
102 95 83
97 38 58
98 17 54
101 17 56
105 111 117
96 102 108
59 66 91
54 61 86
50 57 84
50 56 84
53 60 88
54 61 90
62 70 99
68 83 101
80 102 107
106 143 122
109 148 122
110 147 126
112 151 129
113 149 134
114 149 141
115 138 155
105 130 145
96 123 136
91 119 131
91 120 131
90 119 130
95 124 136
101 130 143
113 140 155
119 144 162
100 104 111
91 72 69
99 66 62
106 51 45
107 50 46
113 85 109
117 102 146
113 101 160
113 103 173
114 105 184
115 107 188
115 107 191
116 108 194
118 110 194
106 137 149
100 131 144
127 144 167
128 145 169
127 145 168
128 145 168
91 99 132
54 46 99
54 46 100
52 45 97
52 45 97
47 50 89
42 54 81
40 56 78
38 57 75
38 57 75
38 57 75
38 57 75
36 55 72
41 57 72
47 61 73
55 69 81
59 75 89
70 90 111
76 98 121
72 93 116
68 88 111
60 79 100
87 105 128
115 129 158
104 114 148
100 106 146
95 98 141
95 98 142
77 84 113
65 75 98
62 74 95
62 73 94
58 72 90
56 76 88
53 76 84
57 86 87
72 106 105
79 110 113
90 117 126
114 133 154
120 137 161
118 134 157
117 133 155
101 135 138
61 148 98
46 159 88
46 159 88
45 156 86
45 156 86
45 153 84
45 153 84
45 153 83
44 152 82
44 150 82
48 140 102
98 129 153
110 132 165
109 132 165
113 134 164
119 137 163
126 143 164
124 140 159
130 139 129
135 139 101
139 140 87
141 140 76
141 139 72
139 137 71
139 136 70
136 133 69
133 129 67
127 123 64
116 112 68
108 109 95
108 117 130
114 126 140
116 128 144
119 132 150
122 136 154
124 139 159
129 135 153
141 116 125
151 112 116
153 105 106
157 101 99
157 99 96
153 97 96
154 96 94
148 94 94
141 90 92
135 92 98
110 52 92
90 38 105
69 34 123
62 34 130
106 63 58
117 42 11
120 64 52
108 106 110
106 110 115
106 109 114
106 109 114
105 108 113
104 108 114
104 107 112
104 108 114
104 108 113
104 107 113
103 106 111
103 106 111
104 108 113
105 109 114
105 109 114
105 110 115
106 110 116
107 111 116
107 111 116
107 112 117
109 110 112
108 109 111
106 107 111
106 108 111
105 107 110
107 108 111
106 107 108
106 110 115
107 112 117
106 110 115
106 111 116
107 112 117
106 110 116
104 110 115
105 110 115
106 111 116
105 110 115
105 110 115
103 108 113
103 108 112
102 107 111
100 105 109
96 101 104
93 97 100
92 97 99
95 99 101
103 89 57
106 90 57
102 86 54
100 84 53
97 82 53
92 68 60
90 16 48
93 15 50
96 54 71
102 107 113
75 84 105
67 75 98
63 71 95
61 69 93
60 67 92
61 69 95
63 72 98
68 77 104
73 83 109
87 103 120
105 137 126
108 143 127
111 144 133
112 144 134
112 145 135
111 140 143
113 137 153
108 134 148
102 131 144
94 123 133
97 125 137
96 125 135
99 128 140
105 133 145
110 136 149
109 134 146
110 133 147
100 110 119
90 74 77
93 57 59
100 62 73
112 97 131
110 98 151
109 98 166
107 98 172
108 100 186
109 102 192
109 103 196
112 106 199
112 106 200
105 136 147
102 127 139
130 148 171
130 148 171
131 149 173
131 149 173
108 121 149
59 55 101
51 44 95
51 44 95
51 44 94
45 47 86
41 53 79
38 55 76
37 55 73
36 54 72
38 56 74
41 57 71
56 66 70
63 70 70
70 76 70
72 77 69
73 78 72
76 83 84
65 75 82
48 60 73
51 63 78
78 92 109
89 103 123
88 93 124
91 92 127
90 87 127
87 81 124
89 80 126
79 75 113
67 70 100
68 69 101
65 70 97
65 68 96
61 72 92
58 71 87
63 83 93
77 102 110
89 116 124
99 124 136
118 138 159
124 143 167
124 142 166
124 143 166
106 143 145
46 149 85
44 153 84
44 152 84
44 152 84
43 150 82
44 151 82
43 147 80
43 146 79
43 146 79
42 142 76
41 140 75
104 133 154
113 133 164
116 136 166
120 139 166
124 142 166
125 142 164
127 144 166
131 137 114
137 138 83
138 137 71
138 137 71
138 136 70
137 134 70
135 132 68
135 131 68
132 128 66
128 123 63
124 120 76
116 117 99
121 134 152
122 135 155
123 137 157
124 139 161
125 139 160
126 140 162
131 136 155
146 111 117
152 103 104
155 98 95
160 92 83
160 89 79
159 87 76
156 84 73
148 85 79
144 87 85
138 90 92
127 92 102
95 38 85
66 32 113
58 31 122
81 74 117
105 37 10
113 54 40
111 84 83
105 107 112
105 107 112
105 107 112
104 106 111
104 107 112
105 108 113
104 107 112
104 108 113
103 106 111
103 106 111
105 108 114
105 109 113
104 108 114
104 109 114
105 109 114
106 110 115
105 109 114
108 112 117
108 112 118
108 108 110
111 111 113
110 110 111
109 109 110
110 109 110
111 111 113
107 107 108
107 112 118
106 111 116
105 110 115
105 109 114
105 109 114
106 110 115
106 110 115
105 109 114
104 108 113
105 110 115
104 108 113
102 107 111
100 105 110
99 104 108
98 103 106
97 102 105
93 97 99
91 95 98
98 91 77
99 85 54
99 84 53
96 81 50
91 76 47
89 74 50
79 27 40
86 14 45
86 14 45
103 107 114
90 96 104
77 87 109
75 85 106
69 78 101
72 82 104
69 78 100
71 79 102
70 78 100
78 87 110
81 92 115
87 99 122
111 137 139
110 139 136
111 140 136
112 138 139
107 135 135
103 129 137
99 125 137
95 125 134
93 122 131
89 120 126
89 120 126
91 122 128
92 124 131
92 121 128
92 121 128
92 117 123
87 111 116
84 100 105
78 92 96
77 77 83
94 83 105
109 95 128
104 93 152
103 94 169
105 97 180
103 98 191
106 101 198
107 103 205
107 102 203
107 103 206
96 125 134
130 149 172
129 148 171
130 149 173
131 149 173
129 148 171
122 139 165
83 90 122
55 52 95
48 42 90
47 40 87
44 46 84
40 52 78
38 52 75
37 52 72
42 57 76
50 63 75
66 71 67
77 80 68
85 86 67
87 87 66
89 89 66
87 86 65
93 95 82
106 112 113
102 112 120
100 116 135
100 117 139
102 117 142
96 102 134
96 96 133
94 90 132
93 87 131
96 87 134
84 77 119
71 66 104
72 64 105
70 67 102
68 64 99
65 65 94
63 69 92
70 82 101
80 101 112
97 122 133
107 130 146
122 142 165
127 145 170
129 148 172
128 146 170
110 145 150
41 142 78
42 145 80
42 145 80
42 145 80
42 144 79
42 143 78
42 144 79
41 142 77
41 141 76
42 137 73
49 134 73
106 132 146
121 135 162
122 135 161
125 136 160
128 140 163
127 140 163
128 144 167
128 131 91
134 133 69
135 133 69
135 132 68
135 133 69
134 131 68
131 127 65
128 124 64
128 122 62
124 118 60
123 116 59
119 118 94
127 144 167
129 145 167
128 145 168
128 145 167
129 145 168
129 145 169
133 137 157
148 107 112
154 93 88
160 89 77
158 83 68
159 78 59
159 76 55
154 74 54
150 74 57
142 76 67
138 76 70
127 79 83
117 86 96
79 64 105
50 32 104
47 26 101
102 97 101
103 55 47
109 73 68
103 91 93
102 102 106
102 103 107
103 106 110
104 106 110
103 106 110
104 107 112
103 106 111
103 106 112
104 107 112
104 108 112
103 107 112
105 108 113
105 109 114
105 109 113
105 109 114
105 109 114
106 109 114
107 111 116
108 109 112
109 109 111
107 107 108
106 106 107
106 106 106
107 107 108
108 109 111
106 111 116
106 110 115
105 110 115
105 109 114
105 109 113
104 109 113
104 108 113
103 108 112
103 108 112
102 107 111
102 106 111
101 106 110
100 105 109
99 103 107
98 102 106
93 97 100
93 96 99
91 93 93
94 86 70
92 77 49
90 75 47
85 70 43
82 67 41
71 44 35
76 12 38
78 12 39
93 77 87
100 105 110
79 88 106
74 84 102
70 79 98
78 88 108
73 81 99
80 85 98
77 80 92
84 88 99
86 91 102
90 97 112
97 108 125
113 135 139
114 140 143
115 140 147
115 138 148
108 134 142
103 130 142
102 130 141
98 128 138
96 129 138
93 127 133
93 126 134
95 128 135
93 129 135
95 128 135
96 127 135
96 127 135
97 125 133
101 126 137
101 123 135
107 120 136
104 95 123
107 93 125
99 90 155
97 91 170
100 94 186
98 93 189
99 96 197
101 99 204
102 100 207
103 101 209
121 140 160
124 143 165
125 144 166
125 144 166
125 144 166
126 146 168
128 147 170
102 114 141
83 91 122
67 70 105
50 47 88
46 49 83
40 50 77
47 59 82
58 72 91
66 82 99
70 73 66
81 82 65
92 90 63
98 95 63
102 98 61
102 98 61
100 95 60
100 97 68
112 115 106
116 123 124
117 129 141
123 141 164
119 135 161
109 114 148
107 107 146
104 100 143
103 95 140
103 91 140
92 81 128
80 63 113
75 59 106
74 60 105
72 60 102
69 61 98
68 63 96
75 79 105
86 99 118
106 129 144
114 135 154
127 145 169
128 147 171
127 146 170
129 148 172
114 144 155
55 139 89
40 139 77
41 141 77
40 139 77
41 141 77
41 140 77
40 137 74
40 134 73
42 134 72
52 129 73
66 125 78
109 128 138
120 127 150
123 129 151
124 129 151
124 132 154
124 134 156
124 136 159
127 126 74
132 130 67
130 129 67
129 127 65
131 127 66
128 125 64
128 123 63
125 120 62
122 116 59
122 114 58
117 110 56
116 112 69
130 147 171
130 147 170
128 146 170
130 147 171
130 147 171
131 148 172
134 138 158
148 98 99
157 87 76
159 78 59
161 71 40
161 68 31
160 65 25
156 63 22
153 63 27
145 63 38
135 66 54
127 68 63
108 63 67
86 81 101
66 70 93
61 64 84
64 68 87
97 82 83
100 68 65
103 82 81
98 96 99
99 99 102
101 102 106
102 104 108
102 103 107
102 104 108
103 106 111
103 106 111
102 105 109
103 106 111
104 107 112
104 107 112
103 106 111
105 108 112
104 107 112
104 108 112
105 109 113
104 108 113
107 110 114
106 107 109
104 105 106
104 104 105
103 104 105
106 107 108
115 119 124
104 108 113
105 109 114
105 109 113
104 107 111
104 108 112
104 108 112
104 108 112
102 105 110
101 105 109
101 105 110
101 105 109
100 104 107
99 103 107
97 101 104
95 98 101
92 95 97
89 91 93
87 86 82
87 79 65
85 72 52
80 66 41
76 62 39
73 63 55
67 11 33
71 11 36
78 44 57
101 106 112
94 105 119
86 98 117
86 98 116
81 93 112
82 89 103
79 82 90
83 85 89
90 90 89
90 91 90
94 95 94
98 102 106
102 109 116
117 134 136
116 137 140
118 140 152
119 140 155
110 134 147
107 134 146
106 136 147
103 136 145
103 138 146
101 136 144
102 140 147
101 138 146
101 137 145
102 139 147
104 138 148
103 136 146
106 138 149
108 137 149
107 134 146
117 136 154
106 104 129
98 85 115
94 85 157
93 87 173
93 89 183
96 92 194
96 94 197
97 95 199
99 97 204
100 99 208
103 121 136
113 132 150
119 138 157
121 140 161
124 143 165
125 144 167
125 145 167
119 136 160
101 114 140
89 98 126
84 93 122
74 84 109
72 85 106
76 90 110
81 97 116
70 78 81
83 83 64
97 94 61
104 99 60
109 104 60
111 105 60
109 104 59
108 101 56
108 101 56
108 103 68
110 110 93
115 120 117
122 136 152
124 140 166
108 110 146
102 97 139
104 96 141
101 90 137
100 86 136
97 80 133
83 64 116
77 55 109
78 56 109
76 54 106
73 57 103
72 62 101
80 79 109
93 103 126
115 135 155
119 139 160
127 145 170
126 144 168
127 146 170
125 144 169
118 144 160
75 137 110
51 136 84
39 134 74
39 135 74
39 134 73
39 133 72
39 133 72
40 130 70
51 123 70
63 123 74
79 122 90
113 121 134
118 117 138
120 119 139
119 120 141
122 124 145
123 126 148
125 132 154
127 122 74
127 124 67
124 122 63
128 126 65
126 124 64
124 120 62
123 119 61
120 116 59
118 111 57
114 107 54
114 106 54
114 113 90
131 149 173
130 147 171
130 148 171
131 149 172
130 147 171
130 148 172
134 141 162
147 99 99
155 73 50
159 66 27
159 64 19
158 64 19
157 63 19
152 61 18
150 60 17
142 56 16
134 53 18
127 60 46
117 80 85
114 119 141
119 133 159
117 132 157
119 134 159
115 126 144
97 86 88
97 78 78
94 86 88
95 92 95
98 98 101
101 102 106
100 102 106
101 103 107
102 105 109
101 103 107
102 105 109
102 105 109
102 105 109
103 106 110
103 106 110
103 106 111
103 106 110
105 108 112
104 107 111
104 107 111
103 106 110
104 108 113
107 109 113
113 113 117
116 119 123
110 113 117
103 107 111
104 107 112
104 107 111
103 107 111
104 107 111
103 106 110
102 106 110
103 106 111
102 105 109
101 104 108
101 105 109
100 104 108
100 104 107
98 101 104
97 99 102
93 96 98
90 92 93
85 86 86
81 79 77
80 75 67
78 71 62
76 68 60
76 71 70
52 42 44
65 10 33
78 61 69
102 105 111
98 105 113
107 123 142
97 112 131
93 106 124
87 95 106
91 94 98
91 91 88
96 94 85
95 92 82
97 95 87
101 100 91
103 105 98
108 113 108
114 125 120
114 126 125
113 127 132
116 134 147
105 130 139
100 131 137
98 133 138
101 136 142
101 137 144
101 139 145
101 139 145
101 139 145
103 140 147
104 141 149
103 140 148
106 140 149
106 140 150
107 139 149
110 138 151
120 140 159
115 124 147
96 84 112
90 84 158
88 83 173
91 87 183
92 89 185
94 92 192
95 92 193
95 93 195
99 97 203
122 141 162
123 142 164
126 145 168
126 145 168
129 148 171
127 146 169
127 146 170
127 145 169
119 135 159
107 121 146
98 111 136
94 107 130
94 109 130
87 103 122
86 102 121
76 77 64
96 94 63
108 108 70
107 113 78
105 116 87
105 116 87
105 113 83
104 109 78
103 102 65
103 96 54
103 95 53
107 105 85
115 124 129
126 142 167
107 104 143
101 94 137
99 88 135
96 79 130
94 72 129
94 70 128
87 61 121
80 53 112
79 51 110
78 52 108
75 51 103
76 61 104
82 71 111
99 106 132
119 139 160
126 145 168
125 144 167
126 145 168
125 144 168
126 145 169
123 143 165
92 138 129
76 137 111
56 133 88
46 129 79
41 127 72
38 126 70
42 127 73
49 122 70
65 118 74
77 116 80
99 119 106
124 123 140
126 123 143
128 124 143
127 123 142
126 123 142
127 126 145
128 130 151
124 116 85
123 117 69
120 117 62
121 119 61
122 119 61
120 116 59
120 116 59
115 110 56
114 107 55
110 104 53
112 109 72
115 120 115
130 148 171
130 148 172
130 148 172
131 149 172
129 147 170
130 148 171
133 139 159
147 97 96
156 76 55
155 64 24
155 63 19
152 61 18
151 60 18
147 59 17
143 57 17
139 55 16
132 53 21
127 65 55
122 88 93
123 132 153
129 146 169
129 146 169
128 144 168
128 145 169
107 114 122
96 92 94
91 83 84
89 84 86
95 92 94
96 96 99
99 100 103
99 100 103
100 102 106
100 102 105
100 102 106
100 102 106
102 104 107
100 102 106
102 105 109
101 104 107
102 105 109
102 104 108
102 105 108
102 104 108
102 104 108
103 105 109
103 106 110
102 105 109
102 105 109
101 104 107
103 105 109
103 106 110
102 105 109
101 104 107
102 105 108
101 104 108
101 105 108
101 104 108
99 102 105
99 103 106
100 103 106
97 100 103
98 101 104
96 98 101
94 97 99
91 92 94
87 88 88
82 82 81
76 75 74
78 76 75
80 78 77
82 80 82
70 65 66
63 56 59
88 87 92
99 102 107
99 103 109
106 123 139
111 127 145
105 120 138
96 109 123
95 100 105
92 92 88
98 96 85
105 99 82
107 100 82
107 102 82
107 104 88
112 111 96
115 102 91
124 88 85
127 76 85
128 65 87
129 46 90
110 101 115
97 129 133
96 130 135
95 132 136
96 134 139
96 136 140
99 139 144
98 138 143
99 139 144
99 138 144
101 140 146
101 139 145
104 139 148
105 138 148
108 137 149
124 145 166
123 138 161
101 98 124
86 80 156
85 81 168
86 83 174
88 85 179
91 88 184
92 89 186
92 90 188
94 92 193
128 147 170
127 145 169
127 145 168
126 144 167
127 145 168
123 140 164
124 141 164
122 139 163
119 135 157
115 131 153
107 121 143
101 114 135
98 112 132
90 104 124
90 104 123
87 94 74
105 114 84
104 120 94
102 121 97
103 122 98
101 124 103
101 119 96
100 117 93
100 114 89
99 106 77
98 94 57
101 94 52
106 106 94
123 140 164
105 103 141
96 82 130
92 72 126
91 67 125
90 63 124
89 58 122
87 54 121
83 49 115
82 47 113
81 48 112
79 49 108
80 55 108
85 72 113
103 109 137
122 140 161
121 140 162
121 139 160
122 140 162
123 141 163
124 143 165
123 142 164
106 139 145
87 135 122
77 132 111
68 129 99
64 127 95
62 125 92
66 127 96
71 120 86
82 114 85
93 113 94
111 116 116
130 125 143
129 121 139
129 121 139
129 121 138
128 121 139
128 123 141
128 126 144
124 115 99
120 110 73
118 112 66
117 115 60
113 110 56
113 110 56
113 109 56
111 105 54
109 104 58
109 105 75
115 116 101
121 130 135
131 148 172
130 147 170
129 147 170
131 148 171
132 149 173
130 148 171
132 141 161
148 97 95
152 82 71
150 75 57
151 69 45
147 62 28
144 59 24
144 58 21
140 59 28
137 59 34
132 66 53
125 74 71
121 94 100
126 134 154
129 145 168
129 146 169
130 148 171
130 147 170
130 147 171
102 106 110
94 93 95
88 84 85
90 86 87
96 96 98
98 98 101
97 98 102
98 100 103
98 99 103
99 101 104
99 101 105
99 101 104
99 101 104
101 103 107
99 102 105
100 102 105
99 101 105
101 103 106
101 103 107
103 105 108
102 104 107
101 104 107
101 103 106
101 103 106
101 104 107
100 103 106
101 103 106
100 103 106
101 103 107
99 102 106
100 103 106
100 103 106
100 102 106
99 102 105
97 100 103
98 101 104
98 101 104
95 97 100
95 97 99
93 94 96
92 93 94
88 88 89
86 86 86
82 81 80
82 80 80
84 83 84
80 79 81
76 72 74
82 80 83
95 96 100
101 104 110
116 132 152
117 134 154
118 135 155
109 126 144
104 114 128
101 104 104
101 99 91
105 99 82
113 105 80
113 106 80
115 108 82
117 110 84
127 107 84
125 102 83
126 95 83
124 88 83
126 73 84
127 54 86
116 69 97
106 89 105
97 130 136
96 133 138
96 135 140
96 136 141
95 136 140
95 136 140
96 138 142
96 138 142
97 136 142
99 136 143
100 136 144
102 135 144
109 138 151
126 145 166
129 148 170
113 123 146
97 99 164
85 80 161
84 81 167
86 83 173
88 85 178
91 88 184
89 88 183
91 89 185
128 145 169
127 144 168
125 142 165
121 138 162
122 139 162
118 134 157
114 129 151
111 126 148
106 119 140
99 111 130
92 103 121
88 98 115
87 98 116
87 99 116
83 102 116
95 112 91
102 124 102
100 128 110
101 131 113
100 134 118
99 135 120
98 129 113
96 128 112
97 122 103
95 112 92
95 104 78
95 91 56
96 89 54
122 139 162
102 99 138
91 75 124
87 61 120
86 53 119
85 48 117
84 46 116
84 46 116
84 46 115
85 46 116
83 45 113
81 45 111
80 50 108
86 72 114
98 101 128
113 131 149
114 131 150
116 135 155
118 136 156
118 136 156
121 139 160
121 140 162
116 139 155
103 136 140
94 134 128
88 133 122
84 130 117
80 129 113
84 124 110
91 116 100
94 111 97
109 114 111
124 118 128
130 119 135
129 117 132
129 117 132
130 119 134
129 118 133
129 119 136
128 121 138
124 115 113
123 110 89
115 107 76
116 118 88
114 115 78
113 112 73
111 110 72
111 111 77
111 112 89
114 116 103
117 123 122
125 138 151
129 147 169
130 148 171
130 148 171
129 147 169
130 148 170
129 147 170
132 140 160
146 102 104
147 95 93
145 85 78
145 77 64
145 75 61
142 70 53
144 74 60
136 71 58
133 77 71
130 81 79
124 83 84
120 98 107
126 135 156
129 146 168
130 147 170
130 147 169
129 146 168
130 147 169
129 146 168
97 100 103
91 89 90
87 83 83
92 89 91
95 94 96
95 95 98
97 98 101
98 100 103
97 98 102
97 98 101
99 101 104
98 100 103
97 99 102
99 101 104
99 101 104
98 99 102
99 101 104
99 101 103
101 103 107
101 103 105
99 101 104
99 101 103
100 100 102
102 102 104
102 103 105
100 101 103
101 102 105
100 103 105
98 101 103
99 101 104
97 99 102
97 99 102
97 100 103
97 99 102
95 97 100
97 99 102
94 96 98
93 95 96
92 94 95
89 90 92
88 89 89
85 84 85
86 85 86
87 86 87
87 86 88
84 82 84
84 82 85
93 94 98
99 102 107
120 136 157
120 137 158
121 138 159
122 139 160
118 135 156
110 118 126
109 108 100
110 104 85
114 106 79
122 113 82
124 116 84
126 118 85
129 117 86
128 115 86
126 110 84
122 104 82
123 95 83
121 86 80
122 61 82
114 67 94
104 92 106
98 102 111
94 130 135
93 133 137
92 134 137
93 135 139
91 133 137
94 135 140
94 135 139
92 134 137
94 132 137
98 135 142
99 132 141
109 137 150
127 145 167
128 146 169
123 139 163
103 111 162
96 100 164
91 92 166
87 87 165
87 84 172
86 84 175
85 84 174
89 87 181
127 145 169
127 145 168
125 143 166
124 141 164
122 139 163
120 136 159
119 135 158
118 134 157
117 133 155
113 128 150
111 126 148
111 125 147
109 124 144
102 121 140
94 126 139
98 126 108
98 132 116
97 138 125
97 139 126
95 142 132
95 143 133
95 141 130
94 136 124
93 134 123
91 124 111
91 115 99
92 97 71
89 82 46
121 138 159
102 99 137
91 75 124
83 54 115
81 45 112
82 45 113
82 45 113
81 44 111
80 44 110
81 44 111
81 44 110
81 48 110
83 56 112
89 76 119
99 103 130
115 133 152
115 133 151
117 136 155
119 139 159
120 140 160
119 138 157
121 141 161
121 140 160
114 138 152
105 135 142
99 132 135
98 133 133
94 130 129
97 126 124
102 113 109
109 109 110
120 112 119
128 113 126
128 108 121
130 111 124
128 110 122
129 110 123
129 110 123
128 111 125
127 114 128
126 114 124
122 109 103
117 107 91
116 120 107
115 120 103
112 116 95
112 115 98
111 115 102
115 120 111
117 125 128
120 131 140
127 143 163
128 145 167
129 146 168
128 146 167
129 147 169
129 146 169
129 146 168
131 139 159
139 113 121
143 99 100
142 95 94
142 86 81
140 84 79
139 81 75
137 84 80
134 83 78
129 84 83
128 88 90
124 96 102
121 107 118
124 132 151
128 145 167
128 145 167
129 146 168
128 146 168
129 147 169
127 144 165
127 144 166
97 98 102
89 86 88
88 85 86
91 90 91
92 91 93
94 94 96
94 95 97
94 95 97
95 96 99
95 96 98
96 97 99
97 98 101
97 99 101
96 97 99
97 99 101
98 100 103
98 99 102
98 100 102
98 98 100
99 98 100
100 98 98
101 99 99
101 98 98
100 97 96
99 97 97
100 98 98
100 100 101
98 99 101
96 97 99
97 99 101
95 97 99
95 98 100
95 96 99
95 96 98
93 94 96
95 96 99
92 93 95
91 92 93
90 91 92
90 90 92
87 87 89
86 85 86
86 86 87
86 85 88
88 88 90
90 91 94
98 100 104
120 135 156
122 138 160
120 137 158
120 137 158
119 135 155
118 134 154
111 115 115
111 107 92
114 106 79
122 113 81
130 120 85
130 121 86
133 124 87
130 122 86
128 121 86
125 117 84
121 109 81
118 100 79
115 87 76
118 75 79
106 74 94
100 92 104
98 101 111
95 108 115
89 129 133
88 131 133
88 131 133
87 132 133
88 132 134
89 132 135
90 132 135
93 132 136
96 132 140
100 133 142
107 135 148
120 137 159
122 138 160
121 137 160
105 114 160
99 106 159
95 99 163
92 95 164
91 93 169
89 91 169
87 88 169
92 94 173
129 147 171
129 147 171
127 144 169
127 145 169
127 144 168
125 143 166
126 144 168
126 143 167
123 140 163
124 141 164
123 140 163
124 141 164
123 140 163
111 140 158
102 143 157
93 130 116
95 139 128
94 143 135
94 145 136
93 151 144
93 149 142
92 148 142
92 143 136
92 144 136
89 134 125
89 125 113
88 111 95
90 91 63
120 136 155
102 100 137
92 77 126
87 65 119
84 58 116
81 51 112
80 48 111
79 45 110
81 47 111
80 49 110
83 55 112
85 60 115
86 67 115
92 80 122
106 111 141
121 141 161
121 140 161
120 140 160
121 140 160
120 140 159
119 139 157
118 139 157
117 137 155
117 137 154
108 131 144
105 129 139
99 126 133
98 125 131
103 118 123
108 108 112
116 107 115
122 105 116
124 104 115
126 103 113
126 102 113
127 103 114
127 101 111
128 105 116
126 104 115
126 106 118
125 110 123
123 109 113
117 107 105
115 123 122
115 123 119
115 123 120
114 122 119
115 122 121
115 125 128
119 131 140
123 139 156
127 144 165
128 145 166
128 144 165
128 145 167
128 144 166
127 144 165
128 145 166
131 140 159
136 118 129
138 107 113
137 101 104
138 98 101
136 96 99
136 93 94
135 88 87
131 93 95
129 93 96
127 97 103
124 104 114
119 114 127
124 136 156
126 142 163
124 141 162
124 141 162
125 142 162
121 138 158
123 140 160
123 140 161
123 140 160
95 98 101
87 85 86
88 86 88
92 91 93
91 90 92
92 91 93
91 91 93
94 94 96
93 94 96
96 97 99
94 94 97
94 96 98
96 97 100
95 96 99
94 96 98
96 97 99
96 96 98
97 95 96
100 96 94
101 96 94
101 96 94
101 96 94
102 96 94
102 97 95
100 95 93
100 95 93
98 95 95
97 95 95
95 95 96
94 96 98
92 93 95
94 96 97
93 94 96
91 92 94
91 93 95
90 90 92
88 88 90
86 86 88
86 86 87
87 87 88
87 87 88
88 88 89
88 88 91
89 89 92
95 97 100
117 132 153
121 136 157
118 133 154
116 130 151
116 129 150
116 130 150
114 128 146
110 109 101
114 106 82
123 113 79
127 117 82
129 120 84
129 121 85
129 121 85
129 121 85
125 118 83
124 118 83
122 117 82
117 109 78
114 97 76
114 82 76
103 75 92
99 91 103
95 103 111
91 110 114
89 120 124
87 129 132
87 130 132
85 130 132
87 131 132
88 131 133
91 132 136
91 129 133
94 130 136
98 130 139
104 128 142
115 130 150
112 125 146
109 121 141
99 107 145
91 96 143
90 94 151
89 92 152
89 92 158
89 92 160
91 94 164
93 96 168
129 147 171
129 147 171
128 146 170
130 148 172
129 146 170
127 145 169
127 144 167
127 144 167
125 143 166
126 144 167
124 141 164
125 143 166
121 143 164
114 150 166
105 148 161
91 139 129
92 144 137
92 150 145
91 153 148
91 155 151
90 159 156
90 156 153
89 152 148
88 148 143
86 140 134
88 136 129
83 118 108
86 102 86
122 138 158
104 104 140
95 84 128
89 71 122
87 68 119
85 64 117
85 63 116
84 63 115
85 62 116
83 62 113
87 69 117
89 74 119
92 81 124
96 89 127
107 112 142
122 142 162
121 141 161
121 141 161
118 139 157
118 139 156
115 136 152
113 133 148
106 128 140
106 127 138
102 123 133
99 119 128
93 113 119
90 110 115
93 98 101
104 92 95
113 96 102
119 93 99
122 94 102
125 96 105
127 94 102
127 94 102
127 95 104
127 96 105
125 96 105
125 100 110
124 100 111
123 107 119
119 107 114
115 125 134
112 124 130
112 122 125
113 125 130
114 125 131
114 127 137
120 135 150
122 138 156
122 138 156
123 139 158
123 139 157
124 141 160
125 141 161
126 142 162
127 143 163
126 141 161
131 123 135
133 114 123
134 112 120
133 103 108
133 100 104
131 100 106
131 99 104
127 97 102
128 102 109
125 106 116
123 111 123
120 118 133
123 136 156
122 138 158
122 138 158
121 137 157
120 136 156
117 133 151
115 132 149
112 128 144
111 128 144
104 119 134
93 97 102
85 84 84
88 86 87
87 86 87
88 88 90
92 91 93
89 89 90
91 91 93
92 92 93
93 94 96
91 92 94
93 93 95
94 94 96
92 93 94
93 92 92
98 95 94
99 93 91
99 94 91
101 92 88
100 92 88
101 92 88
103 94 89
102 93 89
100 92 87
101 93 89
99 93 91
98 94 92
95 92 91
93 93 95
93 94 96
88 89 90
90 91 92
89 90 91
89 90 91
88 88 90
89 89 91
87 88 89
87 87 88
86 86 88
85 85 87
87 87 89
89 89 92
98 100 105
118 131 152
118 132 153
116 130 151
116 130 150
114 128 148
115 129 149
112 126 145
111 124 141
104 98 79
116 106 74
121 111 78
125 115 80
128 119 83
127 119 84
125 118 83
124 117 82
123 117 82
122 117 82
116 112 78
114 110 76
111 103 74
110 89 73
100 76 92
96 87 99
91 102 108
89 107 112
88 115 118
86 129 131
84 127 128
85 129 130
84 129 130
86 130 132
90 131 135
91 131 136
96 132 138
101 132 142
105 131 144
116 131 152
115 129 150
110 122 143
104 113 143
98 105 143
93 97 147
89 92 147
89 91 150
89 91 152
91 95 157
94 98 160
131 149 173
128 146 170
128 146 170
128 146 169
128 146 169
128 146 169
127 145 168
126 143 166
124 142 164
125 143 166
122 140 162
122 138 160
114 139 158
104 146 159
98 149 159
89 144 138
89 153 150
88 154 152
89 162 161
88 161 160
88 163 163
87 162 162
87 161 160
87 154 151
86 151 148
84 143 138
82 131 125
87 115 107
122 140 161
105 105 140
98 92 132
95 86 128
91 81 123
88 74 120
87 72 119
87 73 118
89 75 120
87 72 117
90 78 121
92 84 124
94 88 125
101 99 134
106 112 141
122 141 161
122 143 162
121 141 160
120 140 158
119 139 157
117 137 154
116 136 152
111 132 146
113 133 147
109 130 143
105 127 137
106 127 138
108 129 141
109 114 123
111 99 106
117 97 104
122 95 103
124 92 100
124 90 98
126 89 97
127 90 97
127 89 96
126 89 97
126 91 99
125 93 101
121 94 102
120 97 105
117 102 111
109 117 127
111 123 131
107 118 125
109 119 127
107 119 127
108 119 130
113 125 138
117 126 139
120 128 143
122 133 150
118 132 148
120 135 153
123 138 157
123 138 157
124 139 159
123 138 157
128 127 142
129 119 131
130 117 128
130 107 115
130 106 114
128 105 113
127 107 115
125 104 112
122 107 118
123 111 123
121 116 129
119 122 137
120 134 153
119 135 154
118 133 152
118 132 151
118 133 151
115 131 149
112 126 142
110 124 139
106 120 134
105 118 131
100 113 126
92 99 107
82 80 81
84 82 83
84 83 84
85 84 85
88 87 88
87 86 88
90 90 91
90 90 91
92 92 94
91 91 93
89 89 90
91 90 90
95 92 90
95 88 85
96 88 84
100 91 86
101 90 84
101 90 83
102 91 84
101 89 82
101 90 83
101 91 85
101 90 83
97 89 84
98 91 87
94 89 86
92 89 87
89 89 90
88 89 90
86 87 88
88 89 90
85 85 86
86 86 87
85 85 85
84 84 85
83 82 83
85 84 86
85 84 86
88 88 90
104 111 123
117 131 151
118 132 152
119 134 155
118 132 152
116 130 150
118 132 152
118 131 151
115 129 148
115 128 146
108 100 74
113 103 72
119 109 76
122 113 79
125 115 81
121 113 79
122 115 81
120 114 79
118 115 77
116 114 76
107 108 71
109 110 72
107 107 70
108 97 71
93 77 87
91 93 100
91 102 108
88 108 112
87 114 116
88 131 133
87 130 133
86 128 131
86 128 131
88 130 133
88 129 132
92 131 137
96 131 138
102 134 144
109 134 149
122 138 162
122 138 162
121 137 159
117 131 158
111 123 156
105 115 156
102 111 154
101 110 159
100 108 157
98 105 159
100 108 161
130 148 171
129 147 170
128 146 169
128 145 169
128 146 170
126 144 166
125 142 165
125 143 165
124 141 163
122 139 160
121 137 158
120 136 157
105 134 149
95 143 153
91 152 159
88 154 151
86 156 155
86 163 163
86 165 166
86 169 170
86 169 170
86 168 169
85 165 166
84 162 162
84 157 156
82 151 149
82 140 135
91 133 134
123 141 163
107 111 142
103 103 137
99 97 133
96 91 129
94 87 127
94 86 126
90 81 121
91 82 123
91 83 122
93 88 125
96 91 129
100 100 133
102 104 134
112 122 149
126 145 166
124 143 164
125 143 164
122 141 161
124 143 163
124 143 163
123 143 162
124 143 163
120 140 158
120 140 157
120 140 158
121 140 157
122 141 161
118 123 138
118 102 113
122 96 105
123 89 97
122 86 93
124 87 94
125 87 95
124 86 93
124 86 93
124 87 94
124 86 93
125 87 94
120 86 93
118 89 96
112 88 93
105 111 119
101 110 117
101 110 117
99 107 113
106 113 122
149 150 169
160 163 187
158 163 188
156 162 188
153 156 179
146 146 164
125 122 135
120 133 151
121 135 153
122 136 155
123 137 156
124 132 149
125 124 139
126 116 128
126 114 125
126 111 121
124 112 124
124 110 121
123 111 122
121 111 123
118 115 128
116 117 131
119 129 146
120 134 152
117 131 148
120 134 152
118 131 149
116 129 146
115 128 145
113 125 141
114 126 142
110 123 139
109 120 135
107 120 134
107 119 134
104 115 129
83 82 83
81 79 79
80 78 78
82 82 82
84 83 83
84 84 84
85 83 84
87 86 87
86 86 86
94 97 102
116 123 134
122 127 138
122 124 133
122 122 130
118 113 116
108 97 93
99 86 77
102 88 79
101 87 78
102 87 77
100 87 78
101 87 78
98 87 81
98 87 79
95 87 81
93 87 84
88 86 85
85 85 86
84 84 84
85 85 85
84 84 84
84 83 84
83 82 83
81 81 81
82 81 82
81 80 81
87 87 90
113 125 142
118 131 150
117 130 149
118 131 150
117 130 149
117 131 150
120 134 154
118 131 151
118 132 151
119 134 154
116 128 146
108 102 85
113 103 72
113 104 73
120 111 78
122 113 79
118 112 77
120 115 78
114 114 74
109 111 71
109 112 70
104 109 67
99 104 64
98 104 64
102 104 67
89 84 85
87 99 98
87 102 106
84 107 111
86 110 113
90 129 133
88 129 132
89 129 132
89 129 133
89 128 133
91 129 134
90 129 134
96 132 139
99 130 141
109 135 150
124 141 164
124 141 165
124 140 165
124 140 165
118 132 161
114 127 161
111 123 160
109 120 159
108 119 161
108 119 162
108 119 163
129 146 170
130 147 171
127 145 168
128 145 168
129 146 170
127 144 167
125 143 165
126 143 165
125 143 165
122 140 161
123 140 162
124 142 164
110 146 161
97 150 159
92 158 165
88 162 165
84 163 164
84 167 169
84 171 173
85 173 176
85 173 175
84 173 175
83 170 172
83 168 170
83 165 166
82 154 153
81 149 147
96 147 152
123 142 163
112 121 149
107 112 143
103 105 138
100 99 134
96 94 129
95 91 127
95 92 128
95 94 127
94 90 126
98 97 131
99 97 131
103 106 137
108 114 144
115 126 152
126 145 167
128 147 169
126 145 167
126 145 165
127 146 168
125 144 164
126 145 166
126 145 166
125 143 163
124 143 163
124 143 163
125 144 164
126 144 165
121 126 143
120 98 109
121 88 95
120 83 90
121 84 91
122 85 92
121 84 91
121 84 91
121 84 91
123 85 92
123 86 92
119 83 89
120 83 89
121 86 92
117 97 106
115 123 137
115 128 141
115 127 140
125 128 142
154 154 175
154 159 185
152 160 189
150 159 189
149 159 189
149 158 187
146 152 176
142 142 160
128 122 134
117 125 141
123 137 156
123 136 155
124 137 156
124 129 146
123 124 140
123 119 134
123 115 127
122 116 129
120 112 123
119 113 126
118 114 128
116 116 129
116 122 137
117 129 146
117 129 147
118 130 147
117 129 146
116 127 144
113 124 140
114 125 141
114 126 142
113 125 141
112 123 138
109 121 136
108 118 132
107 117 131
109 119 133
106 116 130
97 103 113
79 77 77
77 75 74
79 77 77
79 77 77
81 80 80
83 84 85
117 127 141
124 133 148
123 129 142
121 124 135
122 122 130
124 122 130
125 122 129
125 121 126
119 112 113
103 86 74
103 85 71
101 84 71
101 84 73
100 84 73
97 84 74
99 84 73
96 84 75
93 82 75
87 81 78
82 81 80
81 80 80
79 79 80
79 79 79
76 74 74
80 78 79
78 77 78
77 76 76
101 107 118
113 125 142
114 127 144
117 129 147
115 126 144
118 130 149
116 129 147
115 128 147
117 130 150
118 131 150
120 134 154
119 133 153
117 128 144
111 109 100
111 103 79
113 104 73
117 108 76
117 109 76
113 111 73
111 112 71
109 112 69
104 110 66
102 110 64
97 107 62
96 108 60
93 104 58
95 104 61
81 92 80
80 103 95
83 105 101
86 101 103
87 109 114
91 127 132
89 128 133
90 128 132
92 130 136
91 127 133
93 130 136
94 130 137
96 130 138
99 130 141
111 136 152
123 139 164
123 138 163
122 138 162
122 138 163
123 139 164
117 131 161
115 129 162
115 129 162
112 125 160
113 126 162
112 125 162
130 148 172
130 148 171
130 147 170
128 146 169
127 145 168
127 145 168
128 146 168
128 146 168
126 144 167
126 144 166
126 143 166
126 143 166
108 148 162
96 154 163
91 160 166
86 165 169
82 168 171
83 168 171
83 169 172
82 169 171
82 169 171
84 172 174
84 173 175
83 171 173
82 168 169
83 166 166
80 154 154
99 156 164
123 142 163
114 126 152
110 116 146
105 110 140
104 107 138
100 103 134
102 103 136
101 103 134
98 99 131
99 100 131
102 104 135
104 107 137
108 114 144
113 122 148
118 131 156
129 147 169
127 145 168
129 147 169
129 147 169
129 147 169
129 147 169
127 145 167
127 145 166
127 145 166
128 146 168
128 145 167
127 145 167
128 147 168
124 131 149
119 100 111
118 85 92
116 81 87
117 81 88
119 82 89
119 83 90
120 83 89
120 83 89
118 82 89
120 83 89
118 82 88
116 80 86
118 86 93
119 100 110
122 133 150
126 141 162
123 126 141
135 127 143
143 142 165
150 156 184
150 159 189
148 158 189
147 158 189
149 158 189
149 158 186
146 150 173
132 128 140
112 104 108
117 127 144
123 135 154
122 135 154
121 129 147
122 128 145
120 122 137
120 118 132
117 117 132
116 115 129
118 116 130
117 119 134
115 119 134
116 125 141
113 122 137
114 123 139
113 123 139
112 121 136
113 123 139
111 120 135
111 120 135
109 118 132
108 117 131
107 117 130
105 114 127
107 116 130
105 114 126
101 109 121
101 109 122
100 108 119
97 105 116
88 91 98
72 69 68
72 70 69
78 77 78
124 136 152
124 137 154
121 131 147
122 126 137
122 123 133
120 119 126
123 117 123
123 118 123
124 118 121
124 116 119
122 114 115
103 85 73
101 81 67
100 80 65
102 82 66
98 79 65
96 79 67
96 81 71
94 80 71
85 76 71
77 74 72
75 74 73
73 72 72
73 72 72
75 74 74
73 72 73
88 92 98
105 113 128
107 116 131
110 121 136
110 121 137
112 123 140
114 125 142
114 125 143
113 124 141
114 126 144
116 128 146
117 129 147
118 131 150
118 131 149
118 130 146
111 113 111
109 106 92
110 104 80
112 105 73
108 106 69
107 108 68
104 111 65
103 111 65
95 109 58
93 108 57
91 107 55
88 105 54
85 102 52
92 103 58
77 100 79
78 104 91
81 106 94
85 104 100
93 126 131
94 128 132
93 127 131
95 128 132
94 129 133
94 129 135
94 128 135
95 128 136
96 127 137
99 130 141
107 131 148
120 135 160
119 134 159
118 133 159
118 133 159
116 130 157
116 130 155
113 126 155
115 129 157
112 126 156
112 125 156
115 128 159
130 148 171
131 149 172
130 148 171
130 148 171
130 148 171
129 147 169
129 146 169
128 146 169
130 147 170
127 145 167
126 143 165
126 144 166
110 149 163
92 155 162
84 161 165
81 165 168
80 162 165
81 166 169
82 166 169
82 167 169
82 167 169
81 166 167
80 164 166
81 165 167
81 165 167
80 164 165
82 162 163
91 155 160
118 138 157
117 130 153
112 122 147
107 115 142
106 113 141
106 111 141
103 108 136
103 107 136
105 111 139
104 109 137
107 114 141
109 117 144
112 120 147
116 127 152
123 138 162
128 145 168
129 147 169
129 147 170
128 145 166
129 146 169
129 147 170
128 145 167
128 145 168
129 146 169
128 146 168
128 146 168
129 146 168
130 148 170
124 131 150
120 101 113
116 89 98
114 83 91
113 79 85
115 80 86
114 79 85
113 78 85
114 79 86
116 81 87
114 78 84
113 79 86
116 87 95
118 93 103
118 100 112
125 136 156
124 137 157
110 92 103
121 106 121
144 144 167
153 159 187
151 160 189
150 159 189
149 159 189
150 159 189
152 160 189
153 158 183
144 144 161
116 109 115
91 82 86
122 131 150
120 130 148
119 128 145
118 126 142
115 119 134
114 115 129
114 114 127
113 115 129
113 114 128
109 112 125
109 114 127
111 116 130
110 115 129
113 118 132
110 116 131
108 116 130
108 114 127
108 116 130
109 117 131
106 113 126
103 111 123
104 111 123
102 109 120
102 109 121
100 108 119
99 105 116
98 105 116
96 102 113
91 97 106
90 96 105
87 92 100
80 82 88
133 141 156
126 139 156
120 131 147
117 123 136
120 118 127
121 117 125
121 114 119
121 112 114
124 114 116
123 113 114
124 112 111
128 117 118
122 109 107
102 78 59
103 78 59
100 78 61
98 76 59
97 77 62
93 74 61
87 71 59
84 72 63
75 70 67
68 67 66
68 66 65
67 65 65
82 85 91
95 102 114
99 106 119
101 109 121
101 109 123
104 113 126
104 113 127
107 117 132
110 120 136
110 120 136
110 120 136
111 122 138
113 124 140
112 124 140
114 126 143
113 126 143
114 125 140
110 113 116
112 111 103
108 105 90
107 104 73
103 106 64
101 108 63
102 112 63
93 108 56
91 109 53
88 106 52
84 105 49
82 105 48
82 103 49
85 100 52
75 103 74
75 108 84
78 106 88
84 111 100
99 129 129
99 129 130
98 129 127
98 127 127
97 128 129
96 126 127
99 128 133
98 128 134
100 128 138
102 128 141
107 131 147
119 134 158
117 131 156
116 130 155
113 126 152
111 124 149
110 122 148
107 118 144
106 117 144
104 116 141
108 120 147
107 119 147
132 148 171
131 148 171
130 148 171
130 148 171
130 148 171
129 146 169
130 148 170
126 144 165
128 145 167
127 144 167
126 143 164
124 141 161
112 145 160
85 155 159
79 161 163
78 157 160
78 159 161
80 162 165
80 162 164
80 164 165
80 163 165
79 161 162
79 162 163
79 161 163
80 163 164
78 158 158
78 159 160
87 153 156
112 132 148
116 130 149
111 122 144
109 118 143
109 117 143
104 111 138
106 113 140
105 111 139
107 114 141
109 116 143
110 118 145
113 122 148
114 125 151
121 134 158
127 144 166
126 144 166
127 144 166
128 145 167
128 145 168
129 146 169
129 146 168
128 145 167
129 146 168
128 145 168
129 146 168
128 144 167
128 146 169
130 147 169
126 134 153
118 106 119
115 97 109
114 90 99
112 84 92
112 81 87
112 80 87
113 79 86
113 79 86
113 81 88
112 82 90
116 89 98
115 91 101
116 99 111
117 106 120
124 135 155
94 88 99
94 65 72
125 114 130
153 154 177
158 163 189
155 162 189
154 161 189
154 161 189
155 161 189
157 162 189
159 163 189
157 158 179
134 130 142
87 79 82
108 112 127
121 128 146
115 121 137
116 122 137
112 116 131
108 110 123
107 110 123
105 106 118
103 105 117
105 106 118
105 107 119
127 128 142
142 153 173
142 159 181
138 153 174
135 149 168
130 142 160
119 129 145
106 112 124
105 112 124
103 110 122
102 109 121
101 107 118
99 105 117
96 101 111
94 100 110
92 97 106
90 96 105
88 92 100
85 89 96
82 86 92
99 104 116
127 138 153
125 130 145
123 126 139
123 121 132
124 113 120
126 111 115
125 107 108
124 108 109
125 109 108
124 108 106
124 110 109
124 111 109
127 115 114
109 87 73
98 73 52
100 74 52
97 72 51
95 72 53
92 70 52
87 67 51
80 64 52
67 58 52
65 64 68
78 82 90
82 87 96
84 88 96
88 93 103
92 98 108
96 103 114
95 102 113
98 105 117
100 108 121
101 109 122
104 112 126
102 111 124
106 115 129
108 118 133
108 118 134
111 121 137
111 122 139
112 123 139
111 121 137
110 114 120
108 109 108
105 105 97
98 100 70
96 103 59
93 106 56
91 108 54
88 107 52
88 109 51
83 107 47
80 107 44
79 105 44
78 105 43
75 98 46
73 103 66
76 109 77
85 111 83
93 125 113
101 128 119
103 130 127
103 128 122
101 127 121
103 129 124
104 130 128
102 129 129
101 128 131
104 130 136
107 131 142
110 132 149
120 135 160
120 135 159
119 134 158
117 131 156
116 130 155
113 126 153
112 125 151
112 125 151
111 123 149
111 123 149
110 121 147
135 139 163
134 140 164
131 145 168
129 146 169
128 146 169
128 145 168
127 145 167
128 145 167
126 144 165
124 141 162
124 141 162
123 139 160
110 143 157
83 153 156
76 155 157
76 154 156
76 155 157
77 157 159
78 157 159
77 157 159
78 158 160
77 155 157
77 157 158
77 158 159
76 154 155
76 154 155
79 154 155
86 151 155
110 128 144
115 130 148
111 123 143
110 121 144
110 120 144
109 118 142
107 115 140
108 117 142
109 118 144
110 119 144
113 124 148
112 122 147
118 131 154
122 137 160
127 143 165
126 143 165
125 142 164
128 145 167
126 143 166
128 146 168
128 144 167
127 143 166
129 146 169
128 145 167
128 145 167
128 145 168
129 146 168
129 146 169
125 134 154
118 112 127
118 106 119
115 98 110
115 94 105
111 87 96
111 87 96
112 86 95
112 87 95
112 86 95
113 90 100
114 95 106
116 98 110
115 101 114
117 114 131
123 135 156
79 60 68
91 64 71
132 127 142
161 161 183
163 165 189
161 164 189
161 164 189
161 164 189
161 164 188
161 164 188
162 164 187
162 163 184
138 136 150
96 90 96
90 86 95
120 129 147
117 125 141
118 125 142
115 120 135
113 117 132
112 116 131
110 114 127
110 114 128
116 120 133
148 163 185
137 154 176
134 152 174
133 149 172
132 150 173
131 147 170
132 150 173
131 147 168
130 144 163
112 122 138
104 110 123
102 107 119
99 104 115
97 102 112
96 101 110
94 100 109
92 97 106
88 92 101
88 92 100
85 88 95
84 85 93
122 126 138
127 126 137
125 119 129
122 117 125
128 116 123
128 108 112
125 103 103
129 99 96
127 99 95
127 102 98
127 104 98
123 106 103
125 107 103
125 109 105
123 106 100
98 69 44
99 69 42
96 67 40
90 64 41
87 62 41
86 63 46
81 64 53
74 67 66
71 74 79
73 77 83
78 82 89
79 83 91
85 89 98
86 92 101
88 93 102
91 96 106
95 101 112
97 104 115
100 107 119
100 106 119
102 110 124
102 110 123
102 110 124
106 115 129
104 113 128
106 116 131
107 115 131
108 118 134
105 111 121
105 107 110
101 104 97
92 100 66
89 102 53
90 105 53
84 106 47
83 108 45
81 108 45
80 108 43
78 108 41
75 106 39
74 105 38
73 101 41
77 108 64
82 113 71
90 119 87
96 124 101
101 127 113
108 130 119
106 129 116
106 129 118
106 129 121
106 130 121
104 127 124
107 129 127
109 132 136
112 133 140
116 137 151
124 140 163
124 139 163
123 139 163
122 137 162
122 137 161
123 138 163
120 136 160
119 135 160
120 136 160
119 135 160
120 135 160
140 125 149
138 129 152
137 131 155
134 137 160
129 144 167
127 144 166
126 143 165
127 144 166
127 144 165
125 141 163
125 141 162
122 138 159
112 143 157
87 151 157
78 151 154
73 148 150
73 148 151
75 152 154
74 149 151
74 151 154
76 153 154
75 150 151
75 152 153
74 150 151
73 149 150
77 150 151
81 148 151
93 148 154
113 133 150
118 132 153
116 130 150
116 130 152
113 126 147
114 127 150
111 122 145
111 122 146
112 124 147
112 124 147
115 128 151
125 134 151
145 148 161
156 158 170
156 158 172
155 157 170
146 147 159
134 139 154
126 141 162
127 143 166
127 143 166
126 143 166
127 143 166
129 146 168
128 145 167
128 144 167
129 146 169
129 146 169
124 136 156
121 121 138
118 110 125
115 105 118
114 100 113
112 94 106
112 95 107
113 94 105
112 92 103
112 94 105
112 96 107
113 99 111
114 104 117
115 109 124
115 115 131
122 135 155
80 63 71
93 79 88
128 126 140
153 153 171
155 153 172
158 156 177
162 162 184
163 163 186
159 157 177
153 150 170
149 149 168
147 147 165
137 136 150
99 96 105
83 80 88
122 132 150
121 131 150
120 129 147
118 128 145
119 128 145
117 125 142
116 124 139
120 129 145
144 160 182
134 151 173
131 148 170
131 148 170
131 148 171
129 146 169
130 147 169
130 148 171
132 148 170
130 147 168
132 145 165
114 125 141
104 111 123
102 109 121
103 108 120
100 105 116
99 105 115
95 101 111
94 100 109
90 94 102
89 91 98
94 88 94
125 119 130
123 112 119
124 107 112
127 108 114
129 106 109
130 100 99
132 96 91
129 93 87
132 94 85
133 98 90
130 100 93
129 100 92
125 103 95
122 100 92
124 104 97
101 68 39
99 68 41
96 68 43
96 69 49
94 68 47
90 68 52
87 69 58
76 68 65
71 74 79
76 80 86
78 82 90
81 85 93
83 87 96
86 90 99
89 94 103
91 97 107
93 99 109
94 100 112
95 102 113
100 106 118
101 108 120
103 111 125
102 110 123
103 112 126
105 113 127
107 115 129
104 111 125
102 109 122
102 109 121
102 106 114
95 101 91
85 99 64
82 101 48
84 104 47
80 107 43
77 107 39
74 108 35
74 108 36
72 107 34
70 107 33
70 106 32
72 103 41
82 115 61
85 118 69
92 121 80
95 122 88
103 125 103
109 128 116
108 129 114
108 128 113
111 130 114
109 129 118
111 131 122
111 131 125
113 132 130
114 132 139
119 137 148
125 140 160
126 142 166
125 141 165
126 142 166
126 142 165
125 142 165
125 141 165
125 141 164
125 141 165
126 143 167
125 142 166
145 115 140
144 115 141
141 120 145
139 125 148
132 136 159
130 144 167
127 145 167
126 144 165
126 143 165
125 143 164
125 141 162
122 138 158
115 144 160
94 147 155
84 148 153
79 146 150
73 144 147
72 144 146
73 147 149
72 146 148
72 146 148
72 146 148
73 146 148
73 146 147
76 144 146
83 146 150
91 147 154
96 144 153
114 137 155
119 134 155
119 134 155
118 133 154
116 130 152
114 127 149
113 125 147
114 126 148
111 123 145
115 126 144
146 150 161
165 168 183
165 170 186
162 169 187
161 168 187
162 168 187
164 169 187
162 165 180
148 146 156
125 129 144
125 141 163
126 143 165
127 144 167
128 144 167
126 143 166
129 146 168
128 144 167
128 145 168
126 139 161
122 124 142
119 117 133
117 111 126
115 106 121
115 104 118
113 103 116
112 100 113
113 101 113
114 101 114
115 104 118
113 106 120
115 112 127
116 115 132
117 124 141
124 138 158
82 71 82
92 87 97
118 119 133
131 129 145
133 129 146
142 140 157
142 142 161
145 144 162
142 139 157
137 135 150
134 133 148
128 128 142
123 123 138
100 99 111
84 83 93
121 133 152
122 134 153
121 132 151
121 131 150
121 131 149
120 130 147
120 130 148
145 160 180
134 151 173
132 148 170
131 147 169
130 147 169
130 147 169
130 147 169
130 147 169
131 148 170
132 149 171
130 147 169
130 146 169
125 140 159
110 119 134
109 117 131
106 114 126
103 111 123
103 110 122
99 106 117
100 107 117
96 101 110
101 98 106
111 98 104
125 108 118
122 98 102
122 92 92
118 80 76
121 81 76
130 83 75
131 86 77
133 88 78
135 87 73
134 90 76
134 90 74
133 93 79
128 94 81
123 96 85
125 103 95
108 78 55
107 77 54
104 76 54
103 77 57
103 79 62
99 78 66
96 78 67
85 80 80
78 82 89
82 86 93
82 86 93
86 91 99
89 95 104
91 97 106
93 99 108
93 99 109
97 104 115
96 102 114
98 105 116
99 106 118
101 108 120
101 108 120
104 112 125
101 109 122
103 112 125
104 112 125
103 111 125
103 111 124
105 112 126
104 111 123
90 102 92
81 100 63
75 100 42
76 104 39
73 106 35
73 108 35
70 107 31
68 108 29
69 109 30
69 109 29
70 108 35
81 112 45
86 116 53
90 120 61
94 122 70
100 124 82
103 123 94
111 126 106
113 129 111
113 129 109
114 130 112
113 131 115
115 131 117
115 132 122
115 132 128
119 135 137
124 139 148
128 143 159
127 143 164
127 143 166
127 144 167
126 142 166
127 143 166
128 145 168
127 143 166
127 143 167
127 144 167
127 144 167
150 98 126
149 101 128
148 104 131
142 116 141
139 121 145
134 135 158
128 145 167
128 145 167
128 146 168
128 146 169
127 144 166
127 144 167
121 146 165
100 145 156
92 145 153
84 143 149
82 145 150
76 141 145
74 141 144
74 142 145
74 142 145
72 138 141
75 140 143
81 144 148
82 142 147
85 139 145
93 143 152
100 140 152
115 135 154
118 132 153
118 132 153
117 130 151
115 127 148
112 123 144
111 122 143
110 120 141
111 121 136
153 158 168
167 171 186
163 169 187
159 167 187
157 166 187
157 166 187
157 166 187
159 167 187
161 167 185
161 163 178
150 147 158
124 123 134
124 140 162
125 141 163
126 142 165
126 142 164
126 142 165
128 145 168
128 145 168
128 144 166
122 131 151
120 123 141
116 115 131
115 111 126
114 109 125
112 106 121
112 105 119
112 105 119
113 106 121
115 110 125
117 116 132
116 115 132
118 122 140
119 130 149
126 141 163
83 77 89
92 89 101
99 102 116
104 104 119
106 104 119
113 112 128
117 116 134
118 120 137
120 117 133
118 117 131
115 115 129
114 114 128
106 108 123
97 98 111
90 92 104
125 138 158
123 137 157
123 136 155
123 137 156
122 134 153
122 135 153
126 138 157
133 148 169
131 147 168
129 145 167
130 146 168
130 146 169
129 145 166
128 144 166
127 144 165
129 146 169
131 147 169
129 145 166
130 146 167
130 145 166
122 137 155
111 120 135
113 123 138
110 120 134
107 115 128
105 113 126
105 113 126
108 111 122
117 104 111
122 100 105
125 79 79
142 117 128
129 91 91
125 73 63
123 66 52
126 69 53
131 70 50
131 70 47
135 76 56
138 83 62
136 86 67
135 88 70
132 94 82
127 86 68
121 95 80
112 83 64
112 84 65
112 83 63
108 82 64
106 84 71
105 86 75
103 86 78
95 92 95
89 95 103
91 97 106
93 99 109
93 99 108
95 102 112
97 105 115
96 103 114
98 105 117
100 107 117
100 108 120
104 112 125
104 112 125
103 111 124
102 110 123
104 112 125
103 111 124
104 112 125
104 113 126
104 112 125
102 110 123
100 107 119
101 108 120
88 104 93
80 103 68
72 101 43
70 104 32
69 106 29
68 108 27
66 108 25
67 110 24
66 111 24
68 111 27
77 115 40
84 116 45
90 120 52
94 122 53
98 123 63
101 124 74
108 127 91
113 127 103
114 129 102
117 131 105
115 131 109
117 131 111
116 132 114
119 133 117
121 136 126
121 136 134
127 141 146
128 142 150
127 142 159
126 143 165
127 144 166
127 144 166
126 143 165
127 143 166
127 144 167
128 145 168
128 145 168
127 145 168
155 81 113
153 87 117
153 89 118
149 96 124
143 113 138
140 124 149
133 141 164
130 148 170
130 148 170
128 146 169
129 146 169
128 145 168
124 145 166
108 144 159
98 143 155
92 142 151
88 142 150
82 140 146
81 139 145
81 139 145
82 139 144
81 139 144
82 140 145
87 143 150
88 140 147
93 139 148
100 140 152
106 139 153
118 134 155
118 132 153
115 127 148
112 121 143
107 112 134
105 108 129
104 106 128
105 106 125
137 137 148
160 160 174
163 166 183
160 167 186
158 167 187
157 166 187
156 166 187
157 166 187
158 167 187
161 168 187
161 166 182
157 158 170
140 136 144
118 121 135
126 143 165
126 142 165
127 143 166
126 142 165
127 144 167
128 144 168
126 142 165
123 135 156
120 126 145
117 120 138
116 117 134
115 115 131
116 116 133
113 112 127
115 113 129
113 111 127
115 113 130
115 117 134
119 125 144
120 128 147
122 134 154
127 142 164
86 87 100
93 92 106
97 100 115
98 100 116
99 101 117
102 105 122
103 106 123
103 106 123
104 107 123
111 113 131
115 116 133
104 106 123
105 107 124
97 98 112
107 116 132
124 138 158
124 138 158
123 137 157
122 135 155
123 136 156
123 136 156
131 143 163
136 150 171
132 147 167
130 144 165
130 145 166
129 146 167
131 146 168
130 145 166
130 146 168
129 144 166
130 146 167
130 146 167
129 145 167
129 144 164
127 142 161
112 123 139
116 126 142
114 124 139
112 122 137
112 122 137
112 119 133
118 114 124
128 110 118
130 104 108
157 124 128
136 91 88
135 82 73
137 78 66
136 79 68
142 76 59
141 77 59
143 77 55
141 77 54
141 78 53
141 81 59
143 92 74
136 92 71
132 76 45
144 121 114
117 86 66
117 88 69
114 87 68
112 87 71
112 90 77
109 89 78
108 93 88
102 102 108
101 109 120
99 107 117
100 108 118
99 106 117
103 111 123
102 110 122
104 113 125
103 112 123
103 112 124
104 113 125
104 114 126
104 113 126
104 112 125
106 115 128
106 115 128
105 114 126
106 115 127
102 110 121
104 112 124
102 109 120
100 107 117
99 105 115
82 100 85
70 99 54
68 101 42
64 103 26
65 107 24
64 108 23
64 110 22
65 110 22
65 111 22
67 112 23
80 117 28
89 119 32
93 122 36
100 125 44
102 124 52
103 123 62
111 128 84
116 129 101
119 131 104
120 132 104
119 132 105
118 131 106
119 132 110
121 134 115
124 136 120
125 137 127
128 140 140
128 141 146
127 142 156
126 142 162
126 143 166
127 144 166
128 144 167
127 144 166
127 145 167
128 145 167
128 146 169
129 146 169
158 58 96
155 67 102
155 73 106
152 84 114
148 95 123
146 109 135
137 129 153
131 147 171
130 148 171
130 147 170
130 148 171
128 146 169
127 146 168
114 144 161
106 144 157
98 142 153
95 140 151
91 139 149
87 138 147
87 139 146
87 138 145
85 137 144
91 139 147
91 139 147
92 136 145
98 137 149
103 137 151
110 138 154
119 134 156
116 126 149
111 116 140
110 111 135
105 99 125
103 95 121
102 94 120
112 101 117
139 128 144
146 138 155
149 146 164
154 156 175
159 165 184
159 167 187
159 167 187
159 167 187
160 168 187
163 169 187
165 169 186
162 163 175
149 147 156
121 113 119
122 136 157
126 142 165
126 142 164
126 142 165
125 141 164
126 142 164
127 143 165
126 141 164
122 133 153
119 126 145
119 125 144
115 118 134
115 118 136
116 120 138
115 118 135
115 118 135
116 119 137
116 122 140
119 127 146
120 132 152
124 139 161
126 141 163
109 120 138
86 85 98
93 94 108
97 99 115
99 101 117
101 103 120
101 104 120
102 104 120
101 103 120
102 105 122
102 105 121
100 103 119
100 102 118
96 97 112
123 137 158
124 138 158
125 140 160
123 137 157
123 138 158
124 138 159
124 138 158
127 139 158
132 147 166
130 144 164
130 143 163
131 144 165
132 146 166
131 146 167
132 147 168
131 146 168
130 145 168
132 147 168
130 146 166
132 147 168
130 144 164
119 130 146
115 125 141
118 130 147
118 129 145
117 128 145
116 128 144
118 125 139
127 116 127
133 110 117
139 107 111
158 126 133
142 86 75
143 82 69
142 82 69
146 81 66
145 78 62
148 78 57
147 76 52
147 78 54
147 77 50
143 79 52
144 81 56
152 106 93
143 94 74
133 96 79
119 86 64
118 87 67
117 89 71
115 88 70
114 90 75
113 94 85
111 99 97
108 111 119
106 116 129
106 115 128
106 116 129
106 116 129
111 121 135
107 117 130
108 118 132
108 119 133
108 118 132
109 119 133
109 119 133
109 120 133
107 118 131
107 117 131
106 116 128
106 116 128
105 114 126
105 113 125
104 112 123
103 111 121
99 106 116
96 103 112
77 97 76
62 94 38
63 102 29
62 105 21
62 106 21
63 107 21
63 107 21
63 108 21
63 107 21
69 109 23
82 116 28
94 121 32
100 123 35
104 126 38
105 127 43
108 125 54
109 126 72
120 132 98
120 131 99
121 131 95
121 132 102
122 134 103
122 133 109
123 134 114
125 136 119
127 139 131
129 140 134
127 140 141
127 140 148
126 141 159
124 141 162
127 144 166
126 143 165
126 143 165
126 144 166
127 144 166
127 144 167
126 143 165
158 39 84
158 42 85
157 49 89
154 62 97
153 77 108
145 101 128
140 117 141
132 144 167
130 147 171
129 147 170
130 148 171
128 146 169
129 147 170
119 144 163
110 142 158
106 142 157
98 139 151
95 138 149
94 139 149
94 138 149
93 139 149
93 136 146
95 138 148
95 136 148
101 138 151
104 137 151
109 138 155
116 139 158
117 128 151
112 115 140
107 100 127
104 91 119
103 86 115
101 80 111
99 77 106
109 84 108
120 97 120
128 110 132
132 120 140
139 132 152
149 147 166
160 164 182
163 169 187
164 169 187
165 170 187
167 171 187
169 172 186
167 167 179
149 148 157
125 119 124
109 112 126
126 142 165
124 140 162
127 143 166
126 141 163
124 139 161
126 141 164
125 140 163
123 137 158
120 131 151
119 129 148
117 123 141
116 123 142
115 121 139
116 122 141
115 122 139
116 124 142
115 123 142
117 128 147
120 133 154
123 137 158
122 136 157
122 137 158
85 85 98
86 85 98
93 94 109
95 96 112
97 98 114
97 99 115
97 99 115
97 99 115
98 99 115
97 98 113
97 99 114
94 94 109
108 119 136
124 138 158
125 140 161
123 137 158
123 138 158
122 137 157
123 137 157
125 138 158
140 154 175
120 133 149
125 136 154
129 142 160
132 144 163
132 144 163
133 148 169
135 150 171
132 146 167
132 146 167
130 143 163
133 148 169
129 144 164
127 141 161
109 119 135
113 122 138
120 132 150
120 133 151
119 131 148
119 130 147
123 126 141
133 116 126
142 111 116
145 101 102
150 100 99
154 98 89
149 89 78
152 80 63
151 79 62
151 77 58
151 80 59
154 77 53
154 77 50
152 77 48
152 77 44
148 79 48
146 80 49
147 100 85
130 81 55
120 84 61
118 84 60
117 85 64
117 89 72
116 93 80
113 94 86
114 103 102
113 117 128
112 123 137
112 123 138
113 124 140
113 125 141
112 123 138
112 123 138
114 126 141
114 125 140
112 123 138
112 124 139
112 124 139
112 123 138
112 124 138
110 122 137
110 121 136
113 124 139
110 120 134
109 119 133
106 116 129
108 118 131
105 114 126
104 114 125
83 104 87
64 101 41
61 102 23
61 103 20
62 105 21
62 105 21
61 104 20
62 105 20
62 105 20
72 109 24
88 117 30
93 118 32
101 122 35
106 126 37
108 127 39
112 129 45
113 128 62
122 132 89
122 132 94
124 132 93
125 135 100
124 134 99
125 135 103
126 136 110
129 139 119
127 137 121
128 139 131
126 139 137
125 138 143
125 141 154
124 141 161
124 141 162
125 142 164
127 144 166
126 144 166
124 141 163
126 143 166
124 142 164
153 38 83
153 38 82
155 38 82
155 40 82
154 51 89
151 76 107
145 102 128
134 138 162
129 147 170
129 147 170
129 147 170
129 147 170
129 147 170
126 147 169
118 145 164
110 141 157
106 139 155
103 138 152
101 138 151
101 137 150
100 138 151
100 138 151
100 136 150
105 139 153
106 138 153
112 140 157
117 140 159
116 129 152
111 112 136
105 96 123
102 85 114
97 68 101
95 60 96
92 47 87
91 42 83
95 48 86
98 55 90
103 66 97
110 81 108
121 100 123
134 122 142
148 144 161
165 167 183
169 172 187
170 172 187
170 171 184
168 167 179
164 163 173
146 145 153
128 123 129
100 95 102
125 141 163
123 139 161
125 141 163
123 139 160
123 137 159
124 140 161
123 138 160
123 138 159
120 132 152
118 128 147
116 125 144
115 123 142
112 119 137
112 119 137
112 119 137
113 121 139
115 125 144
116 128 147
116 129 148
117 129 148
116 129 149
116 128 148
115 127 147
83 82 95
85 84 96
87 87 100
92 92 106
89 89 103
93 94 109
92 93 107
91 91 105
91 91 104
90 89 103
95 101 116
120 133 153
121 136 156
121 135 155
123 138 158
121 136 156
123 138 159
124 138 159
126 139 158
151 165 182
99 105 116
109 116 129
115 124 140
125 136 152
125 135 153
129 143 162
128 142 162
130 144 164
129 141 160
127 140 160
128 143 162
127 142 162
129 144 165
117 129 148
117 124 139
122 135 154
122 135 153
122 136 154
121 134 152
128 127 142
137 119 129
146 109 114
149 102 103
152 99 97
158 98 94
158 88 74
156 82 65
156 81 63
159 77 54
156 76 52
156 77 50
156 76 48
156 76 43
155 76 43
151 76 41
150 81 48
142 80 50
135 78 48
120 80 50
117 81 54
116 84 61
118 88 67
116 92 79
116 98 91
115 108 111
116 121 132
116 127 143
117 129 145
116 129 146
117 129 146
116 129 145
118 129 145
115 127 144
116 129 146
116 128 145
117 130 147
114 127 143
117 130 146
117 130 146
116 129 145
114 127 143
114 127 143
115 129 145
112 125 140
113 126 142
113 126 142
110 121 136
110 123 138
90 113 101
64 100 44
60 101 21
60 101 20
61 102 20
60 101 20
61 103 20
60 102 20
61 103 20
73 108 25
91 114 31
101 121 35
105 123 37
110 127 39
110 127 39
113 128 40
116 129 52
122 130 79
124 132 88
122 131 89
126 134 90
126 134 94
127 135 98
129 137 104
128 137 110
127 137 116
128 139 122
127 137 122
126 138 134
124 139 149
122 138 158
123 140 160
123 140 161
125 143 164
124 142 163
124 142 164
124 143 165
122 142 163
148 39 90
154 38 82
153 37 81
154 38 81
153 38 80
152 51 88
144 83 110
134 129 152
129 147 170
128 147 170
129 148 171
127 145 168
128 145 168
126 144 166
121 143 163
116 142 160
110 139 156
107 137 153
106 138 153
105 138 153
104 137 151
104 135 151
105 136 151
108 137 153
111 139 156
115 139 158
117 135 155
112 115 139
102 91 118
96 69 101
92 49 88
90 35 81
89 29 78
89 27 77
89 27 77
89 27 77
88 26 76
89 28 77
91 36 80
99 60 92
110 83 108
123 105 125
143 135 151
164 163 176
167 167 179
162 159 169
158 156 165
152 149 158
142 141 149
124 120 127
99 93 100
123 138 159
125 141 163
124 139 161
123 139 160
122 136 157
122 136 157
121 134 154
120 133 153
116 128 147
117 129 149
112 121 139
110 119 137
110 119 136
107 116 132
107 115 131
109 118 135
111 121 139
111 120 137
109 119 136
108 119 137
110 121 139
110 121 139
107 116 133
106 115 132
80 82 94
75 73 84
79 78 90
83 82 94
84 83 96
82 81 94
81 80 91
76 74 86
95 102 117
113 124 144
114 126 145
119 132 151
118 131 150
119 133 152
121 134 154
123 137 158
123 138 158
123 137 156
133 144 149
82 84 89
66 66 69
86 90 98
104 113 125
111 120 133
112 121 136
118 127 142
120 128 144
120 128 145
126 136 154
126 139 158
127 143 162
123 142 160
109 114 130
133 142 161
124 139 159
124 139 158
124 139 158
124 138 156
132 126 139
144 111 117
147 102 103
154 96 92
157 95 90
161 89 78
162 88 75
162 80 60
163 77 54
161 78 55
161 78 53
160 75 46
161 74 40
161 72 34
158 73 33
157 73 33
151 75 37
145 74 35
138 75 36
121 77 44
117 81 55
117 84 61
118 90 72
118 96 85
118 100 94
119 111 113
119 126 139
122 135 153
120 134 152
121 134 152
121 134 152
119 133 150
119 132 150
119 133 151
119 132 150
120 135 153
120 133 151
120 133 151
120 134 152
121 135 153
120 134 152
119 133 150
119 133 150
119 134 152
117 131 148
115 128 145
117 130 147
117 131 148
116 130 146
90 114 102
71 104 63
63 101 42
60 100 21
58 98 19
59 100 19
60 101 20
59 100 19
58 99 19
76 105 26
96 117 33
104 121 36
106 123 37
112 125 39
114 127 41
115 128 41
118 130 45
122 129 70
125 131 76
126 132 82
125 131 82
125 132 83
127 134 88
126 133 91
124 132 96
126 135 107
125 134 110
123 132 116
124 136 129
121 135 143
121 138 156
122 139 159
123 141 161
122 140 161
121 140 160
120 140 160
120 140 160
117 138 159
139 49 121
146 36 80
150 36 79
149 36 78
152 37 79
149 37 77
143 60 90
133 121 145
128 147 170
128 147 170
128 146 169
127 146 168
126 145 167
126 145 167
125 144 166
119 142 162
117 141 160
112 137 155
110 138 155
108 136 153
109 135 152
108 135 152
107 134 150
110 134 152
116 139 158
118 138 158
111 121 143
99 88 114
92 65 96
88 35 79
86 27 75
87 26 75
87 26 75
88 26 76
88 26 76
87 26 75
87 26 75
87 26 75
87 26 75
87 27 75
89 39 79
101 68 95
114 97 114
142 138 149
150 149 159
148 146 155
148 146 154
138 135 144
133 132 140
118 117 125
96 93 101
123 138 159
123 138 159
123 137 158
121 135 155
120 134 154
118 131 152
118 131 150
116 128 147
114 125 143
111 121 139
109 119 136
105 113 129
103 111 127
102 110 126
104 113 129
103 111 126
103 110 126
101 109 125
103 111 126
101 110 126
101 108 123
98 104 119
95 101 115
94 100 114
90 95 108
82 85 97
66 67 76
57 56 67
58 57 68
60 60 76
70 71 86
88 93 110
95 101 119
102 109 130
106 116 137
112 123 143
115 127 146
116 129 149
120 133 154
121 135 155
122 136 156
123 138 158
119 131 146
97 100 104
91 93 97
86 88 91
96 102 111
76 96 99
120 139 159
100 105 147
138 150 175
123 120 122
136 133 145
112 117 103
125 154 146
127 160 157
131 132 147
132 145 166
127 141 161
126 141 161
125 140 160
126 140 159
135 122 135
146 107 112
152 99 98
157 91 84
160 88 78
162 84 70
162 80 61
167 78 56
166 77 54
166 74 45
167 74 44
164 72 39
163 70 29
162 70 28
159 70 29
158 71 30
152 71 31
148 72 32
138 72 33
120 79 51
116 81 55
117 85 62
116 87 68
117 95 84
118 103 99
119 112 116
122 131 146
122 137 155
124 138 158
121 135 154
122 137 156
122 137 155
122 137 155
122 137 156
122 136 154
122 136 155
121 136 155
121 136 155
121 136 154
121 136 155
122 137 156
121 136 155
119 134 153
121 136 154
122 137 155
120 135 154
120 135 153
119 134 152
118 134 152
94 117 108
79 108 80
70 104 60
62 99 39
58 96 27
56 95 18
58 98 19
57 96 19
57 97 19
77 106 26
96 115 33
104 120 36
110 124 39
116 127 41
117 127 41
119 129 42
121 130 43
123 130 60
126 131 69
127 132 70
123 128 70
126 131 75
123 130 82
126 133 88
126 133 93
126 134 99
123 132 108
122 133 114
122 133 120
121 136 142
118 136 154
121 139 159
119 137 156
117 138 159
118 139 159
116 137 158
116 137 157
114 137 157
127 61 155
141 39 92
145 35 78
145 35 76
148 36 76
145 35 74
143 41 76
134 116 139
126 144 166
124 143 165
126 145 167
125 145 166
124 144 166
124 143 164
124 143 164
119 139 160
118 139 158
112 135 153
112 136 153
112 135 152
108 131 148
110 135 152
110 132 150
113 134 152
114 134 153
115 130 150
96 92 114
88 57 88
85 29 74
86 25 74
85 25 74
85 25 74
86 26 74
86 26 74
87 26 74
87 26 74
86 26 74
87 26 75
86 26 74
86 26 73
85 25 72
87 34 75
97 67 91
118 110 123
133 133 143
132 130 139
129 127 135
124 121 130
120 121 130
109 110 119
97 95 105
124 140 161
123 138 160
122 136 158
122 136 157
121 135 155
120 133 153
118 130 150
115 126 145
116 127 146
112 122 140
111 121 139
110 119 136
109 118 135
110 119 136
107 116 133
105 113 129
108 117 134
108 118 134
108 117 134
106 115 132
104 113 129
104 112 128
99 106 121
94 100 115
94 100 114
88 93 106
84 89 106
78 82 99
83 87 108
83 88 108
88 95 124
94 101 130
99 107 135
105 114 143
109 119 148
112 123 150
117 130 155
118 131 156
119 133 155
122 135 156
123 138 158
124 138 159
138 153 175
110 116 123
102 106 112
101 104 110
97 99 105
93 97 101
148 169 185
155 160 205
151 139 154
142 97 93
176 159 168
164 172 164
205 222 242
205 222 245
150 159 183
125 140 160
127 142 163
127 142 163
127 143 164
127 142 162
138 120 131
150 101 102
156 92 86
159 87 76
162 81 65
165 75 50
167 74 47
167 70 37
168 70 35
168 69 33
167 69 33
169 69 28
165 67 26
166 69 27
161 68 27
157 67 27
154 69 29
149 69 30
140 71 34
122 81 58
116 86 68
115 87 69
117 91 77
116 95 84
118 104 101
120 115 120
123 132 148
125 140 160
124 139 159
124 139 159
123 138 157
123 138 157
124 139 158
123 138 158
123 138 158
124 139 158
123 139 159
123 138 157
124 139 159
125 141 161
123 138 158
123 139 158
124 139 159
121 137 156
123 138 158
123 139 159
123 138 158
123 139 158
120 136 155
97 120 114
86 113 94
76 107 76
71 103 66
64 98 48
61 97 39
56 94 22
55 92 21
57 95 19
79 104 27
102 117 36
108 119 37
114 124 40
118 127 41
121 130 43
123 130 44
122 129 43
126 133 58
128 133 72
127 132 69
125 131 71
127 132 75
127 133 77
126 132 79
127 133 86
126 133 92
127 135 102
123 132 108
122 133 120
121 136 140
118 136 154
118 137 157
118 138 159
114 135 155
112 135 155
111 134 153
111 134 154
112 136 156
111 71 183
129 50 125
138 34 74
141 34 73
141 34 73
139 33 71
136 38 73
134 110 133
125 144 166
125 144 165
122 142 163
123 142 164
121 140 161
118 138 158
118 137 157
118 138 157
114 134 153
113 133 151
111 132 149
109 130 147
109 130 146
107 128 144
107 127 143
111 129 146
110 129 146
106 117 135
89 70 96
83 32 74
83 24 71
84 25 72
83 25 72
85 25 73
85 25 73
85 25 73
85 25 73
85 25 73
85 25 73
85 25 73
85 25 73
86 26 73
85 25 73
85 25 72
86 38 76
101 86 103
115 117 127
115 115 125
110 111 120
109 110 120
111 113 124
107 109 119
98 102 114
125 140 162
125 141 163
124 139 161
124 138 160
123 138 160
122 137 158
123 137 158
117 130 149
118 131 150
116 128 147
118 131 150
116 128 148
117 128 147
116 129 148
116 127 146
116 128 147
113 125 144
114 125 144
116 129 149
115 126 146
115 127 146
112 123 142
113 124 142
112 124 143
112 124 144
110 120 144
110 122 147
111 122 153
110 121 155
111 122 155
114 126 161
111 123 159
113 125 162
114 127 163
117 129 163
118 132 166
118 132 166
122 137 167
123 137 165
125 139 163
125 140 162
125 140 161
127 143 164
132 142 150
113 119 126
108 114 121
107 111 118
105 107 114
108 98 103
155 154 162
156 134 143
162 117 118
197 201 221
208 226 251
205 225 250
199 219 246
146 163 186
128 143 165
128 143 164
129 145 166
127 143 164
129 145 166
140 123 135
149 96 95
156 87 78
161 76 56
164 73 46
166 68 31
166 66 26
167 66 25
167 66 25
166 66 25
167 67 25
165 66 25
165 66 25
165 66 25
163 66 25
158 66 26
157 67 27
150 67 28
141 71 38
119 86 73
117 90 77
116 93 82
119 97 89
116 97 89
119 104 101
119 117 123
124 135 152
125 140 160
125 140 160
124 139 158
126 141 161
126 142 162
125 140 160
124 140 160
125 141 161
124 140 160
125 142 162
124 139 159
125 141 162
125 141 161
124 140 160
125 141 161
124 140 160
125 141 161
123 140 160
126 142 163
124 140 160
125 142 162
123 139 159
106 127 131
94 118 110
84 111 92
78 107 80
71 101 67
68 100 61
66 99 56
63 97 50
61 97 42
86 107 48
104 115 41
112 121 39
116 124 41
117 125 41
122 129 43
124 130 44
126 132 45
127 132 53
129 133 66
130 135 67
130 135 67
130 135 71
130 135 72
127 133 74
128 134 85
128 135 88
126 134 96
125 133 103
122 132 112
121 136 142
118 137 157
116 136 156
113 134 154
111 134 154
113 136 157
115 138 160
122 145 171
134 158 189
100 77 201
117 60 152
132 33 76
136 33 72
138 33 71
137 33 70
133 52 81
132 108 131
123 143 165
122 141 162
119 139 160
118 138 157
118 138 157
116 136 155
114 134 152
111 131 148
110 130 147
107 126 142
107 127 143
102 121 136
105 124 139
105 125 140
105 124 139
106 125 141
109 128 145
95 101 119
82 45 78
81 24 70
81 24 70
83 25 71
83 25 71
84 25 72
84 25 71
83 25 71
84 25 72
83 25 71
84 25 72
84 25 71
84 25 72
85 25 72
85 25 72
84 25 71
84 27 71
91 67 89
105 107 118
109 111 122
108 110 121
108 110 122
108 110 121
101 103 113
117 130 150
126 142 164
125 141 163
125 141 163
126 141 163
125 141 163
125 140 161
123 138 159
125 139 160
122 136 157
123 138 159
122 136 158
121 135 156
124 138 160
122 136 157
121 135 156
121 136 157
120 134 155
121 135 156
121 135 156
122 137 158
122 136 157
121 136 157
121 135 157
120 134 156
120 134 161
118 132 161
117 131 164
118 132 166
118 132 169
117 131 173
117 132 174
120 134 177
118 132 176
120 134 177
120 135 175
121 136 176
122 137 174
122 138 175
123 138 172
124 139 170
127 142 167
126 142 165
128 144 166
133 148 169
142 146 154
118 124 133
103 107 113
109 114 122
113 114 121
134 119 118
165 177 201
199 212 237
203 223 250
202 223 251
196 218 247
161 181 207
128 144 165
129 144 166
129 145 167
128 144 166
128 144 165
128 144 164
139 118 129
149 90 86
158 76 57
162 68 35
163 65 25
164 65 25
163 65 24
166 66 25
163 65 25
163 65 25
164 65 25
164 65 25
162 65 24
161 65 24
163 65 25
161 65 25
156 64 25
150 64 26
143 75 52
119 89 80
114 92 84
116 94 85
116 99 93
117 104 103
118 106 106
121 117 124
126 137 155
126 142 163
127 143 163
126 142 162
126 142 163
126 142 163
127 143 165
126 142 163
126 142 162
127 143 164
126 142 163
126 142 163
125 141 161
125 141 162
125 141 162
126 142 163
125 142 162
124 140 161
125 141 162
126 142 163
125 142 163
125 141 161
124 141 161
110 130 138
99 121 120
91 116 107
83 110 91
77 106 80
75 104 77
72 102 72
71 101 70
69 100 63
94 111 67
105 116 53
114 121 41
117 123 41
122 127 43
126 130 45
129 133 46
128 132 46
129 133 51
130 133 59
132 135 60
131 134 60
131 135 64
130 135 68
128 133 71
127 133 80
128 134 83
127 134 93
126 133 96
123 132 111
119 135 144
114 135 154
114 135 156
111 134 154
111 134 154
128 150 178
140 165 199
146 173 212
147 175 217
98 77 203
104 66 170
127 34 81
131 32 70
131 32 68
132 39 72
129 69 95
129 114 136
124 143 164
123 143 164
122 141 162
120 140 160
117 137 156
119 138 158
116 135 154
114 133 151
113 133 151
112 130 148
111 130 147
112 132 149
110 129 147
110 130 147
111 130 148
114 134 153
113 132 150
95 92 113
80 29 70
79 23 68
81 24 70
80 24 69
80 24 69
82 24 70
82 24 70
82 24 70
83 25 71
82 24 70
82 24 70
83 25 71
83 25 70
82 24 70
83 25 70
82 24 69
84 25 70
86 51 79
104 105 116
105 107 117
105 107 118
106 108 118
104 105 115
98 102 114
126 142 164
127 143 166
126 142 164
127 143 165
126 142 165
126 142 164
127 143 166
124 140 162
127 143 166
125 141 163
124 140 162
125 140 162
126 142 164
124 140 162
126 141 163
125 141 163
124 139 161
126 142 164
126 142 165
125 140 162
126 141 164
125 140 162
123 139 161
125 140 164
123 138 164
124 139 169
122 137 174
122 137 176
121 136 178
121 136 180
120 135 179
120 135 183
120 135 183
120 134 183
121 136 186
122 137 185
122 137 183
123 139 182
124 139 181
125 140 177
125 141 175
126 141 174
127 143 168
129 145 168
129 145 167
134 150 172
156 165 179
147 149 157
135 134 138
147 146 151
173 176 179
191 209 233
197 220 250
194 217 248
186 209 240
149 168 193
129 145 166
130 147 169
129 145 167
129 146 167
129 145 166
128 144 165
129 144 166
139 118 128
151 85 78
159 66 34
160 64 26
161 64 24
162 64 24
161 64 24
161 64 24
161 64 24
161 64 24
161 64 24
160 63 24
161 64 24
161 64 24
160 64 24
159 63 24
157 63 24
153 66 34
142 82 69
119 93 86
114 96 91
115 99 97
117 104 104
118 105 104
120 111 114
121 117 123
125 136 154
127 144 165
127 144 165
126 142 163
126 142 163
128 144 166
128 144 165
127 144 165
127 144 165
126 142 163
127 143 164
127 144 165
127 144 165
126 142 163
127 144 165
126 143 165
126 143 164
126 143 164
126 142 163
126 143 164
126 142 163
125 142 163
125 142 163
115 133 146
103 124 126
96 119 116
90 113 105
86 111 99
83 108 93
80 106 90
80 107 88
77 104 82
98 115 84
111 120 68
118 124 49
121 124 44
124 128 44
126 129 45
129 131 46
130 133 47
128 131 47
128 131 49
129 132 50
132 134 52
128 132 55
127 130 54
127 131 62
127 131 66
128 133 78
126 132 80
126 132 93
124 134 115
118 135 145
114 136 156
108 131 150
109 132 153
127 148 174
138 163 198
141 170 211
137 169 211
134 168 211
99 76 200
96 71 184
122 34 80
123 30 66
129 33 68
126 60 86
124 86 109
126 126 147
123 142 164
124 142 164
122 141 162
122 140 161
123 142 164
120 139 159
121 140 161
119 138 158
117 137 156
118 137 156
118 137 157
117 136 155
116 136 155
118 138 158
118 137 157
118 138 158
119 137 157
93 83 106
78 23 67
78 23 67
78 23 67
80 24 68
80 24 68
79 23 68
79 24 67
80 24 69
81 24 69
81 24 69
80 24 68
81 24 69
81 24 68
81 24 68
81 24 68
82 24 69
80 24 67
82 39 71
99 98 108
101 102 112
102 102 112
101 101 110
95 96 105
120 134 155
125 141 163
126 142 164
125 141 163
126 142 165
127 144 166
127 143 165
127 144 166
126 142 165
125 141 163
126 142 164
127 143 166
126 142 165
127 143 166
127 143 165
127 144 167
128 144 167
127 143 166
128 144 167
127 144 167
126 143 166
127 144 166
127 143 165
127 143 166
126 142 168
125 141 171
125 141 175
124 139 182
123 139 181
123 138 187
122 137 185
121 137 186
122 137 191
120 136 191
121 136 191
122 138 187
122 137 189
121 136 188
122 138 188
123 138 184
124 140 184
126 142 180
126 142 176
127 142 174
128 144 168
129 146 168
128 145 167
127 144 167
136 154 177
151 167 188
160 174 193
167 186 209
180 206 239
174 199 232
151 173 201
130 147 170
128 144 166
130 146 169
129 146 167
129 145 167
129 145 167
129 145 167
129 146 167
130 146 167
140 119 130
152 86 77
156 69 44
158 62 24
160 63 24
159 62 24
158 63 24
159 63 24
161 64 24
160 64 24
158 63 24
158 63 24
156 62 24
156 62 24
156 62 23
154 61 23
154 62 27
153 71 50
140 87 81
119 98 98
116 102 102
116 105 107
116 106 108
119 112 117
120 117 124
122 122 132
126 138 156
128 145 166
128 144 166
128 145 166
127 143 164
128 145 167
127 144 166
127 144 166
127 144 165
127 143 165
128 145 167
127 144 165
127 144 165
126 143 164
126 143 164
126 143 164
126 143 163
126 143 164
125 142 163
126 143 164
127 145 166
125 142 163
125 142 163
122 140 157
112 131 141
104 125 130
96 118 115
92 115 111
88 111 102
87 112 102
84 109 98
89 112 102
102 118 92
114 122 75
119 125 65
124 126 52
125 127 46
129 130 46
129 130 46
128 130 46
129 131 46
128 130 46
128 130 46
129 132 47
127 130 46
128 131 48
128 131 50
128 132 59
126 130 65
126 131 76
124 131 91
122 133 119
116 134 144
111 134 155
101 124 142
113 134 152
129 155 187
139 169 208
135 168 210
129 164 206
129 164 208
99 74 195
93 70 184
113 37 90
121 38 69
122 58 84
123 77 100
124 100 122
126 132 154
124 143 165
125 143 165
124 143 166
122 141 162
124 142 164
121 140 161
122 141 162
123 141 162
123 142 164
122 141 162
123 142 163
122 141 162
123 142 164
123 142 164
123 141 163
123 141 163
122 140 161
94 85 109
75 22 65
77 22 66
77 23 66
78 23 66
78 23 67
79 23 67
79 24 68
79 23 67
80 24 68
79 23 67
79 23 67
78 23 67
79 23 67
79 23 67
80 24 67
79 23 66
79 23 65
79 44 71
93 91 99
93 92 100
95 93 101
90 91 99
113 126 144
121 135 156
124 140 161
123 138 159
124 139 161
125 141 163
126 141 163
124 140 161
126 142 164
127 143 165
126 142 164
126 143 165
127 143 166
128 144 167
129 145 168
128 144 167
126 143 165
128 144 167
127 143 165
128 145 168
129 145 168
127 144 166
128 145 168
128 145 168
128 144 169
126 143 173
125 141 179
123 139 179
121 138 185
123 139 186
121 137 187
121 137 191
121 137 193
120 135 194
121 137 194
120 136 196
121 136 195
122 137 193
121 137 194
122 138 193
124 140 189
124 140 186
124 140 185
128 144 183
127 142 178
128 145 174
130 148 173
130 147 171
129 147 171
128 146 170
125 144 169
125 145 171
124 145 171
125 145 171
124 143 168
125 143 168
127 144 168
128 146 169
129 146 169
130 147 169
130 147 169
130 147 169
130 146 168
130 146 168
129 145 166
140 121 132
148 89 85
154 76 60
153 64 36
154 61 25
154 61 23
157 62 23
154 61 23
154 61 23
155 62 23
155 62 23
156 62 23
154 61 23
150 60 23
153 61 23
153 62 28
150 67 44
148 83 75
142 96 94
117 101 104
116 105 108
118 109 113
117 111 116
119 115 122
121 118 125
122 124 136
126 140 159
128 145 167
128 145 167
129 145 167
127 144 165
128 145 166
127 144 165
127 144 165
127 145 166
126 143 165
128 145 167
127 144 165
127 144 165
125 142 163
127 144 166
126 144 165
126 143 164
127 144 165
126 143 164
125 142 163
126 144 165
126 143 163
125 142 163
124 141 160
113 132 144
110 129 139
102 122 127
98 119 120
96 118 117
93 115 111
91 114 108
93 115 111
106 121 100
117 124 86
123 126 74
125 128 67
126 128 58
126 128 47
127 128 45
126 128 45
125 127 45
127 129 45
126 129 45
126 129 46
127 130 46
125 128 45
126 129 46
125 128 47
126 129 59
125 129 75
123 130 89
121 133 117
115 134 145
105 128 146
94 119 127
127 152 179
137 166 204
137 168 208
129 163 203
128 163 205
125 161 203
101 69 187
93 67 175
109 46 92
119 59 84
124 78 101
122 96 118
123 114 136
126 139 161
126 144 167
125 143 165
126 144 166
126 144 167
127 146 168
126 144 166
126 143 166
125 143 165
125 143 165
125 143 166
125 143 165
124 142 164
125 142 165
124 141 163
124 142 164
124 141 163
125 143 165
101 99 121
74 24 64
73 21 63
75 22 65
76 22 65
76 23 65
76 23 65
76 23 65
78 23 66
77 23 65
77 23 65
77 23 66
77 23 65
78 23 66
77 23 65
76 22 64
76 22 64
76 23 63
77 50 71
84 80 86
81 79 85
86 89 98
110 121 137
114 126 144
116 129 147
118 132 151
119 134 154
121 135 155
122 137 158
124 139 161
125 141 163
126 142 164
127 144 166
126 142 165
127 143 166
127 144 166
127 144 166
127 144 166
128 144 167
128 145 168
129 146 169
128 145 168
128 145 168
128 145 168
128 145 168
129 146 169
130 147 170
127 144 171
126 142 176
125 141 184
124 140 184
123 139 186
122 138 191
120 135 190
121 137 196
121 137 197
121 136 196
121 137 197
120 136 198
121 136 197
119 134 200
121 137 197
121 137 195
122 137 194
123 138 194
124 140 189
125 141 187
128 144 183
128 145 179
130 147 174
131 148 172
131 148 171
134 150 172
137 152 173
140 154 174
135 149 169
132 147 167
131 147 169
130 148 172
130 148 172
130 147 169
130 147 170
131 147 170
130 147 169
130 146 168
131 147 170
131 147 169
131 147 169
139 121 134
148 96 96
148 83 75
152 76 62
151 66 41
151 62 32
152 61 26
153 60 23
152 60 23
153 60 23
151 60 23
151 60 22
150 60 22
152 61 24
152 64 36
150 70 50
146 76 64
147 87 82
142 104 107
119 109 115
115 108 114
116 112 119
118 115 121
118 119 128
121 124 135
124 128 141
127 141 161
128 145 166
129 146 167
127 145 166
127 145 166
127 144 166
127 144 166
128 145 167
127 144 165
128 145 167
128 145 166
127 144 165
126 144 165
127 144 165
126 143 164
128 145 166
125 143 163
126 144 165
126 143 164
127 144 166
125 142 162
126 143 164
125 142 163
124 142 162
120 138 156
115 134 148
110 129 139
103 123 130
102 122 127
101 121 126
99 120 122
95 116 115
110 123 111
121 128 95
127 131 85
127 130 74
127 129 68
125 127 62
123 125 50
123 125 47
122 124 46
122 124 45
123 125 45
122 125 44
122 125 46
122 125 47
120 123 47
124 127 57
124 128 63
124 129 77
125 132 95
118 130 115
110 130 142
86 111 120
109 136 151
137 164 197
135 165 202
130 162 198
127 160 198
122 157 196
122 158 198
100 66 179
95 66 166
112 63 103
117 82 104
121 92 114
122 109 131
126 126 149
124 140 162
127 143 166
126 143 166
126 144 166
127 144 167
126 143 166
126 143 166
126 144 166
126 143 166
126 144 166
127 144 167
125 143 165
126 144 166
126 143 165
124 141 163
126 143 165
125 142 165
125 141 164
107 113 135
75 41 71
72 21 62
74 22 63
72 21 62
74 22 63
73 21 62
75 22 63
74 22 63
75 22 64
75 22 64
75 22 64
75 22 63
74 22 63
75 22 63
74 22 63
74 22 62
72 25 61
66 45 62
72 73 80
86 91 101
95 101 113
100 108 121
106 116 131
110 120 136
113 125 142
117 130 149
119 132 152
120 134 154
124 139 161
124 139 161
126 142 164
125 141 163
126 142 165
126 142 165
129 146 168
127 144 166
128 145 168
128 144 167
127 143 165
128 145 168
129 146 169
129 146 169
130 147 170
129 146 170
130 147 171
129 146 171
127 143 175
125 142 181
124 140 185
122 138 189
121 137 192
120 136 194
121 136 194
120 135 200
120 136 199
119 134 203
119 134 203
119 135 202
120 135 201
119 135 201
121 137 201
120 135 198
121 137 199
121 136 197
123 138 191
122 137 187
124 139 182
125 139 176
126 141 169
135 147 167
152 161 174
169 178 192
178 188 203
180 191 206
179 189 204
171 180 193
163 170 182
147 153 167
136 147 166
132 148 169
132 149 171
131 148 170
132 149 171
132 148 170
131 147 169
130 147 169
131 146 168
139 122 135
144 101 104
145 90 88
149 83 76
148 76 63
147 67 48
148 67 46
150 62 32
148 62 34
151 61 28
147 60 29
149 61 31
146 64 38
148 69 49
147 74 60
145 79 69
143 87 82
143 96 96
139 107 114
118 110 118
116 112 120
119 117 126
119 119 128
119 120 130
121 124 137
124 132 148
126 141 161
129 146 168
129 147 169
129 146 168
128 144 166
128 145 167
128 145 166
128 144 166
128 145 167
127 145 166
127 144 165
126 144 165
126 143 165
126 143 163
126 143 165
126 143 163
125 142 163
124 142 162
124 141 162
124 141 162
124 142 162
124 141 161
124 141 161
123 139 159
122 139 158
116 134 150
112 131 144
107 127 136
105 124 132
105 124 133
102 121 127
101 120 124
114 126 116
123 128 97
125 130 95
123 127 82
124 128 75
124 127 67
123 126 65
121 124 60
122 125 56
122 125 52
122 125 54
119 122 54
122 125 55
120 124 58
121 124 58
121 125 62
124 129 72
123 129 81
123 131 95
115 129 114
105 126 135
75 107 107
127 152 177
134 162 194
125 153 178
118 148 170
117 149 178
122 156 192
119 155 192
99 63 171
100 70 159
114 82 116
119 97 119
119 104 126
122 117 139
126 136 158
127 144 167
127 143 166
126 142 165
126 142 165
126 142 164
126 143 166
126 143 165
127 144 167
128 144 167
126 142 164
127 144 167
126 142 164
125 141 164
127 144 167
126 143 165
126 143 166
125 142 165
125 142 164
117 128 150
83 68 91
71 27 63
71 21 61
71 21 60
72 21 61
72 21 61
74 22 63
73 22 62
73 22 62
73 22 62
73 22 62
73 22 62
73 22 62
73 22 61
72 21 60
71 24 61
72 42 66
74 65 78
79 81 90
88 91 102
95 100 112
103 112 126
107 116 132
113 124 141
114 126 144
118 130 149
122 136 156
123 138 159
123 137 158
125 140 162
125 141 162
126 142 164
127 144 166
127 143 165
129 146 168
128 146 165
129 150 165
132 155 168
132 154 167
129 151 164
130 151 166
129 147 166
128 146 167
130 147 170
129 146 170
128 144 171
127 143 179
124 140 184
123 139 187
121 136 194
120 136 195
119 135 196
119 134 199
118 134 203
117 133 200
118 134 205
118 134 204
118 134 205
117 133 203
118 133 205
118 133 197
118 134 201
119 134 198
119 134 196
119 134 195
120 136 188
123 139 188
128 141 182
148 157 183
180 190 206
192 204 220
191 206 225
189 206 226
188 205 226
187 204 225
188 204 224
187 201 219
183 192 207
168 169 180
147 148 160
132 144 164
131 147 169
132 148 170
130 147 169
131 148 170
132 148 171
130 146 167
135 126 140
141 110 118
143 98 100
144 89 87
145 85 80
143 80 72
144 75 64
146 73 59
147 69 50
144 70 54
144 68 50
144 71 56
142 73 60
143 77 67
143 84 78
144 90 87
143 95 95
141 104 108
140 114 122
119 115 125
117 117 128
119 121 133
119 121 133
121 127 141
120 126 140
124 134 151
128 144 165
128 146 168
129 146 168
128 145 166
127 144 166
128 145 166
127 144 165
126 143 164
127 145 167
126 144 165
125 142 163
126 143 165
127 144 166
124 141 162
125 142 163
125 142 163
124 141 161
124 141 161
122 139 159
123 140 159
121 138 157
121 139 158
121 138 158
122 138 157
119 136 155
119 136 154
116 133 150
112 130 143
108 126 137
109 127 136
106 124 134
106 124 131
117 127 117
124 131 109
124 130 96
124 130 93
125 129 81
121 126 81
120 124 71
121 124 69
122 126 67
122 126 68
121 125 64
121 125 66
119 123 65
120 126 73
121 126 75
123 128 74
121 127 81
124 130 90
120 128 96
114 128 112
91 116 124
89 118 130
127 152 180
122 147 168
101 128 129
101 130 135
109 140 157
117 150 180
120 154 188
103 60 166
107 76 151
115 90 120
118 107 130
122 118 140
124 130 152
125 139 161
125 140 163
125 139 161
125 141 164
127 142 165
127 142 165
125 140 163
125 139 162
126 141 163
125 141 164
127 143 165
126 142 164
125 141 164
125 141 164
126 142 165
127 143 166
127 143 166
126 142 166
125 141 164
123 138 160
100 101 123
77 54 79
69 27 61
69 20 59
70 21 60
70 21 59
70 21 60
70 21 60
71 21 60
71 21 60
71 21 60
70 21 59
70 21 59
69 20 58
70 26 61
77 50 76
86 76 95
99 103 119
103 110 125
107 117 133
108 117 133
113 124 143
116 128 147
118 130 149
121 134 154
120 134 155
123 136 157
123 138 159
126 141 163
125 141 163
128 144 167
126 142 164
126 142 164
129 149 166
136 162 171
144 176 182
147 182 188
148 185 191
148 185 192
146 182 188
142 175 181
138 168 173
127 151 159
128 147 164
129 146 168
127 143 174
126 142 178
122 137 185
121 137 189
120 136 193
119 134 196
117 132 198
116 131 201
116 131 204
117 132 204
116 131 208
117 132 206
116 131 209
117 132 203
116 131 206
118 134 203
117 132 203
117 132 203
117 133 200
120 135 198
119 135 195
125 138 191
152 161 197
179 188 217
191 205 227
190 206 227
186 205 227
184 203 227
183 203 227
182 203 227
184 204 227
186 204 227
189 205 226
189 199 216
177 176 187
153 145 154
132 141 160
130 147 169
131 147 170
129 146 168
130 146 169
130 146 168
134 129 145
139 114 124
140 104 110
139 99 103
140 89 89
141 90 89
139 84 81
143 83 77
140 79 72
142 77 68
141 78 71
142 77 67
139 80 73
140 86 83
140 91 90
140 94 94
139 100 104
136 110 119
134 119 131
119 119 131
119 121 134
118 121 134
120 125 139
122 130 145
122 132 148
126 139 158
128 144 165
127 144 165
127 144 166
128 145 167
126 143 165
126 143 165
127 144 165
128 145 167
127 145 166
127 144 165
126 143 164
125 142 163
126 143 165
125 142 163
123 140 160
124 141 161
122 140 159
123 140 159
121 138 158
122 139 158
120 136 155
122 138 157
119 135 154
119 135 154
118 135 152
116 132 149
117 133 151
114 131 146
110 126 140
109 126 138
108 125 137
108 125 135
118 128 119
122 131 113
122 129 103
123 128 92
120 125 86
120 125 82
119 124 80
119 123 75
121 126 78
119 124 75
121 126 76
119 124 78
121 126 76
119 125 79
119 124 80
120 126 85
122 129 92
122 129 99
122 131 106
112 127 110
84 109 120
89 119 136
110 136 160
95 123 129
84 113 103
87 116 108
93 124 128
108 142 166
116 149 180
104 63 159
114 84 144
117 99 128
118 113 135
121 126 148
123 135 158
124 137 160
125 138 161
123 137 159
123 136 159
124 137 159
125 139 161
126 140 163
124 138 160
124 138 161
125 140 163
125 140 163
126 141 164
126 141 164
126 142 164
125 141 164
125 140 162
126 141 164
125 141 164
124 140 163
126 141 165
111 120 141
91 83 105
78 58 82
68 28 61
67 20 57
66 19 57
67 20 58
68 20 58
67 20 57
69 20 59
69 20 58
67 20 57
70 22 59
70 33 63
77 53 78
89 81 102
104 108 128
114 126 145
114 126 145
119 132 152
118 131 151
119 133 154
121 135 156
121 135 156
123 138 159
125 140 162
125 140 162
125 140 162
128 144 167
127 142 165
126 142 165
128 144 165
131 154 164
146 179 184
150 187 192
148 187 195
145 185 196
143 184 196
143 184 196
143 184 195
145 185 195
146 185 193
144 179 184
133 161 164
122 143 153
124 141 170
124 141 182
122 137 187
118 133 190
119 135 196
118 133 200
118 133 202
116 131 201
116 131 207
116 131 208
114 129 208
115 130 210
115 130 210
115 130 207
114 128 212
116 131 207
116 131 205
116 130 205
116 132 203
119 134 200
120 135 194
142 151 201
174 183 221
182 195 228
186 202 228
186 204 227
183 203 227
181 202 227
180 202 227
180 202 227
181 202 227
183 203 227
186 205 227
190 206 227
194 203 219
182 177 187
148 134 141
130 140 160
130 146 169
130 146 168
130 147 169
129 145 166
132 135 154
134 120 133
137 111 120
138 105 112
138 97 101
139 95 98
138 87 86
136 87 85
138 89 88
137 84 81
138 90 91
139 88 86
139 89 89
137 93 95
136 93 95
137 102 108
135 108 116
135 116 127
129 121 135
119 121 134
119 123 136
119 125 140
121 129 144
123 133 149
124 134 152
125 139 159
128 145 167
128 145 166
128 145 166
128 145 166
127 144 166
127 144 166
127 143 165
125 142 163
126 142 163
126 143 164
126 143 164
126 143 164
124 141 161
124 141 161
124 140 160
123 141 161
123 140 160
121 138 158
123 139 158
121 138 156
118 135 153
119 135 153
117 133 151
115 132 148
114 131 147
114 130 146
111 127 142
110 125 139
111 127 141
108 124 137
105 121 133
107 122 132
116 127 122
121 129 112
118 125 102
119 126 101
117 124 94
120 126 90
117 122 84
119 126 87
118 123 83
118 124 82
118 124 83
119 125 83
118 124 84
119 125 83
118 125 89
120 127 94
119 127 98
120 128 100
119 130 115
105 122 111
83 110 121
82 112 132
89 119 139
79 109 112
75 106 98
76 109 102
82 115 114
99 133 153
108 143 170
113 73 153
120 91 137
119 106 135
119 121 144
119 128 149
121 131 153
121 132 154
122 134 156
121 133 154
123 134 156
123 136 158
122 135 158
123 136 158
125 139 162
125 139 162
124 139 162
125 139 162
124 137 161
125 141 164
125 140 163
126 141 164
125 141 164
126 141 164
126 141 165
123 139 162
125 139 163
122 136 159
104 107 129
90 85 107
83 69 92
73 47 73
68 30 62
66 23 58
65 20 56
65 21 56
66 21 56
67 25 58
69 33 63
73 46 72
81 66 88
93 89 110
102 104 124
117 129 150
118 132 153
119 133 154
121 135 156
122 137 159
122 136 158
122 138 160
124 139 161
124 139 161
125 140 163
125 141 164
126 142 165
128 144 167
127 144 167
126 143 163
133 157 165
148 182 186
150 188 195
146 186 196
143 184 196
140 183 196
139 182 196
139 182 196
140 182 196
141 183 196
143 184 195
146 185 194
145 181 187
137 167 171
117 137 159
119 135 178
120 136 190
118 133 195
117 132 198
115 130 200
114 128 201
114 129 207
114 128 207
114 129 211
113 128 211
113 128 209
113 128 209
114 129 212
113 127 212
114 129 209
113 127 207
114 129 206
116 131 205
116 131 202
126 136 197
159 168 216
172 183 227
175 189 227
183 200 227
185 204 227
183 203 227
181 202 227
180 202 227
180 202 227
181 202 227
183 203 227
186 205 227
190 206 227
195 209 227
193 199 212
174 162 168
134 123 133
130 144 165
129 145 167
128 144 166
129 145 167
130 138 158
132 124 138
132 117 130
134 112 123
133 105 113
135 101 106
136 97 101
134 97 101
134 91 93
134 93 96
135 93 95
134 92 94
135 97 100
133 99 104
133 102 109
136 105 112
132 113 123
131 120 132
126 125 140
119 126 141
120 127 142
121 129 145
122 132 149
123 135 153
123 136 155
127 142 162
127 143 164
126 143 164
126 142 164
128 145 167
127 143 164
126 143 164
126 143 164
126 143 164
127 143 164
126 143 164
126 143 163
126 143 164
125 142 162
124 141 162
124 141 162
121 138 156
123 139 159
122 139 159
121 138 156
119 136 154
118 134 152
118 135 152
116 132 149
115 132 148
114 130 146
110 125 139
107 123 136
107 122 135
105 120 132
104 119 131
104 118 130
104 118 127
114 125 122
117 125 113
115 124 106
118 126 107
117 123 98
116 123 94
116 123 93
117 123 91
117 123 89
117 124 91
116 123 91
115 122 88
117 124 92
118 125 92
118 125 95
117 126 101
119 128 104
121 130 111
118 129 116
106 125 117
82 110 124
79 112 133
79 113 133
67 103 110
64 102 102
67 105 106
73 111 115
83 120 137
87 127 150
117 81 141
118 88 128
117 107 136
114 117 138
115 122 142
117 126 146
116 125 146
117 125 147
119 129 151
120 131 153
121 132 155
122 133 156
123 136 158
122 135 158
123 136 159
124 138 161
124 138 161
124 138 161
124 137 161
123 137 160
126 141 164
124 139 163
125 141 164
125 141 164
122 137 160
124 139 163
123 138 161
115 127 149
104 108 130
96 96 117
87 82 103
81 69 91
76 58 82
72 51 74
71 46 71
75 56 79
77 60 83
80 67 89
86 77 99
95 95 116
103 108 129
112 122 143
119 133 154
119 133 154
120 134 156
121 136 158
121 136 158
123 139 161
124 139 161
125 140 163
126 141 163
126 141 164
125 141 164
125 141 163
126 142 166
125 142 163
127 148 158
147 178 182
152 189 195
147 187 196
143 184 196
140 183 196
139 182 196
138 181 196
137 181 196
138 181 196
139 182 196
141 183 196
144 185 196
147 186 194
146 182 189
129 155 174
107 124 163
115 129 186
116 131 196
117 132 201
113 127 207
114 128 206
112 126 209
112 126 209
112 126 211
111 125 213
113 127 211
110 125 214
110 125 214
113 128 210
112 127 214
113 128 211
112 127 209
114 129 207
118 131 201
136 143 207
157 166 221
165 176 226
172 186 226
181 197 226
187 204 227
185 204 227
183 203 227
183 203 227
183 203 227
183 203 227
185 204 227
188 205 227
190 207 227
195 209 227
197 207 222
184 184 193
152 131 134
129 133 150
130 145 166
129 144 166
129 144 166
128 141 163
130 131 148
131 123 138
130 114 126
132 111 121
132 108 117
132 103 111
132 101 108
132 101 108
135 98 102
134 100 106
132 99 104
131 103 110
132 104 111
131 108 117
131 110 120
130 116 128
128 124 140
124 126 142
119 127 143
119 127 143
122 132 148
122 133 151
122 135 153
125 139 159
125 141 161
127 143 165
126 142 164
127 143 164
126 143 164
125 141 162
127 144 166
127 144 165
125 142 163
125 142 162
125 142 163
126 143 164
125 142 162
125 141 162
125 142 163
123 140 159
123 140 159
121 138 158
122 139 158
120 137 156
119 135 154
119 135 153
118 134 152
116 133 150
114 131 146
114 130 146
112 128 142
110 125 139
109 124 138
107 122 135
102 117 128
104 118 130
105 119 129
111 122 121
113 124 116
117 126 115
116 124 107
115 123 104
117 125 102
116 123 98
117 124 96
116 123 94
118 125 96
113 121 97
116 125 99
115 123 95
116 125 103
116 124 102
118 128 109
118 127 111
120 130 116
117 130 120
105 125 123
85 115 132
74 109 130
73 111 132
67 105 119
61 100 106
63 104 109
67 108 118
69 111 128
67 112 133
117 75 127
116 82 123
111 98 126
110 111 132
110 114 133
109 115 135
114 121 141
114 121 142
116 124 145
117 128 150
120 130 152
119 130 153
121 132 155
121 132 154
121 134 157
123 135 159
122 136 159
123 138 161
123 138 161
124 139 162
123 137 160
122 136 159
123 137 160
123 137 160
121 136 158
123 137 160
120 135 158
121 136 159
113 125 146
105 112 134
99 103 124
94 93 114
88 84 104
87 81 102
82 74 94
87 83 103
89 85 106
93 92 113
95 98 118
103 109 129
108 118 138
117 131 153
116 129 151
119 133 155
118 132 154
122 137 159
120 134 156
122 136 159
121 136 158
125 140 163
124 139 161
125 141 164
126 142 165
127 144 167
125 142 164
122 139 154
138 164 169
152 187 192
150 188 195
146 186 196
143 184 196
141 183 196
139 182 196
138 181 196
138 181 196
138 182 196
140 182 196
141 183 196
144 185 196
147 187 196
149 187 195
139 169 185
113 133 175
107 122 182
115 130 195
112 127 198
113 127 204
112 127 208
110 124 210
112 126 211
111 125 212
109 123 212
111 125 214
110 124 216
109 123 216
109 123 214
109 123 216
111 125 213
111 125 213
113 127 210
116 126 198
138 145 210
152 161 218
160 172 226
172 184 226
182 196 225
189 205 227
189 206 227
187 205 227
186 205 227
187 205 227
187 205 227
189 206 227
191 207 227
193 208 227
197 210 227
197 208 222
186 193 202
163 153 158
129 120 131
128 142 164
128 142 163
127 142 164
127 141 162
128 136 155
129 126 142
128 119 133
129 115 127
129 112 123
129 105 114
132 111 121
131 106 114
131 104 112
129 103 111
128 107 117
129 106 115
131 109 119
128 112 124
128 116 129
128 122 137
126 127 143
119 126 143
119 130 147
120 130 147
123 134 152
122 135 153
122 135 154
124 139 159
125 140 161
125 141 163
126 143 164
126 142 164
127 143 164
126 142 163
128 145 166
124 141 161
125 141 161
126 143 164
127 144 166
126 142 163
125 141 162
125 142 162
123 140 160
124 141 161
124 141 161
124 141 161
124 141 161
124 141 161
121 138 156
121 138 157
120 137 155
119 136 154
118 134 152
119 135 152
115 132 148
114 130 145
113 129 145
109 125 139
110 126 141
110 125 139
110 125 138
113 126 132
115 126 124
115 125 119
116 126 117
116 125 110
117 125 106
115 123 107
115 124 105
115 123 100
115 123 104
114 122 101
114 122 102
114 123 105
116 125 108
115 125 108
114 124 113
118 128 116
119 131 122
114 128 127
101 122 126
85 116 133
71 108 129
70 109 129
67 105 121
60 102 114
59 104 116
62 107 122
63 110 130
63 111 130
114 67 117
112 76 118
109 91 122
105 104 125
107 112 133
110 115 135
110 116 137
111 117 138
115 124 146
117 127 149
117 128 151
118 130 152
120 133 156
120 133 157
121 134 157
121 133 157
124 138 162
122 135 159
121 135 158
121 135 158
121 135 158
122 136 159
121 135 158
120 134 158
120 134 157
119 132 155
118 132 155
117 129 151
118 130 152
111 122 144
104 113 133
96 99 119
97 101 121
92 93 112
92 93 112
93 95 114
94 97 116
97 102 120
101 108 126
106 116 135
111 122 142
111 123 143
113 125 145
115 127 148
117 131 152
119 132 154
121 135 156
120 134 156
123 137 160
125 140 162
123 139 161
125 141 164
126 142 164
126 141 164
123 138 158
125 145 153
147 178 183
152 189 194
150 188 196
147 186 196
144 185 196
142 184 196
141 183 196
140 182 196
140 182 196
140 183 196
141 183 196
143 184 196
145 186 196
148 187 196
150 187 196
142 172 192
123 144 181
104 118 175
110 125 194
111 125 202
109 123 204
109 123 209
108 122 211
108 121 215
107 120 216
109 122 215
108 121 216
108 121 217
107 121 217
108 122 218
107 121 214
109 123 215
107 121 214
111 125 212
113 123 207
133 141 212
144 154 216
152 164 220
169 180 223
186 198 225
193 206 227
191 205 227
189 204 227
189 204 226
191 207 227
192 208 227
193 208 227
195 209 227
196 210 227
197 208 223
194 204 215
182 190 199
160 157 161
135 124 132
125 136 155
126 141 162
127 142 163
126 141 162
126 137 156
126 129 146
127 125 141
128 121 136
126 115 128
128 115 127
129 112 124
126 110 121
127 110 120
127 108 118
126 109 119
127 109 119
128 114 126
126 116 129
125 120 134
124 122 137
123 130 147
116 125 141
118 129 147
120 130 147
121 133 150
122 135 155
122 136 156
123 138 157
124 139 159
124 138 158
123 138 158
125 140 161
124 140 160
125 140 160
124 140 161
126 142 163
126 142 163
125 141 162
127 143 165
125 141 162
126 142 162
125 142 163
124 141 161
124 141 162
125 142 162
124 141 161
123 140 159
123 139 159
122 139 159
120 137 156
122 139 158
120 137 156
120 137 155
120 136 155
117 134 151
118 134 152
117 134 151
117 134 151
115 132 149
116 132 149
116 132 149
115 129 138
118 130 133
117 129 130
117 128 124
117 127 119
114 124 114
116 126 115
116 125 113
115 125 112
116 125 111
115 125 110
116 126 113
114 124 112
115 124 110
117 127 118
118 129 124
117 128 120
118 131 129
114 129 131
100 124 133
88 119 136
72 108 128
65 105 124
62 104 121
57 103 119
57 103 118
59 106 123
59 108 125
62 110 129
115 65 119
114 74 120
106 86 119
107 107 131
108 114 135
106 113 135
112 120 142
113 121 143
115 125 148
116 127 150
118 128 152
118 130 154
119 132 155
121 133 157
121 134 158
122 135 159
120 133 157
120 134 158
121 134 158
120 134 158
122 136 159
119 132 155
120 133 156
120 134 157
118 132 155
115 128 150
113 124 145
112 124 146
109 119 140
107 117 137
105 114 133
100 107 126
96 102 120
95 100 117
95 100 117
95 99 117
94 100 117
96 103 120
100 108 125
103 111 129
103 112 130
106 116 135
112 124 143
111 123 143
113 125 146
115 128 149
119 133 155
118 132 154
121 136 157
123 138 160
123 139 161
124 139 162
125 141 163
126 142 164
115 130 147
125 147 156
145 176 182
152 188 192
151 189 195
148 187 195
146 186 196
145 185 196
144 185 196
143 184 196
143 184 196
143 184 195
144 184 195
146 186 196
148 187 196
150 188 196
151 188 195
142 174 193
126 148 190
108 125 185
103 116 189
108 122 203
109 122 205
106 120 210
106 120 215
107 120 214
105 118 216
107 120 218
106 119 219
106 119 219
106 119 218
105 118 217
106 120 217
105 118 215
106 119 213
107 120 210
115 124 209
126 135 210
132 143 211
145 157 213
158 168 216
184 193 219
192 203 222
188 200 222
184 196 221
187 200 224
193 206 226
198 210 227
198 210 227
197 209 224
196 208 222
191 202 215
180 191 200
173 181 188
158 162 167
135 123 128
124 132 150
126 140 161
123 136 156
125 137 157
125 136 155
125 131 150
124 125 142
123 123 139
124 118 132
123 115 127
123 113 126
125 114 127
125 110 121
125 114 126
124 112 124
125 116 128
124 116 129
122 118 131
122 121 136
119 122 137
115 124 140
117 127 144
116 125 142
120 132 150
121 134 152
120 133 152
122 135 154
122 135 154
121 135 155
123 138 158
124 139 159
124 139 160
124 139 160
124 140 160
125 140 161
125 140 161
124 140 161
125 141 162
125 141 162
125 141 162
125 142 162
124 140 161
125 142 163
125 141 162
125 142 163
124 141 162
125 142 163
124 140 160
124 141 161
124 141 161
124 141 161
122 138 157
121 138 157
122 139 159
120 136 155
121 137 156
121 138 158
120 136 154
121 137 156
118 135 152
119 135 153
119 134 148
118 132 141
118 131 137
116 129 131
117 128 125
115 125 120
116 127 122
116 126 120
114 124 116
114 123 110
115 125 116
114 125 119
115 126 118
115 126 118
114 126 121
117 129 125
116 128 129
119 132 135
115 132 140
99 122 134
87 118 135
78 114 133
63 105 123
60 105 123
59 105 123
55 104 120
55 105 122
56 106 124
56 107 125
116 68 122
113 80 125
112 95 131
107 111 137
106 114 139
109 118 143
112 121 146
114 124 149
116 127 152
116 127 151
117 129 154
117 129 154
119 131 156
120 133 157
121 135 158
120 133 157
121 135 159
120 133 156
121 134 158
120 134 158
118 131 155
118 131 154
116 128 151
116 129 151
113 125 146
111 123 144
108 119 140
107 118 138
106 116 136
103 112 131
102 110 128
96 103 120
94 100 116
94 100 115
91 97 112
91 97 112
92 97 113
94 100 116
95 102 118
99 106 123
101 109 127
106 116 135
109 120 139
110 121 141
115 127 148
116 129 150
118 131 152
121 135 157
122 137 159
122 137 159
125 141 164
125 140 163
125 140 163
124 140 162
105 120 133
125 148 156
142 173 177
148 183 186
150 187 192
150 187 194
149 187 195
148 187 195
147 187 196
147 186 196
146 186 195
144 183 194
144 183 194
146 184 194
150 188 195
153 190 195
151 187 193
141 172 194
124 147 188
106 122 186
98 112 188
106 119 205
107 120 209
106 120 213
104 117 214
103 116 216
104 117 216
103 116 219
103 115 220
104 117 220
103 117 221
105 118 217
104 117 216
104 117 218
107 120 217
103 115 212
107 116 207
113 124 208
123 134 207
132 143 206
150 158 205
170 178 203
177 185 207
174 183 212
175 184 214
180 190 216
191 201 221
199 209 223
194 204 218
188 199 212
181 191 204
178 188 199
173 182 191
164 172 179
149 155 160
129 125 130
122 130 147
125 138 158
124 136 156
124 135 155
123 134 154
122 131 150
122 127 144
121 125 142
122 120 135
122 118 132
120 115 128
122 116 130
122 117 130
120 116 129
120 113 126
120 113 126
121 117 130
118 116 130
115 119 134
115 122 138
115 125 141
113 122 138
115 124 141
115 126 143
117 128 146
118 130 148
119 130 148
120 133 151
121 134 152
121 134 154
120 134 153
122 136 156
123 137 157
123 138 158
124 139 159
122 137 157
124 140 161
122 137 157
125 141 162
126 143 163
125 140 161
125 141 161
125 141 162
125 141 162
124 140 161
125 141 162
126 143 164
124 141 161
123 139 159
124 140 160
124 141 161
122 139 158
124 140 160
123 140 159
122 138 157
122 139 159
121 137 156
121 137 156
120 137 155
122 140 160
121 138 157
121 138 157
120 135 149
119 133 141
118 131 136
117 130 134
116 128 128
116 128 128
116 128 125
115 126 121
114 126 123
116 127 121
116 127 122
112 124 121
114 126 124
118 131 132
116 128 130
116 129 133
117 131 137
115 132 141
98 123 139
86 117 134
76 112 130
65 105 123
56 102 120
56 104 122
52 103 119
52 105 122
53 106 122
52 106 122
119 70 127
115 82 130
111 99 136
111 117 144
110 122 148
112 123 148
113 125 151
111 122 147
115 127 152
118 132 157
119 132 157
121 135 160
120 134 159
119 133 157
122 136 160
120 134 159
120 133 158
121 136 160
121 134 158
118 132 155
119 132 155
118 131 154
117 129 152
116 129 152
113 124 146
114 126 147
111 122 143
105 115 136
106 115 135
101 109 128
96 103 120
98 105 122
96 102 119
94 101 117
95 101 118
93 100 116
96 103 120
98 105 122
101 110 128
102 111 130
107 116 135
109 119 139
111 122 142
114 126 146
117 130 151
118 132 153
121 136 158
122 137 159
121 136 158
124 139 162
125 141 164
125 141 164
126 142 164
123 139 160
102 118 131
121 143 151
134 164 166
142 175 176
146 178 182
149 180 187
150 184 191
152 189 195
151 189 195
150 188 195
147 184 193
140 175 190
138 173 190
143 178 191
151 186 193
151 186 190
146 180 184
134 163 185
117 138 185
105 122 188
95 108 188
103 116 204
102 115 209
102 114 214
102 115 216
102 114 217
101 113 219
102 114 220
101 113 222
102 114 221
101 114 219
101 114 220
101 114 219
102 114 217
102 115 213
102 114 212
102 112 203
104 114 201
106 120 200
116 127 200
139 147 194
159 165 194
159 166 188
156 163 191
161 169 199
166 173 200
179 187 207
184 194 208
176 185 197
174 184 196
160 170 182
160 170 180
160 169 177
147 156 162
138 145 151
125 125 132
121 127 144
125 137 156
124 136 155
123 133 152
122 132 151
122 131 149
119 128 146
119 124 140
120 123 139
119 120 135
119 117 130
118 115 129
119 119 133
117 113 125
117 115 128
116 116 129
115 116 130
113 116 130
111 117 131
109 115 129
112 120 136
110 118 132
111 119 134
113 122 138
114 123 140
114 124 141
117 129 146
118 129 147
118 129 147
121 133 152
119 131 149
121 135 154
123 137 156
124 137 157
123 138 158
124 139 159
123 138 159
124 139 159
125 140 160
125 141 161
125 141 162
125 141 162
126 142 163
125 141 162
126 142 162
125 141 161
125 142 163
125 141 161
125 142 162
125 141 162
125 141 161
125 142 162
125 141 162
124 141 162
123 139 159
123 140 159
124 140 161
122 139 158
122 139 159
122 139 159
123 139 159
124 141 161
120 136 153
120 135 146
120 133 143
117 130 136
118 131 137
115 128 133
117 130 133
117 129 129
115 127 127
115 127 128
115 128 131
115 128 129
114 127 130
114 127 131
116 130 136
116 129 135
118 133 143
112 130 145
98 124 142
87 117 134
75 112 129
68 109 126
56 103 120
52 103 120
49 103 120
48 103 120
47 103 119
48 104 120
119 77 130
116 89 135
115 105 141
110 116 146
113 125 151
113 125 152
117 130 156
115 128 154
120 134 160
119 133 159
120 133 159
120 134 159
121 135 160
121 135 159
122 136 161
122 137 161
120 135 159
119 133 158
121 134 158
120 134 158
119 133 157
118 132 156
115 128 150
117 130 153
115 129 151
114 126 148
113 125 147
112 123 145
111 122 143
108 118 138
104 114 133
106 116 135
102 110 129
103 112 131
105 115 134
102 111 129
105 115 133
108 117 137
107 118 137
109 120 140
114 127 147
114 126 147
117 130 152
116 130 151
120 135 157
120 135 157
120 135 157
122 137 159
126 142 165
125 141 163
126 143 166
126 142 166
127 144 167
119 135 155
97 112 126
111 134 142
121 149 151
129 159 160
134 160 165
141 167 173
144 174 177
149 183 186
151 187 191
151 186 191
145 179 189
133 165 183
126 155 180
133 164 181
140 173 182
139 171 174
135 166 170
123 150 170
108 129 177
98 113 182
94 107 194
100 113 205
101 113 208
100 112 215
100 112 218
100 112 218
99 111 218
99 110 221
98 111 220
98 110 223
99 112 222
98 111 220
98 110 219
99 111 218
100 112 218
99 111 215
97 107 205
97 107 200
99 112 196
106 117 193
124 132 186
141 147 176
140 147 166
139 147 173
141 147 179
151 157 184
164 171 189
168 176 189
160 169 181
153 163 174
145 155 166
137 148 158
142 153 161
138 147 154
128 135 142
119 121 130
120 128 145
123 134 153
122 132 151
122 131 149
120 129 147
119 127 144
118 125 142
120 126 142
116 121 137
117 119 135
116 117 132
114 114 129
114 115 129
111 110 123
113 113 127
111 113 127
110 112 125
110 115 129
109 116 130
109 116 130
109 117 132
112 119 135
113 121 136
114 123 139
113 121 137
115 125 142
116 125 142
117 129 146
118 130 148
120 132 150
119 132 150
122 136 155
121 135 154
122 135 155
124 138 158
122 136 156
124 139 159
125 140 161
124 139 159
125 140 161
125 140 160
126 141 162
125 140 161
125 141 161
125 141 161
124 140 160
125 141 162
124 140 161
126 142 163
126 142 162
126 143 163
124 141 161
124 140 160
123 139 159
123 140 161
122 138 157
125 141 161
124 141 161
124 140 160
124 141 161
122 139 158
121 137 156
122 139 157
122 138 154
119 133 145
117 131 141
117 131 138
119 132 141
117 130 136
116 129 135
117 129 134
115 128 133
115 128 133
115 128 132
116 129 137
114 128 135
115 129 137
117 130 141
114 128 140
109 127 144
95 121 139
83 115 133
73 110 127
65 108 125
57 103 119
50 103 119
48 102 118
48 103 120
47 104 120
47 104 120
121 80 134
121 95 141
116 109 145
118 126 155
114 127 153
120 134 160
118 133 159
120 135 161
120 134 159
119 133 159
122 137 163
118 133 158
121 135 161
123 139 164
122 137 162
123 138 162
122 137 161
123 138 163
121 136 160
121 136 160
122 137 161
120 135 158
121 136 160
119 133 156
118 132 155
117 131 154
116 129 151
117 130 153
115 128 150
115 127 148
114 127 148
113 125 147
113 125 146
113 124 145
113 124 145
113 125 146
115 128 149
114 127 148
115 128 149
119 132 153
119 132 154
119 132 155
120 134 156
120 134 157
123 139 162
123 139 162
125 141 164
125 140 164
126 142 165
127 143 166
127 144 167
129 146 169
127 143 166
118 135 155
93 111 124
101 124 131
108 134 136
115 140 143
121 141 147
124 145 149
126 150 150
133 164 163
139 170 172
143 175 179
135 165 175
122 149 171
107 133 164
115 143 165
122 152 163
122 152 155
118 147 151
111 136 157
99 118 174
93 108 183
91 103 190
98 110 205
98 111 210
98 110 214
96 108 214
96 108 213
96 107 218
95 107 220
95 107 223
96 108 222
95 107 222
97 109 221
96 108 222
97 109 221
96 108 217
96 107 213
96 107 212
94 105 204
96 107 199
99 110 187
110 119 176
123 130 162
128 136 153
123 132 156
129 136 162
140 147 168
141 150 168
146 154 168
135 145 158
133 143 156
129 140 153
131 142 153
127 138 148
128 137 147
123 130 142
116 121 133
122 131 149
124 135 154
122 132 151
123 132 151
122 129 147
118 124 141
117 122 138
118 125 142
114 119 134
115 120 135
115 119 134
111 113 127
110 111 124
108 110 123
110 113 127
111 114 129
109 111 124
109 113 127
112 116 131
115 122 138
113 119 135
116 123 140
116 123 139
115 123 139
117 124 141
115 124 140
118 128 146
120 130 148
119 129 147
120 132 150
119 131 149
121 133 152
123 136 156
124 137 157
123 136 156
123 137 157
123 136 156
125 139 159
125 141 162
122 136 155
125 139 160
127 142 163
124 139 160
127 143 165
125 141 161
126 142 163
126 142 162
126 142 163
126 142 162
126 142 162
124 141 161
124 141 161
125 141 162
125 142 162
123 139 158
123 139 158
124 140 159
122 139 158
124 140 160
124 141 160
122 139 158
122 138 157
123 139 159
120 135 152
119 135 150
119 133 146
120 134 146
118 132 143
116 129 138
118 132 141
116 129 137
116 130 137
115 128 137
116 129 138
115 128 136
115 129 139
116 130 143
114 128 140
114 129 145
108 126 145
91 116 133
79 112 129
71 107 123
63 104 120
55 103 119
55 104 120
50 102 118
47 101 117
46 102 118
46 101 117
123 87 138
123 99 144
120 112 149
118 125 156
120 135 162
118 133 159
122 137 163
120 135 161
123 139 164
124 139 165
123 138 163
124 140 165
123 138 163
124 139 164
124 140 165
124 139 163
124 139 164
125 140 164
124 139 164
123 138 161
123 139 163
121 136 159
122 137 161
122 137 160
120 135 158
122 136 159
119 132 155
120 135 158
120 134 157
121 135 158
120 134 156
120 134 157
117 130 152
119 133 155
120 134 157
119 133 155
120 135 157
121 134 157
122 136 158
123 138 161
123 138 161
123 138 160
125 140 164
124 140 163
125 142 165
125 141 164
126 142 166
127 144 167
128 144 167
127 143 167
128 145 168
129 146 170
128 145 169
122 139 160
96 117 128
96 121 129
99 125 128
102 127 130
107 126 133
104 123 125
105 127 126
115 143 140
122 150 150
128 157 161
123 150 158
114 139 157
103 128 153
101 126 146
108 135 145
106 134 140
99 126 132
100 124 149
92 110 166
88 103 179
91 105 192
97 109 203
96 108 212
95 107 214
94 105 217
95 107 219
93 104 217
94 105 223
94 105 223
94 106 224
94 105 223
94 106 223
94 105 223
94 105 220
95 107 219
94 106 217
95 106 212
95 106 205
97 108 202
100 112 192
106 117 174
118 129 160
122 132 148
123 133 151
125 134 152
129 138 155
131 140 155
128 138 153
124 135 150
121 132 146
122 133 146
127 138 151
128 138 152
126 136 149
124 131 144
117 122 136
125 137 157
123 133 152
124 134 153
123 131 149
120 126 143
120 127 144
120 126 143
118 124 140
116 120 136
118 123 139
114 118 133
112 115 129
109 111 124
113 116 131
113 116 131
112 115 129
111 115 130
114 119 134
113 118 134
113 117 133
116 122 139
115 122 138
117 125 142
116 125 142
119 128 146
117 126 143
119 130 148
120 130 148
120 131 149
120 132 151
122 135 155
122 135 154
123 136 156
123 135 155
122 136 155
125 139 159
125 139 159
126 140 161
124 139 159
125 141 161
126 141 162
125 140 161
126 142 162
125 141 163
124 139 160
125 141 161
125 141 162
124 141 161
126 141 162
125 141 162
126 141 161
125 141 161
124 140 160
125 141 161
124 139 159
124 140 159
124 140 159
123 139 158
122 138 156
121 136 155
121 137 156
122 137 156
122 138 156
121 136 154
120 135 153
118 133 147
118 132 144
116 130 141
116 129 140
116 129 141
115 129 139
115 129 140
115 129 140
116 129 141
115 129 141
115 129 142
117 132 147
116 131 148
114 130 147
105 123 140
89 115 132
77 110 126
70 107 124
63 104 120
56 103 119
55 102 119
51 101 117
50 101 117
48 101 117
48 100 116
128 93 143
127 101 147
124 117 153
123 132 161
121 136 163
123 138 164
123 138 164
123 139 164
124 140 166
124 140 165
126 142 167
125 141 166
124 139 165
125 140 165
126 142 166
124 139 164
125 141 166
124 140 165
125 141 165
124 140 165
124 140 164
125 140 164
125 141 164
126 142 166
123 138 162
124 140 164
124 140 163
124 139 162
123 139 162
123 138 162
125 141 164
124 139 162
125 141 164
123 138 161
123 139 162
125 141 164
126 142 165
125 140 164
126 142 166
127 144 167
125 141 164
127 144 167
126 142 165
127 143 167
127 144 168
128 144 168
127 143 166
127 144 167
128 145 168
128 145 169
130 147 171
129 146 170
128 145 169
125 143 164
98 120 131
96 121 128
97 123 129
96 121 127
97 119 125
95 117 120
91 114 112
95 120 119
101 127 129
109 136 142
109 134 142
102 126 140
96 121 137
95 120 135
96 123 132
94 120 127
95 120 129
93 115 144
89 106 162
88 103 177
92 106 194
96 108 205
93 105 209
92 103 212
91 102 216
92 103 218
92 103 221
92 103 224
92 103 223
91 102 221
92 103 223
90 102 220
91 102 219
91 102 219
92 103 218
93 104 216
95 106 215
95 106 205
98 109 196
101 112 190
108 119 181
116 127 158
123 134 149
125 136 151
125 135 151
124 134 151
127 137 152
127 137 152
126 136 150
124 135 149
127 137 151
126 137 150
127 136 150
126 135 148
122 130 142
120 130 147
125 136 156
126 137 157
124 135 155
124 135 154
123 131 150
122 131 149
120 127 144
120 126 144
118 124 140
118 123 140
116 121 137
115 119 134
115 119 134
117 121 137
115 119 135
115 120 136
117 123 139
118 124 140
117 122 138
118 125 141
118 125 142
118 126 143
118 126 144
120 129 148
121 130 149
121 132 150
122 133 152
120 130 149
123 135 155
121 133 152
123 136 156
124 137 158
122 136 155
123 136 156
124 139 159
124 137 157
124 139 159
126 141 162
126 141 162
126 141 162
125 140 161
126 142 163
127 142 164
124 140 160
126 142 163
127 142 163
126 142 163
126 141 162
126 142 163
125 141 161
124 140 160
126 142 163
125 140 160
125 141 161
125 140 160
123 139 158
121 136 154
123 138 157
122 138 157
121 137 155
121 137 154
121 136 154
120 135 152
118 133 149
118 133 150
118 133 150
118 132 147
115 129 143
114 127 140
116 130 143
116 129 142
117 131 144
115 130 143
115 129 143
113 127 141
114 129 144
115 129 145
114 129 146
112 127 144
104 122 139
90 115 131
78 110 126
70 107 124
63 103 118
60 103 118
59 102 118
55 100 116
52 99 115
50 100 115
50 101 117
128 94 144
126 100 145
125 118 154
125 135 164
123 139 164
124 139 165
124 140 166
125 141 166
124 140 166
125 141 166
125 142 167
126 142 167
126 142 167
127 144 169
125 141 166
125 141 166
126 142 167
126 143 167
125 141 166
126 142 167
127 143 168
127 143 167
126 143 167
126 142 167
125 141 165
128 144 169
126 141 165
126 142 166
125 141 165
125 140 164
125 141 165
125 141 164
126 142 165
126 142 165
126 142 166
126 142 165
127 143 167
127 143 166
127 144 167
128 144 168
129 145 169
127 143 167
127 144 167
128 144 168
128 144 168
129 146 170
127 144 167
127 144 168
129 146 170
128 145 169
128 146 169
129 146 170
130 148 171
128 146 168
106 126 140
96 122 129
98 125 132
97 123 130
97 123 130
95 119 125
93 118 122
92 117 121
97 124 129
99 125 132
98 124 132
95 120 130
94 119 130
93 119 129
93 119 127
94 120 129
95 120 130
93 116 142
88 105 165
89 104 180
95 107 195
97 109 206
94 105 209
92 102 212
88 98 210
90 101 217
90 101 218
91 101 220
91 102 220
90 100 218
91 102 220
90 101 219
91 102 220
91 102 217
91 102 216
93 104 215
94 105 210
95 106 205
99 109 198
102 113 189
108 119 178
118 128 160
124 135 149
124 134 149
124 135 149
125 135 150
125 135 149
125 135 149
126 136 150
125 135 148
126 136 149
126 135 148
125 134 147
123 131 143
118 126 140
125 136 156
125 137 158
124 135 154
124 134 154
124 134 153
124 135 154
124 133 153
124 132 150
122 130 148
122 130 149
121 127 145
120 127 145
120 127 145
119 126 143
120 127 145
120 128 146
119 126 143
121 128 146
121 129 147
120 129 147
120 128 145
123 132 150
122 131 150
123 132 151
122 132 152
122 134 153
125 136 155
123 135 155
123 134 154
124 136 156
124 136 156
125 137 157
125 138 159
125 138 159
126 141 162
125 138 158
127 142 163
125 140 161
125 141 162
123 139 160
118 134 155
117 134 155
115 132 153
118 134 156
118 134 155
121 137 158
125 141 161
125 141 162
125 141 161
124 139 159
126 143 164
126 142 163
125 140 160
125 141 160
124 139 158
124 140 159
123 138 156
122 137 155
121 137 155
122 137 155
121 136 153
120 135 152
119 134 149
118 133 150
117 131 147
118 133 149
116 130 146
115 129 144
116 130 145
114 128 142
116 130 143
115 129 143
111 124 137
115 130 144
115 129 142
115 129 145
113 127 141
114 128 144
115 130 147
114 129 146
105 123 140
89 116 132
82 112 129
77 109 126
70 106 122
68 106 122
65 104 120
61 104 120
60 102 118
57 101 117
56 101 117
128 97 144
128 105 148
127 121 156
126 136 164
125 141 167
127 144 169
126 142 167
127 143 168
127 143 169
127 144 168
126 143 168
128 144 169
127 144 169
127 144 169
128 144 169
127 144 169
128 145 169
128 144 169
128 144 169
128 144 169
127 143 167
127 145 169
128 144 168
128 144 169
127 144 168
128 145 169
127 144 168
129 146 170
127 144 168
127 144 167
128 144 168
128 145 168
127 144 168
128 144 168
128 145 169
127 144 167
128 145 168
127 144 167
127 144 168
129 145 169
129 146 170
129 146 169
128 145 169
128 145 169
128 145 169
129 146 169
130 147 170
129 147 170
128 146 169
129 146 170
129 146 169
129 147 170
128 146 169
128 145 169
117 136 154
98 123 131
97 123 130
98 124 131
97 124 130
96 122 129
96 122 129
95 122 128
95 121 128
96 122 130
96 122 129
94 120 128
93 119 127
95 121 129
95 121 129
96 122 129
94 119 128
91 114 141
89 106 168
91 106 184
96 108 196
95 106 204
92 104 207
92 103 211
91 102 210
90 101 212
90 101 215
90 101 215
90 101 216
91 101 217
90 101 215
90 101 216
90 102 214
91 102 216
92 103 214
93 104 212
94 106 212
97 108 207
96 106 198
103 114 194
107 117 176
118 128 157
120 130 144
123 133 146
123 133 147
124 134 148
124 133 147
123 132 146
123 132 145
124 133 145
123 131 144
124 132 144
122 130 142
117 124 136
120 130 148
125 138 158
125 137 158
125 138 159
125 137 157
125 136 157
124 135 154
125 137 157
124 134 153
123 132 151
126 136 156
123 132 151
123 132 150
123 133 153
124 134 154
124 133 153
124 134 153
123 131 151
124 135 154
122 132 151
123 133 153
125 137 157
124 135 155
124 134 154
125 137 157
125 137 157
125 137 157
124 137 157
125 138 158
125 138 159
124 137 158
126 139 160
126 139 159
126 140 161
125 139 159
127 141 162
125 140 161
123 137 158
117 133 154
105 122 144
96 114 135
90 108 130
83 103 126
82 103 126
84 104 126
89 108 130
98 116 138
106 124 145
115 132 152
124 140 162
126 142 163
126 141 161
125 141 161
126 142 162
126 142 162
125 141 161
124 140 159
123 138 156
122 137 155
121 136 154
120 135 152
121 137 154
120 135 153
120 134 150
120 135 151
117 131 146
117 130 145
115 128 143
115 129 143
116 130 145
113 126 139
112 125 138
113 126 141
113 127 141
114 127 142
114 128 143
114 128 143
114 128 143
113 127 142
115 129 144
114 129 146
106 125 142
91 118 135
86 116 133
79 112 128
74 109 126
73 108 124
67 105 120
67 105 120
64 104 121
60 103 119
63 105 121
128 96 143
127 105 148
128 116 154
128 137 165
126 141 167
127 144 169
127 144 169
127 144 168
128 145 170
129 146 171
128 145 169
128 145 169
128 145 170
128 145 170
128 145 169
128 145 169
128 145 170
130 147 171
129 146 170
128 145 169
129 146 170
130 147 171
129 146 170
128 144 168
129 147 171
128 145 169
128 145 169
128 145 169
128 145 168
128 145 169
128 145 169
129 147 170
129 145 170
129 146 170
128 145 168
130 147 171
130 147 171
129 146 171
129 146 170
130 147 171
129 146 169
130 147 171
129 146 170
129 146 170
130 148 171
129 146 169
129 147 170
129 146 169
130 147 170
130 148 171
129 146 169
129 147 170
129 147 170
129 146 169
126 144 166
103 125 137
94 120 126
95 122 128
95 122 128
96 122 128
95 122 129
96 123 129
95 122 129
95 122 129
94 120 128
95 122 129
95 121 128
94 120 127
94 121 127
94 120 127
93 118 128
91 115 141
89 108 164
95 110 184
98 111 197
98 110 205
95 107 206
94 105 205
92 103 207
91 102 209
90 101 208
90 100 207
90 100 209
91 101 212
91 102 213
91 102 212
93 104 212
92 104 210
93 105 210
94 106 210
96 108 207
97 109 206
99 111 204
100 110 190
106 115 176
113 122 155
118 126 140
120 129 141
120 129 141
120 128 141
121 130 141
119 128 140
119 127 139
119 126 137
119 126 137
120 127 138
115 122 133
120 130 147
124 136 156
124 137 157
126 137 157
126 138 158
125 137 157
126 139 159
127 139 160
124 136 157
125 137 158
126 138 158
123 134 155
125 137 157
125 137 158
125 137 157
125 136 156
125 137 157
126 138 159
127 139 159
126 137 158
126 138 159
125 138 158
126 139 159
124 136 157
124 137 157
125 138 159
126 139 160
125 138 159
127 140 161
126 140 161
126 139 160
127 141 162
127 141 163
127 140 162
127 141 163
127 142 164
125 140 162
118 132 153
103 119 141
84 103 126
66 89 112
51 78 103
47 74 100
40 71 97
42 72 99
42 72 99
45 74 100
56 81 106
69 91 114
84 105 128
102 120 142
116 134 155
125 141 162
127 143 163
127 143 164
125 141 161
126 142 163
125 141 160
125 141 161
124 140 159
123 139 158
124 139 158
122 137 155
122 137 154
120 135 151
120 135 152
118 133 149
117 131 146
116 130 146
115 129 144
116 130 144
116 129 143
113 126 140
112 125 139
113 126 140
113 126 140
113 126 140
114 127 141
112 125 139
114 128 143
114 128 143
115 129 145
105 124 141
95 120 136
88 116 133
86 115 132
80 112 129
78 111 127
77 111 128
70 107 123
70 107 123
70 108 125
68 107 124
130 96 143
129 102 146
127 119 154
130 137 166
126 143 168
126 143 168
128 146 171
127 143 167
129 147 171
129 146 171
127 144 169
129 146 170
129 147 171
129 147 171
128 146 169
128 145 169
129 146 170
128 145 168
129 147 170
128 146 170
130 147 172
129 146 170
130 147 171
130 147 171
129 146 170
129 146 170
128 146 170
129 146 170
129 147 171
129 146 170
128 145 169
130 147 171
129 147 171
129 146 170
129 145 169
129 146 170
129 146 170
129 146 169
129 146 170
128 146 169
129 147 170
128 146 170
129 147 171
129 147 171
129 147 171
130 147 171
129 147 170
130 147 171
129 146 169
129 147 170
128 145 168
128 146 169
128 146 168
127 145 168
127 145 168
118 136 155
96 119 127
93 119 125
93 119 124
92 119 124
93 119 126
93 119 125
93 119 125
93 119 125
93 119 125
93 119 125
92 118 124
91 116 123
92 119 125
91 117 123
90 115 123
89 112 137
92 109 166
101 113 189
98 111 199
96 108 198
94 106 201
93 105 206
93 105 205
93 105 207
92 103 206
91 102 207
94 105 212
92 104 207
91 103 209
93 105 207
93 105 208
93 105 206
94 106 206
95 107 207
95 107 203
98 109 202
100 112 202
101 112 194
101 111 170
106 113 142
112 119 130
113 120 131
114 121 131
115 122 133
115 122 133
115 121 131
115 121 131
114 119 128
113 118 127
112 118 128
117 127 143
122 134 152
124 136 155
124 136 156
124 136 156
125 138 158
127 140 160
126 138 159
125 137 157
128 140 161
127 140 161
126 139 159
126 139 160
127 140 161
127 140 162
128 141 162
126 139 160
127 140 161
127 140 161
127 141 162
127 140 162
128 141 163
128 142 163
128 142 163
127 141 162
127 139 160
128 142 163
126 140 161
126 141 162
128 143 164
128 141 163
127 141 162
129 144 166
128 143 165
128 143 165
128 143 165
122 137 159
111 127 148
90 108 130
62 86 110
44 72 97
35 67 94
30 65 93
29 65 92
29 65 92
29 65 92
29 65 92
29 65 92
31 66 93
36 68 95
44 73 99
62 86 110
90 109 131
111 129 150
120 136 156
127 143 163
125 141 161
126 143 163
126 142 162
125 142 161
124 140 159
124 140 159
124 140 159
122 137 155
123 138 157
123 138 155
121 137 154
121 136 152
119 133 149
118 133 148
118 132 149
117 131 146
114 128 142
116 129 143
116 129 144
115 128 143
117 131 146
117 131 146
113 127 141
115 129 144
115 129 144
117 132 148
116 131 148
108 128 145
100 123 141
93 119 136
87 116 133
86 114 131
81 112 129
77 111 128
76 111 127
75 110 126
75 111 128
74 110 127
129 95 142
127 106 147
128 119 155
129 136 165
128 144 169
129 146 171
129 146 171
128 145 170
129 147 171
129 146 171
130 147 172
128 145 168
128 146 166
126 143 162
124 142 157
123 142 154
125 143 156
122 141 152
124 142 157
125 143 159
126 144 164
128 146 169
130 147 171
130 147 171
130 148 171
130 147 171
129 146 170
129 146 170
131 149 173
129 147 171
130 147 172
131 148 173
129 146 171
129 147 170
130 147 171
129 147 171
129 146 170
129 147 171
128 145 169
128 145 169
128 145 170
129 146 169
129 146 169
129 147 170
129 146 170
129 146 170
128 146 169
127 145 168
129 146 169
127 144 167
127 145 167
128 145 167
127 145 167
126 144 166
126 143 165
124 142 163
111 129 145
94 117 125
89 114 119
90 115 120
90 115 120
89 115 119
89 114 120
90 115 120
88 114 119
89 114 119
89 114 119
88 114 119
88 113 118
86 111 116
87 111 118
94 114 140
102 117 175
100 113 190
98 111 190
97 109 197
98 110 200
96 108 200
95 107 200
93 104 199
95 106 208
93 105 204
92 104 203
95 106 207
93 104 203
93 104 204
95 106 202
95 107 204
96 108 203
97 108 200
97 109 201
98 109 198
99 110 197
101 112 192
101 111 172
101 108 145
101 107 119
102 107 115
102 106 114
105 110 117
106 110 118
102 107 115
100 104 111
101 105 114
106 112 124
112 121 135
117 126 143
120 130 147
122 134 152
123 134 153
124 136 155
123 136 156
125 137 157
125 138 158
126 140 161
127 140 161
127 141 162
127 141 162
128 142 164
127 141 162
129 144 166
128 142 164
128 142 164
129 143 165
128 143 164
128 143 164
127 141 163
127 141 162
129 143 165
128 142 164
128 143 165
128 141 163
128 143 165
128 143 165
128 142 164
128 143 165
129 144 166
128 143 165
128 143 164
128 143 165
127 143 165
125 141 163
113 130 152
84 103 126
52 77 101
34 66 93
29 64 91
28 63 91
28 64 91
28 64 92
29 64 92
29 64 92
28 64 92
29 64 92
29 64 91
28 64 92
29 64 92
34 67 94
50 76 101
79 100 123
104 122 143
124 140 161
128 145 166
127 143 164
126 142 162
125 142 162
126 142 162
125 141 160
126 142 163
124 139 158
123 139 158
123 139 157
123 138 157
123 139 157
120 135 152
120 135 151
122 137 154
120 135 152
119 133 150
119 134 150
117 132 147
119 134 150
118 133 149
118 133 148
118 133 149
118 133 149
119 134 151
119 134 152
116 132 148
110 129 147
102 125 143
98 123 140
93 120 137
92 120 137
87 116 132
87 117 134
81 113 130
82 114 132
80 113 130
77 111 128
