P3
400 225
255
209 218 229
207 216 226
211 221 231
212 220 228
213 222 232
213 221 229
213 222 232
213 222 231
217 224 234
208 217 226
213 221 230
212 222 233
212 221 229
210 218 226
213 222 231
209 218 225
212 220 229
215 223 232
213 222 231
209 219 229
99 127 76
101 129 77
103 131 79
100 127 76
100 128 77
99 126 76
97 124 75
100 127 76
103 130 78
102 129 78
96 123 73
96 124 74
99 126 76
100 128 76
99 127 76
98 125 75
103 131 79
102 130 78
99 126 76
101 129 77
100 128 78
99 126 76
98 125 75
101 128 77
98 126 76
99 126 76
99 126 76
99 126 76
99 126 75
99 126 75
204 214 221
210 219 228
209 219 228
217 225 233
217 225 235
212 221 231
216 225 236
212 220 228
207 216 226
213 221 230
215 223 232
209 218 228
215 223 232
214 223 234
214 223 233
207 217 228
212 220 227
211 221 232
215 223 231
214 222 232
213 220 228
215 224 234
208 218 227
210 219 229
213 221 230
213 221 229
215 223 231
215 223 232
215 223 233
214 222 232
210 220 231
211 219 228
136 155 134
97 124 75
100 127 76
102 129 77
98 125 75
102 130 77
101 128 77
97 124 74
99 127 76
103 130 78
97 126 76
95 122 73
100 128 76
101 128 77
100 127 76
100 127 76
98 125 75
95 122 73
98 125 75
100 128 77
100 128 77
98 125 74
98 125 75
102 130 78
101 129 78
97 125 74
100 128 77
99 126 75
99 127 76
101 129 78
100 127 76
96 123 74
100 127 76
99 127 77
213 221 228
210 219 228
215 223 232
208 218 227
208 217 224
210 218 226
212 221 233
207 216 225
208 217 224
210 220 230
221 228 238
209 217 226
209 219 228
212 221 231
210 218 227
212 221 230
209 219 228
215 223 232
208 216 223
210 220 231
213 221 229
212 221 230
220 227 237
215 223 232
203 212 218
212 221 232
212 221 231
214 222 231
212 220 228
210 218 226
214 223 231
211 219 228
215 224 234
212 221 231
211 220 229
101 129 77
100 128 76
99 126 76
99 127 76
98 125 74
98 126 76
102 129 77
99 126 75
97 125 74
99 127 76
98 125 75
99 126 75
100 128 77
101 128 77
101 129 78
100 128 77
102 130 78
97 124 74
99 126 75
98 125 75
99 126 76
98 126 75
101 129 78
99 127 76
102 129 78
101 128 77
103 131 79
100 127 76
98 125 75
100 128 76
100 128 77
98 126 75
101 128 76
99 127 76
99 127 76
202 211 216
211 220 229
210 218 226
209 218 227
212 220 229
208 218 230
210 218 225
211 220 228
205 214 222
216 224 234
215 223 233
210 219 228
215 224 234
214 222 230
215 223 232
207 217 226
215 223 233
210 219 228
211 220 229
214 223 233
207 217 226
209 218 227
212 220 228
214 222 232
215 223 233
208 218 227
213 222 233
210 219 228
214 222 230
215 223 231
214 223 234
212 221 230
214 223 232
216 225 235
214 223 234
207 217 226
96 123 74
102 130 78
101 128 77
101 129 77
99 127 75
98 125 75
99 127 76
99 127 76
100 128 76
98 125 75
100 128 77
98 125 75
101 129 77
101 129 78
100 127 76
101 129 77
97 124 74
99 126 76
97 124 74
97 124 74
98 125 74
99 127 76
98 126 76
100 128 77
99 126 75
100 128 76
100 127 76
100 127 76
100 128 77
97 124 74
102 129 77
100 127 76
97 125 75
99 126 76
100 128 76
198 208 211
207 216 224
212 221 231
202 212 220
206 215 223
211 220 229
209 218 229
215 224 234
209 218 227
213 221 229
211 220 229
216 224 234
212 221 231
210 218 228
215 224 234
215 224 235
209 218 228
213 221 230
215 223 232
218 225 234
219 226 234
210 219 226
210 219 227
212 220 228
216 224 233
214 222 231
218 226 235
210 218 226
215 224 234
210 219 228
213 221 228
214 223 233
214 222 232
208 217 225
208 217 227
100 128 76
101 129 77
103 130 78
100 127 76
102 129 77
99 126 76
102 130 78
100 127 76
99 126 75
101 129 77
99 126 75
99 127 76
101 128 77
100 128 77
99 126 76
100 127 76
101 128 76
97 124 74
100 128 77
102 129 77
97 125 75
102 129 77
101 129 78
101 128 77
102 130 79
102 130 78
102 130 78
99 127 76
100 127 76
100 128 77
101 128 77
102 129 77
99 126 75
199 209 215
215 223 231
210 219 230
212 221 230
215 224 233
203 212 219
217 225 234
218 225 235
211 220 229
211 220 228
213 222 231
212 221 230
217 224 233
212 221 232
215 223 232
207 215 220
217 224 232
214 223 233
214 222 233
212 221 231
215 224 233
206 215 223
218 226 235
216 224 235
214 222 231
211 219 227
213 221 230
213 222 231
216 223 231
212 220 228
213 221 229
211 220 229
99 126 75
100 128 77
97 125 75
102 130 79
102 130 78
100 127 76
100 127 76
96 123 74
100 127 76
99 127 76
101 129 77
99 126 75
99 126 75
100 127 76
99 126 76
100 128 77
99 127 76
100 127 75
97 125 75
100 127 76
101 129 78
98 126 75
102 129 78
99 126 75
98 125 74
102 130 78
102 130 78
99 126 75
100 128 78
104 131 84
217 225 234
212 221 229
213 221 231
215 223 232
214 222 230
206 215 223
213 221 232
207 216 224
207 217 226
215 223 234
212 221 230
213 222 232
212 221 233
213 222 231
215 224 235
216 224 235
206 215 223
207 216 223
214 222 230
211 219 228
216 224 233
216 225 235
217 225 235
218 226 235
211 220 229
214 222 232
208 217 225
211 219 228
214 222 231
215 223 232
213 222 232
213 222 230
211 220 229
209 218 224
102 129 78
98 126 76
98 125 75
97 125 75
98 125 75
100 128 76
100 128 77
100 127 76
98 125 74
101 129 77
100 128 77
100 128 76
98 126 76
99 127 76
98 126 75
102 130 78
100 128 77
98 125 74
97 124 74
98 126 75
99 127 76
102 129 77
101 128 77
97 125 75
100 128 76
101 128 77
101 128 77
100 128 77
101 128 77
101 127 79
211 220 230
210 220 230
215 223 232
209 218 227
216 224 234
207 217 227
211 220 229
211 221 231
215 223 232
217 225 236
206 215 223
207 218 230
217 226 237
215 223 233
210 219 230
212 220 230
210 219 227
211 220 228
209 218 227
219 226 236
212 221 231
213 222 231
208 218 229
213 222 230
214 223 233
208 218 226
208 216 224
213 222 232
214 222 231
213 222 232
207 216 221
211 220 229
97 125 75
100 127 76
101 129 78
100 128 76
97 125 74
99 126 75
103 130 78
100 128 77
100 127 76
100 128 76
99 127 76
102 129 78
98 125 76
97 124 74
102 130 78
100 128 77
97 124 74
100 127 76
99 126 75
98 125 74
99 126 75
101 128 77
101 129 78
101 129 77
101 129 78
100 128 77
100 128 77
101 129 77
98 125 75
99 126 76
99 126 76
100 127 77
101 129 77
189 200 200
213 221 231
214 222 231
209 219 228
212 220 227
215 224 233
214 222 231
215 223 234
210 219 228
210 219 229
214 223 233
210 219 229
212 221 231
211 220 228
212 221 232
214 223 233
211 220 228
211 220 231
208 218 228
208 218 228
209 218 227
205 214 221
204 214 222
212 220 226
212 220 228
210 219 227
208 217 226
213 221 230
214 222 232
215 224 234
216 224 233
210 219 229
199 209 214
213 221 229
207 216 223
99 126 76
100 128 77
101 129 77
98 126 76
102 129 77
97 124 74
96 123 74
101 129 77
102 129 77
98 125 74
100 128 76
98 126 76
101 129 77
100 127 76
98 125 75
99 126 75
100 127 76
99 127 76
102 129 78
98 125 75
101 128 77
100 128 77
100 128 76
99 126 76
103 130 77
99 127 76
99 126 75
102 130 78
97 124 74
99 126 75
101 129 78
101 129 78
100 127 76
94 121 72
101 129 78
185 197 196
209 218 227
215 223 233
207 216 224
214 222 230
209 218 226
213 221 230
210 219 229
208 217 226
210 218 225
216 224 232
214 222 232
212 221 230
216 223 232
214 223 233
217 224 232
213 221 230
212 221 231
218 226 234
208 218 228
214 222 231
215 223 231
205 216 226
211 220 230
216 224 235
215 223 232
214 222 229
211 220 229
214 222 232
215 223 233
214 222 230
209 218 228
210 219 228
213 221 229
217 225 233
211 220 230
101 128 77
100 128 77
98 126 76
98 125 75
100 127 77
101 128 77
97 125 75
100 128 77
98 125 75
100 128 77
101 128 77
100 127 77
99 126 75
100 128 77
100 128 77
101 128 77
101 129 77
100 127 77
103 130 79
102 130 78
102 129 78
101 128 76
100 127 76
101 129 78
99 127 76
101 128 77
97 125 75
100 128 77
99 127 76
98 126 76
98 125 76
101 128 77
96 124 74
98 126 76
99 126 75
214 223 231
213 221 230
213 221 230
209 219 230
214 223 233
205 214 222
212 220 228
210 219 229
211 219 226
215 223 234
213 221 230
217 225 236
217 225 234
214 222 231
210 219 228
211 219 229
209 218 227
212 221 232
212 221 233
211 220 228
217 225 235
216 225 235
207 217 225
207 216 224
212 220 229
213 222 231
207 217 225
210 219 229
216 224 234
213 222 231
211 220 229
222 229 239
216 224 234
209 218 228
177 190 187
99 127 76
100 127 76
100 128 77
98 125 75
102 130 78
101 129 78
102 130 77
99 126 76
100 128 77
98 125 75
100 127 76
97 125 75
98 125 74
98 125 75
100 127 76
100 128 76
101 128 77
98 126 76
100 128 77
100 127 76
98 125 75
99 126 76
98 125 75
103 131 78
100 128 78
99 127 76
101 128 76
98 126 76
99 126 76
98 126 75
100 128 77
100 128 77
101 128 79
214 222 232
208 217 227
208 217 224
217 226 237
208 217 223
214 222 231
209 218 226
216 224 235
208 217 228
208 217 224
213 221 230
206 216 226
211 219 227
206 216 225
208 217 226
214 222 232
207 216 224
209 218 226
213 222 233
214 222 231
210 219 227
212 221 231
213 221 229
213 222 231
212 220 229
208 217 226
213 222 232
208 217 226
213 221 230
206 215 223
212 220 229
131 151 125
101 128 76
99 126 75
99 126 76
100 127 76
100 128 76
98 126 75
99 127 76
99 126 76
99 127 75
99 126 76
98 125 74
101 128 77
102 130 78
100 127 76
97 124 74
100 127 76
98 126 75
99 127 76
104 132 79
97 124 74
102 129 77
100 127 76
100 128 76
100 128 77
102 130 78
100 127 76
97 125 74
102 129 77
100 128 76
210 219 229
210 218 227
212 220 227
216 224 232
208 218 227
214 223 235
216 224 233
212 221 231
210 219 229
212 221 230
207 217 228
210 219 228
219 226 235
212 221 231
217 225 235
215 223 230
212 221 231
217 225 235
208 218 227
217 226 236
209 217 226
211 220 230
214 223 232
205 215 226
216 224 233
211 220 230
213 221 229
209 218 228
215 223 232
214 222 232
210 219 228
209 218 228
202 211 218
213 222 230
213 221 230
167 182 177
100 127 76
99 127 75
99 127 76
97 124 74
98 126 75
100 128 77
100 127 76
100 128 77
101 128 78
101 129 78
100 127 76
100 127 76
97 125 75
101 129 78
100 127 76
96 124 74
99 126 76
99 126 76
99 126 76
100 128 77
98 126 75
97 123 73
98 125 75
99 126 75
98 125 75
99 126 76
99 127 76
99 126 75
100 127 76
165 180 171
204 214 222
214 222 231
216 225 235
209 219 229
215 224 234
211 220 228
207 216 225
213 222 232
208 216 224
211 219 228
219 226 236
213 221 230
212 221 231
208 218 228
209 219 229
214 222 232
210 218 225
219 227 236
214 223 232
214 222 231
210 219 228
213 221 229
214 222 232
211 219 227
214 222 230
210 218 226
205 215 223
216 224 234
213 221 231
207 216 224
211 219 226
123 145 116
99 126 75
98 126 75
97 125 75
102 130 78
96 123 73
100 127 76
100 127 76
100 128 77
98 125 75
99 127 76
98 125 75
98 125 75
98 125 75
101 129 78
99 125 75
100 128 77
99 126 75
99 126 76
101 129 77
98 126 75
97 125 75
100 127 76
102 130 78
101 128 76
99 127 76
99 126 75
102 130 78
100 128 77
99 127 76
99 127 76
99 126 76
101 128 77
104 131 83
211 220 230
214 222 232
215 223 234
212 220 229
211 220 231
209 218 228
213 222 232
216 224 233
208 217 226
211 219 227
214 222 231
210 218 225
216 224 235
216 224 235
204 213 221
209 218 227
213 221 231
212 220 229
207 216 226
215 224 235
209 219 228
206 215 223
213 221 231
213 222 233
207 217 228
213 222 232
210 219 228
215 223 233
209 219 228
212 220 230
206 216 224
212 221 232
214 223 233
211 220 231
112 137 96
101 128 77
100 128 77
101 128 77
99 126 76
98 126 75
99 127 76
100 128 76
100 127 76
98 126 76
99 126 75
97 124 74
100 128 77
98 126 76
101 128 77
100 127 76
99 126 76
97 124 74
98 125 74
99 126 76
98 126 76
100 127 76
100 127 76
99 126 76
101 128 77
100 127 77
98 125 74
100 127 76
99 127 77
98 126 76
100 128 77
100 128 78
103 131 78
99 126 76
97 124 74
180 192 190
218 225 234
212 221 230
208 217 226
214 223 233
212 221 231
209 219 229
215 223 234
211 220 229
217 226 236
213 221 231
206 215 224
212 220 228
210 219 229
215 223 233
212 221 230
207 216 224
212 220 227
215 223 233
214 222 231
209 218 226
213 222 234
209 218 226
205 215 223
208 218 227
205 214 221
207 216 224
211 219 227
213 222 231
210 219 228
213 221 230
216 224 234
211 219 229
216 223 232
215 224 236
208 217 227
102 129 78
99 126 76
100 127 76
98 126 76
99 127 75
101 129 77
99 126 76
99 127 76
100 128 77
98 125 75
99 127 76
100 128 77
100 128 77
100 127 76
102 130 78
99 126 75
99 127 76
97 125 75
100 128 77
97 125 74
102 130 78
99 126 75
97 124 75
98 125 75
99 126 76
99 126 75
101 129 77
100 128 77
100 128 76
98 126 76
99 127 76
99 127 77
100 128 77
100 127 75
100 128 77
212 220 228
218 226 236
208 217 225
212 221 230
216 224 235
209 219 228
209 217 225
210 219 230
213 221 229
216 224 235
211 220 230
207 217 225
211 219 227
213 222 231
217 225 234
215 223 233
215 223 233
215 223 233
204 214 222
211 220 228
214 223 233
217 225 234
215 223 232
207 216 224
213 222 230
211 219 229
208 217 226
218 226 236
211 220 230
212 221 231
212 220 227
211 220 230
218 225 234
217 225 236
97 124 75
101 128 77
98 126 75
100 128 77
100 127 76
100 127 76
100 128 77
102 130 78
99 126 76
98 126 75
101 128 77
101 129 77
100 128 77
102 130 78
101 129 78
95 122 72
100 127 76
102 129 77
98 126 75
101 129 77
99 126 76
101 128 76
98 126 75
100 128 77
100 128 77
100 128 77
101 128 77
100 127 76
101 128 77
98 126 76
99 126 76
99 126 75
103 130 78
208 217 222
215 223 233
218 225 235
212 221 229
210 219 226
213 221 229
211 219 229
211 219 228
210 218 227
212 219 227
212 220 228
211 220 229
211 219 228
208 217 227
211 219 228
212 221 230
213 221 231
216 224 234
216 222 228
215 224 235
208 216 224
218 226 235
209 219 228
211 220 229
211 220 230
214 222 230
214 223 232
218 226 236
216 223 231
217 225 234
211 219 226
205 214 222
101 128 77
100 127 76
99 127 76
102 129 77
98 125 75
97 124 75
101 129 77
98 126 75
100 128 77
102 130 78
101 129 78
100 127 76
98 126 75
101 129 77
100 128 77
102 130 78
101 129 78
99 126 75
99 127 77
97 125 75
101 129 78
102 130 77
100 127 75
99 126 76
99 127 76
100 127 76
100 127 76
101 129 78
98 125 74
198 209 214
210 219 228
209 218 227
210 218 226
208 216 224
213 222 232
210 219 226
207 215 222
217 225 236
212 220 229
211 220 229
210 218 228
214 222 231
213 221 229
207 217 227
210 219 229
212 222 232
213 222 231
218 226 235
211 220 229
210 219 228
210 219 227
206 215 221
210 218 227
213 222 231
212 220 228
212 220 230
211 220 229
213 221 229
213 222 233
207 216 225
211 219 228
213 221 230
210 219 227
213 222 232
208 216 224
209 218 227
118 141 109
100 127 76
99 126 75
99 126 76
101 128 77
101 129 78
98 126 75
95 123 73
100 127 77
100 127 77
103 131 79
99 127 76
98 125 75
95 123 73
99 127 76
99 127 76
99 126 75
99 126 75
100 128 76
100 128 77
101 128 77
97 125 75
99 126 76
95 122 73
98 126 75
98 126 75
99 126 75
100 128 77
99 127 76
100 128 77
214 222 231
208 217 226
208 217 226
215 223 233
214 222 233
207 216 224
212 220 229
212 221 230
215 223 232
211 220 229
210 220 230
207 215 222
214 223 232
214 223 233
214 222 231
212 221 230
213 222 231
212 221 231
212 221 231
211 220 228
214 223 232
215 223 233
209 219 229
212 220 229
212 220 228
213 221 231
214 222 232
216 225 234
209 218 226
209 218 227
214 223 232
211 220 228
99 127 76
101 128 77
99 127 77
100 128 76
100 127 76
101 128 77
101 129 78
100 128 77
99 127 76
102 130 78
100 128 77
100 127 77
100 128 77
102 129 77
98 125 75
99 126 75
99 126 76
100 127 76
98 125 75
98 125 75
100 128 77
98 125 75
100 128 77
100 127 76
100 127 76
99 126 76
101 129 77
97 125 76
99 126 76
103 131 79
100 128 77
101 129 77
101 129 78
214 223 233
204 214 223
215 224 236
212 221 232
211 220 232
208 218 228
210 219 229
210 220 231
211 220 230
206 216 225
215 223 232
208 218 226
213 221 229
217 225 236
218 226 235
208 218 228
208 217 226
207 216 225
206 215 223
214 223 232
214 222 230
211 221 230
204 212 219
213 221 231
212 221 229
209 218 228
209 219 228
206 215 224
215 224 235
206 215 224
214 222 231
202 212 222
210 219 229
210 219 227
164 179 168
99 127 76
101 128 76
100 128 77
98 126 75
100 128 77
101 128 76
100 127 76
97 125 75
98 125 75
100 126 75
100 127 77
100 128 77
101 129 77
99 126 76
98 126 76
98 125 75
99 126 75
99 126 76
101 128 77
100 127 75
100 127 76
97 124 74
98 125 75
99 126 76
99 127 76
100 127 76
98 126 76
99 126 75
100 128 77
99 127 76
101 129 78
98 126 76
99 127 76
98 125 75
156 172 155
207 216 223
213 222 232
210 218 226
216 224 233
208 218 227
213 221 229
204 214 223
214 222 231
214 222 231
205 215 222
208 217 226
210 220 229
202 212 220
212 221 230
216 224 234
208 218 226
213 222 231
212 221 230
217 225 234
209 217 225
212 221 229
211 219 226
209 217 226
217 226 238
205 214 223
208 218 227
213 221 230
215 224 233
214 222 229
215 222 230
215 223 231
213 222 232
210 219 228
212 221 229
204 213 219
101 129 77
100 128 76
98 125 74
97 124 74
101 128 77
99 127 76
99 126 75
100 127 76
100 127 76
101 129 77
100 127 76
97 125 75
100 127 77
98 125 75
101 129 77
99 126 75
98 126 75
97 125 75
100 128 77
99 127 77
100 127 76
100 128 77
101 129 77
99 126 76
100 128 76
98 125 74
101 129 77
103 131 79
98 125 75
99 127 77
100 127 77
99 127 76
101 129 77
96 123 74
128 149 119
218 226 236
209 218 227
215 223 234
210 218 226
212 220 229
212 221 230
211 220 228
210 219 228
221 228 238
211 220 229
217 225 234
208 217 226
213 222 231
214 222 231
213 221 229
207 216 225
215 224 235
208 217 226
205 215 224
214 222 231
208 217 226
209 218 226
219 226 234
209 218 226
210 219 229
216 224 235
214 223 233
209 217 226
207 216 223
213 223 234
213 221 229
212 220 229
210 218 227
208 217 226
98 126 75
99 126 75
99 127 77
99 126 76
99 126 75
101 128 76
98 125 75
100 127 77
100 127 76
100 128 77
100 127 76
95 123 73
99 126 76
99 126 75
101 128 76
101 128 77
97 124 74
100 127 76
100 128 77
96 123 74
100 128 77
100 128 77
102 130 78
100 127 76
101 128 77
98 126 76
99 127 76
98 126 75
99 127 76
100 127 76
99 127 76
99 126 75
113 136 98
208 216 224
216 224 236
209 217 225
212 220 228
211 219 228
215 224 235
213 222 231
210 220 229
215 223 234
214 222 233
213 221 230
214 222 232
210 219 229
209 218 226
214 222 232
210 219 227
210 219 227
217 225 234
212 221 229
211 219 227
211 220 230
211 221 231
209 218 227
214 222 230
212 221 231
213 221 228
209 218 228
213 222 233
214 222 230
210 219 229
217 225 234
101 128 76
99 126 76
100 127 76
98 126 75
99 127 76
100 128 77
99 126 75
98 126 76
99 127 76
97 124 74
99 126 76
99 126 76
99 127 76
101 128 77
98 126 76
101 129 78
102 129 77
96 123 74
99 126 76
100 127 76
97 125 75
101 129 77
98 124 74
99 126 75
99 126 75
102 129 78
100 127 76
100 128 76
99 126 75
155 171 157
207 215 224
213 221 229
216 224 235
214 222 231
215 222 231
212 220 229
210 219 227
209 218 227
217 225 234
212 221 230
212 220 229
216 224 234
204 213 222
214 223 233
211 221 231
206 215 224
212 222 233
210 219 228
208 217 226
210 218 227
202 212 221
210 218 227
215 223 232
204 214 221
215 224 233
207 217 228
207 216 223
212 221 231
207 216 223
213 221 231
211 219 226
209 218 226
214 223 231
208 218 228
213 221 230
211 220 229
210 219 227
213 222 231
97 125 75
102 130 78
99 126 76
101 128 77
99 127 76
100 128 76
98 126 75
98 126 75
101 129 77
98 125 75
98 125 75
98 126 75
100 128 77
99 127 76
99 127 76
102 130 78
99 127 76
102 130 78
97 124 75
98 125 75
98 125 75
102 129 78
99 126 76
101 128 76
100 127 76
101 128 77
98 125 75
99 126 76
98 125 74
111 136 93
214 222 230
215 223 232
211 220 230
214 222 231
209 218 228
219 227 236
209 218 227
217 226 238
215 224 235
206 215 222
210 218 227
209 218 227
207 217 227
213 222 233
211 220 228
214 222 230
207 217 224
204 214 223
215 223 234
210 219 228
205 215 225
220 227 236
218 226 236
213 222 232
209 218 228
213 221 230
211 220 231
209 218 228
213 221 229
207 216 224
211 221 233
132 153 127
100 128 77
99 126 75
99 127 77
100 128 77
100 128 77
99 126 76
99 126 75
97 124 75
103 130 78
101 128 77
97 125 75
96 123 74
98 126 76
100 128 78
98 125 75
99 126 76
97 124 74
101 128 77
100 127 76
103 130 78
100 127 76
95 122 72
98 126 75
99 127 75
101 128 77
99 127 76
100 128 77
98 126 76
97 124 74
97 124 74
99 127 76
100 128 76
169 184 178
207 216 225
211 220 231
212 221 231
208 217 225
212 221 230
214 222 232
211 221 232
213 221 231
211 219 229
208 217 225
215 224 235
214 223 233
206 216 225
210 219 228
216 224 234
211 219 227
213 221 231
211 219 227
215 223 230
212 221 230
209 218 226
209 218 227
209 218 227
209 217 225
206 215 224
216 225 235
208 217 226
216 224 234
209 217 225
208 217 227
206 216 224
214 223 233
213 222 233
199 209 214
100 128 77
101 128 76
101 128 77
100 127 76
100 128 76
100 128 77
99 127 76
101 129 78
97 125 75
101 129 78
99 127 76
100 128 77
97 124 74
99 126 75
96 124 74
102 130 78
102 129 77
101 129 77
102 129 78
100 127 76
97 125 75
100 128 77
98 125 75
101 129 77
100 127 76
98 126 76
99 127 76
99 127 76
98 126 76
99 126 76
100 128 76
98 124 74
100 127 76
100 127 77
152 168 151
216 225 236
207 217 228
215 223 233
207 216 225
209 218 228
207 216 226
206 216 226
211 220 228
214 223 234
212 221 229
216 224 233
212 221 230
211 220 230
208 217 223
210 218 226
213 222 230
212 221 230
210 219 228
209 218 227
215 223 231
214 222 230
211 220 230
218 226 237
212 222 232
212 220 229
209 219 229
209 219 228
215 223 233
207 215 221
206 215 224
209 218 227
217 225 234
211 219 226
213 220 228
185 198 199
101 129 78
101 129 77
99 126 74
101 128 76
98 126 75
100 127 75
96 124 74
97 125 75
97 124 74
97 124 74
104 131 78
98 125 75
98 126 76
100 127 76
99 127 76
98 125 75
100 127 76
101 128 77
97 125 75
100 128 77
100 128 77
100 127 76
99 127 76
99 127 76
100 128 77
100 128 77
100 128 77
101 128 77
98 126 75
100 128 76
99 126 76
100 128 76
98 126 75
98 125 75
195 205 208
218 226 235
210 219 228
211 219 228
213 220 227
215 223 231
213 221 231
214 222 230
214 222 233
212 220 230
217 224 233
209 218 227
217 225 234
211 219 226
211 221 231
209 218 227
215 223 234
213 221 231
218 226 235
208 217 226
211 220 230
212 220 229
208 216 222
212 220 229
206 216 226
214 222 232
210 218 227
212 222 232
214 222 231
213 222 233
214 222 231
216 223 230
210 219 228
211 220 231
143 161 143
99 127 76
102 129 78
98 126 75
98 126 75
100 128 77
101 129 78
102 129 78
100 127 77
103 130 77
98 126 76
100 128 76
100 127 76
102 129 78
100 128 76
99 126 75
100 128 77
98 125 75
99 126 76
101 129 77
100 127 77
102 129 77
102 130 78
102 129 77
100 127 76
102 130 78
99 126 75
102 129 77
100 127 77
98 125 75
101 129 78
101 129 77
99 127 76
204 213 217
207 216 224
213 221 230
209 218 226
213 222 232
214 222 232
207 216 225
208 217 225
211 220 229
211 220 228
217 225 237
212 221 229
216 224 233
207 216 224
205 214 221
211 220 229
210 219 228
210 219 229
210 219 228
207 216 224
218 225 233
208 217 227
210 219 230
215 223 233
219 226 237
207 215 221
215 223 233
210 220 230
215 223 232
213 221 229
212 221 229
157 173 158
100 128 77
101 129 77
100 128 77
99 126 75
99 127 75
100 128 76
98 126 76
99 127 76
101 129 77
101 128 77
100 127 76
98 125 75
102 130 77
99 126 76
101 129 78
97 124 74
100 128 77
102 129 77
97 124 75
101 128 77
100 127 76
98 126 75
99 126 75
100 127 76
99 127 76
98 125 75
97 125 74
98 125 75
126 146 114
211 220 229
207 216 223
213 221 230
209 218 227
211 220 230
213 222 234
215 223 233
216 223 232
210 218 225
215 223 232
210 219 229
220 228 239
219 227 236
216 224 232
216 224 233
207 216 224
214 222 231
208 217 225
210 220 230
212 221 232
209 218 226
212 221 232
212 221 229
214 223 233
204 214 221
213 222 233
210 220 232
215 224 235
209 219 231
208 217 225
211 220 228
211 219 228
212 221 230
211 220 229
210 221 233
215 223 232
208 217 225
215 223 233
207 216 225
209 219 227
100 128 76
98 125 75
100 128 77
100 128 77
98 126 75
99 127 76
100 128 77
99 127 75
101 128 76
99 126 76
97 124 74
101 129 77
99 126 75
97 124 74
99 126 75
98 125 75
101 129 77
99 127 76
98 126 75
100 128 77
101 129 77
100 128 76
98 126 76
99 126 75
101 129 78
102 129 77
100 127 76
100 127 76
99 127 76
180 192 188
211 219 228
208 217 226
209 219 228
218 226 236
214 222 231
214 222 231
211 221 231
214 222 231
210 219 226
206 216 226
205 214 224
210 219 230
201 212 221
207 216 225
211 220 231
213 222 232
212 222 233
203 213 221
215 224 234
212 220 229
206 215 223
217 225 233
204 214 221
213 221 229
217 224 233
209 217 225
208 217 226
206 217 226
218 225 235
212 220 228
207 217 226
103 130 78
100 128 77
98 126 75
99 126 76
100 127 76
101 129 78
101 128 77
99 127 76
100 127 75
100 127 76
101 128 77
102 129 77
100 127 76
99 126 75
95 122 74
100 128 76
100 127 76
104 132 79
100 128 76
100 127 76
100 127 76
97 125 75
97 124 74
96 123 74
98 126 76
98 126 75
99 126 76
96 124 74
101 128 77
100 128 77
100 128 77
101 128 77
98 126 75
211 220 229
213 222 231
212 220 230
210 219 229
211 220 230
205 215 223
208 217 227
212 221 231
217 225 234
212 221 229
213 221 230
208 216 223
213 222 232
205 214 222
212 221 232
213 222 233
213 221 230
210 218 226
209 217 225
216 224 233
206 216 224
213 222 232
208 217 226
218 226 236
206 216 225
203 213 222
213 221 231
216 224 233
209 218 226
214 222 231
209 219 228
217 224 233
211 220 230
210 219 230
101 129 78
97 125 75
98 125 74
101 128 76
100 127 76
98 125 75
101 128 77
98 125 74
98 125 75
99 126 75
100 128 77
101 129 78
100 128 76
100 128 76
100 128 77
101 129 77
101 129 77
98 125 75
100 128 76
97 124 74
99 127 77
100 128 77
99 126 76
99 127 76
99 125 75
100 127 76
96 123 74
100 127 76
99 126 75
98 126 75
100 127 76
98 125 75
97 124 74
102 129 78
136 155 131
213 221 229
210 219 229
214 222 231
207 216 223
212 221 229
212 221 230
206 215 225
213 222 231
211 220 230
214 223 233
214 222 231
213 222 231
210 219 227
212 220 228
209 218 228
209 218 227
215 224 234
209 219 230
212 221 230
205 215 224
213 221 229
219 227 237
211 220 229
215 223 234
213 221 227
215 224 234
214 223 233
211 219 227
213 222 231
209 218 226
212 221 230
214 222 230
214 222 230
211 220 229
172 185 180
96 124 74
102 129 78
98 126 75
99 127 76
100 128 77
101 128 77
100 128 77
101 128 77
100 127 76
99 126 76
98 125 74
100 127 76
98 125 75
103 130 78
99 127 76
98 125 76
99 127 76
102 130 78
98 125 74
100 128 77
101 129 77
95 122 72
100 127 76
100 128 77
100 128 76
100 128 77
101 129 78
99 127 76
99 126 76
99 126 76
99 127 76
99 127 76
103 131 79
101 129 77
207 216 224
207 216 225
213 221 230
214 222 231
214 223 232
207 217 226
214 222 231
212 219 227
211 219 227
214 221 229
206 215 221
217 224 234
198 208 214
202 212 220
215 224 235
209 218 227
208 216 223
221 228 236
216 224 232
210 219 230
210 219 227
211 220 231
202 212 220
213 221 229
210 219 229
213 222 231
215 223 232
217 225 235
210 219 229
214 222 230
212 221 230
211 220 229
217 226 236
214 222 233
99 127 76
99 127 76
99 127 76
98 125 74
100 128 78
101 128 77
102 129 78
102 130 78
100 127 76
101 129 77
103 131 79
96 124 74
101 129 77
99 126 76
99 127 75
98 125 75
100 127 76
101 129 78
102 129 78
100 128 77
103 130 78
102 130 78
98 126 76
102 129 78
100 127 76
99 125 74
100 127 76
99 126 75
98 126 76
101 129 77
100 128 77
100 127 76
127 148 118
218 225 234
216 224 234
213 222 233
211 220 230
214 223 233
216 224 234
217 224 233
216 224 234
211 220 230
215 223 232
206 215 223
212 220 227
216 223 232
211 220 228
218 225 233
210 219 229
214 222 231
211 220 229
209 218 227
209 217 224
215 224 234
206 215 223
209 217 224
216 225 237
209 218 226
206 215 224
207 216 224
213 221 230
216 224 233
217 225 234
207 216 223
96 123 74
97 124 73
99 126 75
101 128 77
98 126 76
100 127 76
101 129 78
101 129 78
101 128 77
102 129 78
100 127 76
99 127 76
101 129 77
102 129 77
101 129 77
99 126 75
100 127 76
102 130 79
101 128 77
100 128 77
100 128 76
100 127 77
96 124 74
101 128 77
97 125 75
102 129 77
100 127 76
101 129 77
100 128 76
215 223 234
210 219 229
212 220 229
215 224 233
210 219 228
213 221 228
213 221 229
215 224 235
210 220 230
214 221 230
209 218 228
212 220 229
213 221 229
208 217 225
210 218 226
212 220 228
215 223 231
210 219 227
213 222 232
213 222 232
208 217 224
211 220 228
216 224 235
208 217 225
208 217 227
212 220 229
214 222 229
211 220 231
211 220 228
214 223 233
211 220 230
210 219 228
217 225 234
215 223 232
208 217 226
213 222 230
217 225 236
210 219 227
208 218 227
209 217 224
210 219 228
175 189 184
99 127 76
96 123 73
97 124 74
100 128 76
100 128 77
101 128 77
97 124 74
99 127 76
100 128 77
100 127 77
98 126 76
100 127 76
100 127 76
100 127 76
97 124 74
100 127 76
102 130 78
98 126 75
100 127 76
98 125 75
99 127 76
100 128 77
100 128 77
97 124 74
101 128 77
96 124 74
94 121 73
100 128 77
99 127 76
210 219 228
209 217 224
211 220 228
216 225 235
210 218 227
211 220 228
211 220 229
211 220 228
208 217 227
208 218 227
212 220 229
208 217 225
213 221 230
215 224 235
208 217 226
210 220 230
207 217 225
209 218 226
212 220 229
211 220 230
211 220 229
203 213 220
214 223 234
218 226 236
208 217 226
212 221 229
213 223 235
213 221 231
208 217 226
213 221 229
212 220 229
141 159 141
98 125 75
99 126 76
97 124 74
99 126 76
99 126 76
98 126 75
99 126 76
94 122 74
102 129 78
97 124 74
97 124 74
99 127 77
97 124 74
98 126 76
100 128 77
101 129 77
99 127 76
101 129 78
102 130 78
101 128 77
98 125 75
100 127 76
100 127 77
98 126 75
100 127 76
101 129 77
100 128 77
99 126 76
102 130 78
100 128 76
99 126 75
99 126 76
211 219 227
208 217 226
214 222 233
219 226 234
211 220 229
207 216 223
214 222 232
212 220 228
210 220 230
213 221 230
212 221 232
213 221 231
210 219 228
206 216 226
211 220 230
213 222 231
210 219 228
203 212 219
207 216 225
208 217 226
212 220 227
212 221 231
210 219 228
211 220 230
209 218 227
205 215 223
207 216 225
212 221 230
213 222 232
208 218 228
212 221 230
207 217 226
212 220 229
213 222 232
101 128 77
100 127 75
99 127 76
98 126 76
100 128 77
100 128 77
100 128 77
100 128 77
98 126 75
97 125 75
101 128 77
100 127 77
102 129 78
102 129 78
96 123 74
99 127 76
101 128 77
102 129 78
101 129 78
102 129 78
101 128 76
97 124 74
99 127 76
98 125 75
101 128 77
101 129 77
100 127 75
101 129 77
100 127 76
98 125 75
102 130 78
100 128 77
101 129 78
100 128 76
128 148 121
212 221 231
209 218 227
212 221 231
214 222 232
210 219 228
212 220 229
214 223 232
209 219 229
209 218 227
215 223 234
212 221 230
207 216 224
211 220 230
211 220 230
212 221 231
210 219 227
211 220 229
209 217 226
211 220 231
208 217 225
213 221 229
214 222 231
213 222 232
213 221 230
207 216 223
214 222 232
217 225 235
213 221 229
212 221 230
210 219 230
210 219 228
210 219 228
212 221 231
213 222 231
150 167 150
100 127 77
100 128 77
101 128 77
100 127 77
99 126 75
102 129 77
99 127 76
101 129 77
101 129 77
98 126 75
101 129 77
98 126 75
96 123 74
98 126 76
100 127 76
100 128 77
99 126 75
98 126 75
98 126 76
100 127 76
101 128 77
102 130 78
99 127 76
99 127 76
100 128 76
99 127 77
97 124 74
101 129 78
98 126 75
101 128 77
100 128 77
100 127 76
99 127 76
98 126 75
214 222 230
211 220 229
217 225 234
209 218 227
209 218 226
213 221 229
211 221 232
208 217 226
209 217 224
209 218 226
207 217 227
203 212 218
211 220 228
211 220 228
216 224 235
212 221 231
212 221 229
212 221 231
208 218 228
212 221 232
214 221 230
206 215 223
211 220 228
217 225 235
216 225 234
209 218 228
220 228 238
212 221 230
212 221 229
206 214 220
216 224 232
208 217 224
214 223 233
188 199 200
100 127 76
99 126 76
98 126 75
99 127 76
100 127 76
100 128 76
101 129 77
100 127 76
102 129 77
101 129 77
101 128 77
98 125 75
98 125 75
101 128 76
99 126 75
100 127 76
99 126 76
99 127 76
101 128 77
100 128 77
98 125 75
98 125 75
99 127 76
99 127 76
99 127 76
100 128 77
100 127 76
102 129 77
101 129 77
99 127 77
101 128 76
101 128 77
217 224 232
216 224 234
213 221 231
207 216 225
211 218 226
217 225 234
213 222 232
208 218 226
214 223 232
214 223 232
216 224 232
216 224 235
214 222 230
213 221 231
214 223 232
214 223 233
213 221 230
210 219 229
212 221 230
213 221 230
213 221 230
216 224 233
208 217 227
212 220 227
212 220 229
212 220 228
216 224 233
214 223 233
204 214 223
209 219 229
209 219 229
100 127 76
100 127 77
98 125 74
100 128 77
101 129 78
100 128 76
100 128 77
100 128 77
101 129 77
100 128 76
101 128 77
101 128 77
99 126 75
99 127 76
98 126 75
99 126 75
99 126 75
97 124 74
98 126 75
102 129 77
101 128 77
101 128 77
100 127 77
99 126 75
101 128 76
96 123 73
101 129 78
101 128 77
100 128 77
205 215 222
214 222 229
217 225 235
216 224 234
213 221 230
206 215 223
209 219 229
204 213 222
217 225 235
206 215 222
211 220 228
211 220 229
206 215 223
203 214 223
210 220 230
213 222 230
206 216 224
209 218 228
212 221 232
211 220 230
210 219 230
206 215 224
202 212 219
214 222 231
206 216 227
210 219 226
208 217 226
208 217 226
211 219 226
214 222 231
209 217 225
211 219 227
207 216 224
211 220 229
216 223 231
215 223 232
202 212 220
209 218 226
217 225 235
213 221 232
208 218 228
210 219 227
208 217 227
125 146 118
99 126 76
99 127 75
98 125 75
99 126 75
100 127 76
98 125 74
98 125 75
100 128 76
98 126 76
98 126 75
99 126 75
96 124 74
97 124 74
100 128 77
99 126 76
101 128 76
101 129 78
99 126 75
98 125 74
101 128 77
102 130 78
100 127 76
99 127 76
99 127 77
99 126 76
101 129 78
100 127 77
100 127 76
131 151 127
212 221 230
219 227 237
210 219 229
214 222 231
212 221 231
208 218 228
211 220 227
213 221 230
208 217 225
209 218 226
215 224 233
211 219 227
212 220 228
206 215 223
209 218 228
208 217 225
214 222 232
211 220 228
209 218 228
215 223 231
207 217 226
210 219 227
208 217 226
218 226 236
207 217 227
215 223 234
212 221 231
207 216 224
213 222 234
213 222 231
202 210 215
98 125 75
98 126 75
100 127 76
101 129 77
99 126 75
101 128 77
99 127 77
101 128 77
99 127 76
97 125 75
96 124 74
97 124 74
102 129 77
97 125 75
97 125 75
100 128 76
100 128 77
99 127 76
99 126 76
99 126 76
100 127 77
99 127 76
101 128 76
98 125 74
101 128 77
100 127 77
101 128 77
99 127 76
98 124 74
99 127 77
99 127 76
97 125 75
145 162 144
210 219 228
206 215 223
211 220 230
214 223 233
211 219 228
210 219 227
208 218 227
204 214 223
211 219 228
214 223 233
212 221 232
204 213 222
210 218 225
209 219 230
207 216 225
207 216 224
205 214 221
214 222 233
215 223 233
213 222 231
210 218 227
212 221 232
209 218 227
216 225 234
209 218 227
215 224 235
211 219 228
207 215 221
210 219 228
207 216 226
215 223 231
215 224 234
209 218 226
120 143 108
97 124 75
97 125 75
98 125 75
102 129 78
99 126 75
96 123 73
100 127 76
98 125 75
102 130 78
100 127 76
96 123 73
95 122 74
98 126 75
96 124 74
100 127 76
98 125 75
98 125 75
100 128 77
102 129 77
101 128 77
100 128 76
100 127 76
101 129 77
102 129 77
101 128 77
100 128 76
99 127 76
101 129 77
100 127 75
99 126 76
99 127 76
99 126 75
99 127 76
104 131 84
210 219 227
216 224 235
213 222 231
205 215 223
210 219 229
210 219 228
213 221 231
212 220 230
210 218 227
209 218 226
213 221 229
209 218 227
208 217 227
212 221 230
214 222 232
205 214 221
215 223 231
215 223 234
210 218 227
211 220 229
213 222 231
212 221 230
211 220 229
209 218 226
208 217 226
210 218 226
214 223 231
212 221 231
217 225 235
211 220 228
209 217 224
211 219 228
213 221 229
210 218 226
135 154 131
97 124 74
101 129 77
99 127 77
97 124 75
102 130 78
102 129 78
97 125 75
101 128 78
99 127 77
100 127 76
96 124 74
103 130 78
99 126 76
99 127 76
101 128 77
96 124 74
98 125 75
98 125 75
98 126 76
101 128 76
101 129 78
100 128 77
100 128 76
100 128 77
101 129 77
99 126 76
101 128 77
102 129 77
102 129 77
100 127 76
98 125 74
99 126 76
99 127 76
131 151 123
212 221 229
209 219 230
209 218 228
208 217 227
203 213 221
217 225 235
214 223 234
212 220 230
211 219 227
217 226 237
213 221 231
213 222 231
217 225 235
209 218 227
211 220 228
213 221 228
209 218 227
212 220 227
213 222 231
214 222 232
213 222 231
212 221 230
218 226 236
210 219 227
211 220 228
212 221 231
212 221 230
210 219 229
213 221 231
212 220 229
205 215 223
218 226 235
213 221 231
103 130 80
101 129 78
100 127 76
100 127 76
97 124 73
98 126 76
97 124 73
101 129 77
101 128 77
101 129 77
100 128 77
99 126 75
98 126 76
99 126 75
99 126 75
97 124 74
100 127 76
103 131 78
100 127 76
102 129 78
100 127 76
98 125 75
97 125 75
101 129 78
99 127 77
101 129 77
101 128 77
100 127 76
100 127 76
102 129 78
103 131 78
101 128 76
135 155 129
211 219 227
206 215 224
211 220 229
211 219 229
215 223 232
213 221 229
212 221 230
209 217 223
216 225 235
212 220 228
211 219 228
212 220 228
208 217 225
203 212 219
208 218 227
217 225 235
211 220 229
212 220 228
218 226 236
209 218 225
213 221 229
210 219 230
210 219 227
213 222 231
209 218 226
214 222 230
210 219 228
217 224 232
210 219 230
208 216 224
148 165 148
98 125 74
99 126 76
100 128 77
99 126 75
100 127 76
102 129 78
101 129 77
100 127 76
100 128 77
100 128 76
99 127 76
98 125 75
102 130 78
97 125 75
99 127 76
101 129 77
103 131 78
102 130 79
101 129 77
96 124 74
100 127 76
102 129 77
99 127 76
99 127 77
97 125 74
100 128 77
101 129 78
100 127 77
188 199 197
208 216 225
209 219 231
216 225 235
216 223 230
216 224 234
204 213 219
218 226 235
211 219 228
213 222 231
216 223 232
211 219 228
212 221 229
213 222 232
214 222 231
207 217 226
212 220 228
212 220 229
215 223 232
208 217 225
210 219 226
209 219 227
207 217 224
204 213 220
195 205 208
207 217 225
208 217 224
197 208 213
197 207 212
206 215 221
200 210 215
198 208 213
200 210 217
197 208 212
195 207 214
198 207 209
191 202 204
191 202 207
193 204 204
183 194 193
194 205 208
190 201 201
192 203 203
179 191 186
183 195 195
146 163 145
156 171 157
149 167 152
140 159 137
143 162 144
155 171 157
153 170 154
153 170 155
158 173 161
161 176 165
145 162 144
155 171 159
156 172 160
165 180 171
155 171 157
163 179 171
157 173 161
170 184 179
162 177 169
157 173 163
160 175 163
163 177 167
166 180 171
163 178 169
172 185 176
178 191 189
173 187 185
187 198 197
166 181 175
166 180 173
153 169 153
155 171 157
155 171 157
151 168 153
159 174 161
145 162 142
151 168 151
150 167 151
152 168 154
150 167 151
147 165 149
148 164 145
150 167 150
140 158 137
149 164 147
127 148 122
135 154 131
144 162 143
145 163 144
140 159 137
137 155 131
132 153 127
143 161 141
133 152 127
136 156 135
136 156 133
142 159 139
136 156 132
129 149 123
136 155 131
172 185 181
199 209 213
196 207 211
198 208 213
194 205 208
196 207 211
200 210 215
188 200 203
202 211 215
191 202 205
192 203 203
203 213 221
201 210 215
202 212 220
195 206 211
200 210 215
210 219 225
206 214 219
202 213 220
205 214 221
203 212 217
199 210 217
207 217 224
206 215 224
209 218 226
213 222 231
206 214 219
204 213 218
208 216 223
201 211 217
203 212 218
201 211 217
207 216 221
110 135 94
104 130 85
103 129 82
105 131 83
101 128 80
105 131 86
101 128 79
97 124 74
97 124 74
100 127 76
98 126 75
100 127 76
99 126 76
99 126 76
99 127 76
98 125 75
98 126 76
97 124 74
100 128 76
103 130 78
102 130 79
100 128 77
99 126 75
99 127 77
100 128 77
99 126 75
98 126 76
100 127 76
102 130 78
100 127 77
101 129 77
99 127 76
99 127 76
144 161 142
208 218 228
208 217 226
211 220 231
217 224 233
216 223 232
210 219 229
216 224 233
212 221 232
213 221 229
211 220 229
209 218 227
205 215 225
215 223 231
210 219 229
216 224 234
215 223 234
217 226 237
216 224 231
215 223 233
210 219 227
214 223 234
212 220 226
213 222 232
209 218 228
210 219 228
208 217 225
210 219 228
202 212 221
215 224 233
211 220 228
211 219 229
208 218 226
209 218 225
213 222 230
97 123 73
100 128 77
101 129 78
102 129 78
97 123 73
97 124 74
99 126 76
101 129 77
100 127 76
98 125 75
98 125 75
99 127 76
102 129 77
99 126 76
100 127 77
100 128 76
100 128 77
99 126 75
99 126 75
99 126 75
101 128 77
99 126 76
95 123 74
97 125 75
99 126 74
100 127 76
100 127 76
99 127 76
98 126 75
99 126 76
100 127 76
96 124 74
97 124 74
99 127 76
208 217 224
212 221 231
217 225 233
213 222 231
206 215 222
210 219 228
216 224 232
209 219 228
210 219 229
213 221 231
209 219 229
212 221 230
216 224 234
210 220 230
213 221 230
211 220 227
217 224 233
213 221 230
213 221 230
214 222 232
210 218 224
211 219 228
210 219 227
211 219 229
211 220 228
213 222 231
207 216 224
216 223 232
206 215 223
216 224 234
212 220 228
219 226 236
211 219 228
209 218 227
147 164 145
100 128 77
100 128 76
100 128 76
99 126 76
101 128 76
98 126 76
99 126 75
99 127 76
94 121 72
98 125 75
101 129 78
97 124 74
100 127 77
100 127 77
99 126 76
99 127 76
97 125 75
99 126 78
106 132 84
102 129 80
100 127 76
101 127 79
108 132 88
105 131 86
100 127 76
101 127 83
102 129 79
104 131 81
113 138 98
114 138 100
115 139 98
111 136 95
104 129 84
208 217 224
212 220 227
204 213 220
206 215 223
193 203 205
203 213 220
202 211 216
198 209 217
200 210 216
205 215 223
198 208 213
204 214 220
195 205 208
196 208 216
200 210 215
200 210 213
198 208 214
202 212 216
193 205 207
204 214 220
193 203 205
194 204 206
201 211 217
196 206 209
191 201 200
191 203 205
192 203 204
188 200 202
196 205 207
190 201 201
193 203 208
184 196 195
139 158 135
132 151 125
145 162 143
138 157 134
146 164 145
141 159 140
136 154 129
143 161 139
146 163 144
147 165 147
153 168 153
142 160 141
136 154 132
150 167 149
132 151 126
158 174 160
139 158 134
145 162 146
157 172 160
155 171 159
163 178 165
161 176 166
156 172 160
155 171 157
161 175 163
150 167 150
169 183 174
159 174 162
152 167 152
164 178 169
168 182 174
163 178 169
166 181 172
161 176 165
176 189 187
164 179 172
164 178 169
160 175 163
155 172 158
154 170 155
151 167 153
155 171 158
150 167 150
151 168 155
150 167 150
168 181 170
149 166 151
156 172 159
140 158 140
140 158 138
133 153 127
142 161 142
148 165 148
146 163 144
157 173 159
149 166 150
147 164 145
133 151 126
131 152 125
145 164 145
196 206 207
195 205 206
188 199 201
191 203 205
198 207 211
206 216 224
199 208 211
205 214 220
204 214 221
206 216 222
207 216 223
209 217 224
204 213 218
197 208 213
206 215 221
209 216 223
211 219 228
206 215 223
209 218 226
98 125 75
100 128 77
98 126 76
97 124 74
97 125 75
99 127 76
99 126 75
97 124 75
98 126 75
99 126 75
98 125 75
98 125 75
98 126 75
99 127 76
99 126 76
101 128 77
96 123 74
95 123 74
99 126 75
100 128 77
96 123 73
98 125 74
97 125 75
98 125 74
100 128 77
101 128 77
106 132 87
213 222 232
212 221 230
216 224 232
213 221 230
211 220 229
210 219 229
205 215 224
206 215 223
215 223 233
212 221 232
204 214 223
210 219 227
216 224 234
216 224 232
210 219 227
215 224 235
212 220 227
215 223 231
215 223 232
210 219 228
213 221 229
215 223 233
209 218 227
209 219 228
212 221 230
209 218 229
204 214 222
204 214 222
209 218 228
100 127 76
98 125 74
98 125 75
99 126 76
99 126 75
99 127 76
98 126 76
100 127 76
98 125 75
99 126 76
98 125 75
97 124 74
102 129 78
99 127 76
98 125 75
98 126 76
101 129 77
100 127 76
99 126 75
100 128 77
101 128 76
99 127 76
97 125 75
99 126 76
99 126 76
98 126 75
101 128 77
97 125 75
95 122 73
98 126 76
100 127 76
216 225 235
214 222 231
212 221 231
208 217 226
209 219 229
208 217 225
208 217 225
210 219 227
216 224 233
210 219 228
210 219 227
207 217 226
216 225 236
212 221 231
213 222 231
216 224 233
213 222 231
211 220 231
202 212 220
217 226 237
212 220 228
216 225 236
213 222 233
208 217 226
210 219 228
210 219 228
209 217 226
207 216 225
212 221 229
213 222 231
214 223 232
213 222 231
112 137 93
96 124 73
101 129 77
100 128 76
101 129 77
101 128 77
96 123 74
100 127 77
101 129 77
99 126 75
98 126 75
100 127 76
102 129 77
98 126 75
99 127 76
99 126 76
102 129 77
97 124 74
99 126 76
99 126 76
100 128 77
101 128 77
98 126 76
100 128 76
100 127 76
100 127 76
98 126 76
97 124 75
98 126 76
100 128 76
99 127 76
98 126 75
100 127 76
103 129 83
213 221 230
209 217 224
215 223 232
216 224 234
209 218 227
211 220 229
208 217 226
214 222 230
215 223 233
203 213 221
212 221 230
206 215 223
215 223 232
209 219 229
214 222 231
205 215 224
212 221 230
212 220 229
215 223 233
207 216 224
205 216 226
203 214 223
212 221 230
211 220 230
209 219 229
209 219 229
212 221 230
214 222 231
212 220 230
209 219 228
205 216 225
210 220 230
205 215 223
208 218 229
99 126 76
99 127 76
101 129 78
99 126 75
96 123 73
102 130 78
100 128 77
100 128 77
100 127 76
102 129 77
96 123 74
102 130 78
96 123 73
100 127 76
99 126 75
99 127 76
98 126 76
102 129 78
100 127 77
99 127 76
100 127 76
99 127 76
100 128 77
100 128 77
98 126 75
101 128 77
100 128 77
100 127 76
99 127 76
101 128 77
101 129 78
98 126 76
99 126 75
95 122 72
207 217 226
210 219 228
208 217 225
216 224 233
212 221 230
206 215 222
212 221 230
210 218 226
211 220 230
211 219 228
215 224 234
212 221 229
216 225 236
212 221 232
211 219 227
207 216 226
212 220 230
211 220 231
209 218 227
211 220 228
206 216 225
218 226 235
206 216 226
212 221 231
215 223 232
209 219 228
207 216 225
212 222 232
207 216 225
211 220 229
215 223 233
218 226 235
209 218 227
215 223 231
97 125 75
100 127 76
98 125 75
101 129 78
102 130 78
98 125 75
99 126 75
99 127 76
101 129 77
99 126 76
100 127 76
100 128 77
99 127 75
100 128 76
99 126 75
100 128 77
101 128 77
101 128 77
99 127 76
98 125 74
100 128 77
99 127 76
99 127 76
101 129 77
95 122 72
102 130 78
102 130 78
97 124 74
99 126 76
99 126 75
99 126 75
97 125 75
97 124 74
181 194 190
211 219 227
217 225 236
205 214 221
205 214 221
211 220 228
213 221 229
211 220 230
207 215 222
211 219 228
210 219 229
217 225 234
202 211 216
212 220 229
207 216 225
205 213 219
212 221 229
215 224 234
211 219 227
213 222 232
216 224 232
214 223 231
211 219 229
214 223 233
214 222 231
216 224 232
214 223 233
212 220 228
212 220 227
211 220 228
217 225 232
213 221 230
181 193 189
98 125 75
100 128 77
99 127 76
100 127 76
101 128 77
99 126 76
98 126 76
99 126 75
101 129 77
101 128 77
97 125 75
101 129 78
97 125 75
99 126 76
102 129 77
100 128 77
99 127 76
99 126 75
97 125 75
100 127 76
100 127 77
99 127 76
99 127 76
102 129 77
102 130 78
101 128 77
100 127 76
99 126 75
99 126 75
100 127 76
216 224 231
214 221 228
212 221 231
213 221 229
212 220 227
211 219 226
211 219 228
212 221 230
216 224 232
212 220 229
216 224 235
212 220 228
210 219 228
210 218 227
209 217 225
207 216 224
207 217 225
210 219 228
209 217 224
208 218 227
210 218 225
212 220 228
210 219 229
208 216 224
216 224 233
213 222 231
216 224 233
206 214 221
210 218 225
100 128 77
101 128 77
101 128 77
100 128 76
101 128 76
101 129 77
100 127 76
101 128 76
101 128 76
98 125 75
103 131 79
100 127 76
101 129 77
104 131 79
100 127 76
98 126 76
98 125 75
99 127 76
99 126 75
102 130 78
190 202 205
100 128 77
100 127 76
101 129 77
100 128 76
97 124 74
100 127 77
100 128 77
98 125 75
99 127 76
97 124 74
98 126 76
102 129 78
102 130 78
100 127 76
100 127 76
98 126 75
101 128 77
99 127 76
99 127 76
96 124 75
99 127 76
100 127 77
97 125 75
100 128 76
99 127 76
101 128 77
136 156 133
202 211 218
210 219 226
214 222 231
216 225 235
205 214 221
207 216 224
205 215 223
212 221 230
211 219 228
212 221 229
207 216 224
206 216 226
217 226 236
208 217 226
214 222 232
204 214 222
209 217 224
208 218 227
209 219 229
208 217 225
210 218 227
215 224 235
214 223 234
211 219 228
214 222 232
211 220 228
210 220 230
211 220 228
190 200 200
99 127 76
99 127 76
98 125 75
98 125 75
99 126 75
96 124 74
98 126 76
99 126 76
99 126 76
98 125 74
100 127 76
101 129 78
100 128 77
99 127 76
101 129 77
100 127 77
102 130 78
99 127 76
97 125 75
98 126 75
100 127 76
100 127 76
98 125 75
97 125 75
98 125 75
99 126 76
101 128 76
102 129 77
100 128 77
95 122 73
187 199 201
203 213 220
212 220 230
206 215 223
216 223 230
210 218 227
210 219 227
213 221 230
211 219 226
204 214 222
212 221 231
211 220 228
214 222 230
212 221 230
211 220 229
212 220 228
216 224 233
209 218 226
208 217 225
210 219 229
214 223 233
215 223 233
212 220 230
216 224 235
213 221 230
207 217 226
208 217 225
214 222 231
214 223 233
211 219 228
212 220 229
210 219 230
204 213 218
96 124 74
99 127 76
100 128 76
99 126 75
98 125 75
99 127 76
99 127 76
102 130 78
98 126 76
101 128 77
98 125 75
98 126 76
102 129 77
98 126 75
98 126 76
100 127 76
100 127 76
98 125 75
100 127 76
97 125 74
101 129 78
99 126 75
99 126 76
98 125 75
99 127 77
101 128 77
100 127 76
97 125 75
99 126 75
98 126 75
98 126 76
101 129 77
100 128 76
213 221 231
215 223 234
212 221 230
213 221 230
216 224 234
214 222 231
209 218 226
207 216 223
209 218 227
210 218 226
211 219 227
211 219 227
212 221 232
214 222 231
212 221 230
212 221 230
210 220 230
212 220 227
216 223 231
210 219 227
213 221 230
213 221 231
213 221 231
212 220 228
212 221 232
208 217 225
207 216 224
212 221 231
213 222 230
208 217 224
212 220 229
208 218 227
212 220 229
209 218 228
98 125 75
96 123 73
101 128 77
99 127 76
100 128 77
101 129 77
98 125 75
99 126 75
98 125 74
95 122 73
101 129 77
99 126 76
99 127 76
100 128 77
99 127 76
100 127 75
99 127 76
102 129 78
97 124 74
101 129 77
100 127 77
96 124 74
98 125 75
98 125 75
99 126 76
101 128 77
101 129 78
98 126 76
98 125 76
99 127 76
99 127 76
101 129 78
100 128 77
100 127 76
207 217 226
213 221 229
210 219 228
211 220 229
208 217 225
207 217 227
214 222 232
212 221 230
205 214 221
213 221 230
210 220 231
210 219 228
217 226 236
210 219 228
213 220 228
213 222 232
212 221 230
217 224 233
209 218 227
216 225 236
216 224 234
204 213 222
206 216 226
210 219 228
207 216 224
211 221 231
209 218 227
218 226 236
207 216 223
207 217 227
212 220 228
209 219 229
212 221 229
209 218 228
99 126 75
99 126 75
98 126 76
101 128 76
100 128 77
99 126 76
99 126 75
97 124 74
99 127 76
97 124 74
99 126 75
100 127 76
99 127 77
98 126 75
102 129 77
100 127 76
99 126 75
97 125 75
97 124 74
96 123 73
100 127 76
100 128 77
101 129 78
98 125 75
98 125 75
100 127 76
99 126 76
103 130 78
100 128 76
99 126 75
99 126 76
100 128 77
99 127 76
212 221 229
218 226 236
212 221 231
215 223 233
212 220 228
213 221 229
215 224 234
206 215 223
218 226 235
216 225 236
210 219 228
212 220 230
208 217 226
209 218 226
207 217 227
206 215 225
213 223 234
213 222 230
210 219 229
206 214 219
208 218 228
214 222 230
208 217 226
213 222 230
210 220 230
211 219 228
216 225 235
212 221 229
204 214 224
211 220 229
215 224 233
212 220 229
99 126 76
99 127 76
101 129 77
102 129 77
101 129 77
100 128 77
99 126 75
98 126 75
99 126 75
99 126 75
98 125 75
100 128 76
101 129 77
97 125 74
101 128 76
97 125 75
101 129 77
100 127 76
100 128 77
100 127 76
97 124 74
99 126 76
100 128 77
101 128 77
98 125 74
101 129 78
97 124 74
101 128 77
99 126 75
99 126 75
171 185 179
215 223 233
217 225 234
212 220 227
206 215 222
207 216 224
207 216 225
213 221 228
209 218 227
214 222 229
208 217 225
209 217 225
216 224 234
209 217 224
212 220 228
214 223 233
203 213 221
216 224 235
208 217 226
209 218 224
214 222 231
214 223 234
212 220 228
215 224 234
209 219 230
215 223 233
215 223 232
215 223 233
214 222 230
100 127 75
99 127 76
99 127 77
98 125 75
98 126 75
100 127 76
100 128 77
101 128 76
99 126 75
101 128 77
99 126 76
100 127 76
98 125 74
99 126 76
102 130 78
100 127 76
98 125 75
99 126 75
100 127 76
99 126 75
100 127 76
220 227 238
190 201 203
98 126 76
99 126 76
96 123 74
96 123 74
97 124 74
98 125 75
100 128 77
98 126 76
100 127 77
97 124 75
99 127 76
100 128 76
96 124 74
98 125 75
100 127 76
100 127 76
97 124 74
100 128 77
102 130 78
95 122 73
100 127 76
98 125 75
100 127 77
101 129 77
100 127 76
99 127 76
183 195 195
214 221 230
211 220 229
205 214 221
217 226 236
210 219 227
205 214 222
208 218 226
212 221 232
212 220 229
207 217 226
208 217 228
213 221 229
208 217 226
211 220 230
211 220 228
213 221 230
206 216 225
201 211 221
213 222 232
208 218 228
210 219 229
208 218 229
214 222 232
212 221 231
212 220 229
211 220 228
210 219 229
209 218 228
112 137 96
100 128 77
100 127 76
98 125 75
101 129 77
98 126 75
98 125 74
99 126 75
100 128 76
97 125 75
101 128 77
100 128 77
102 130 78
99 126 76
98 125 75
99 127 76
102 129 77
100 127 76
99 127 76
97 125 75
101 128 77
99 126 76
97 124 74
99 126 75
100 128 77
101 129 78
100 127 76
101 129 78
99 126 76
98 125 74
98 125 75
215 223 231
213 221 229
206 215 223
212 221 231
212 222 233
216 223 232
213 221 230
211 219 228
211 220 228
219 226 236
214 222 231
213 222 232
211 220 230
211 220 229
212 221 230
209 219 230
207 216 224
216 225 234
214 222 232
210 219 228
217 224 231
215 223 233
218 226 236
207 217 227
216 224 233
213 221 230
207 217 225
215 223 233
209 218 225
204 214 223
207 216 226
212 221 231
102 130 78
99 127 76
99 126 76
98 125 75
99 126 75
97 125 75
99 126 75
102 129 77
102 130 78
99 126 76
97 124 74
99 127 76
96 123 74
101 129 78
97 124 74
98 126 76
100 127 76
99 127 76
100 128 77
98 125 75
101 128 77
99 127 77
98 125 76
98 125 74
97 124 75
96 123 74
99 126 75
101 129 77
101 128 77
99 127 76
101 128 77
101 128 77
97 125 75
208 217 226
212 221 230
212 221 229
214 223 233
211 219 228
211 220 231
219 226 236
210 219 227
210 219 229
211 220 229
216 225 235
212 221 230
213 222 232
210 219 228
209 218 227
212 221 230
212 221 231
215 223 231
209 217 224
207 217 226
214 222 230
213 221 229
207 217 226
213 221 231
212 221 230
215 223 232
214 222 232
214 223 233
208 217 225
210 218 225
212 221 230
211 220 229
212 221 231
211 219 228
97 124 74
100 128 77
99 126 76
98 126 76
97 125 75
101 128 77
102 130 78
99 126 76
97 124 74
97 125 75
98 125 74
97 124 74
98 125 75
98 125 75
97 124 74
99 126 76
98 125 76
98 125 75
100 127 76
98 126 75
101 128 77
100 127 76
101 129 78
99 126 76
101 128 77
100 128 76
101 128 76
99 127 76
100 128 77
99 127 76
99 127 76
100 127 76
99 126 76
97 124 73
205 215 224
215 223 231
210 218 226
210 219 229
211 220 230
214 222 230
215 224 234
205 214 219
210 219 228
219 227 236
208 217 225
208 217 225
212 220 228
212 221 232
208 217 226
214 222 231
209 217 226
205 214 220
206 214 220
211 219 228
212 220 231
209 218 227
207 216 223
208 217 225
218 225 234
218 226 237
218 226 235
213 221 229
208 218 227
208 217 225
216 224 233
210 219 228
210 218 227
195 205 207
99 127 76
100 128 77
99 126 75
101 128 77
98 126 76
100 128 77
98 125 75
100 127 76
99 126 75
100 128 76
99 126 75
96 123 74
96 123 74
100 127 76
100 128 77
99 127 76
98 125 75
99 127 76
100 127 76
101 128 77
99 126 75
99 127 77
101 128 77
100 128 77
98 125 74
101 128 76
98 126 76
100 127 76
98 125 75
102 130 77
101 129 77
101 129 78
131 152 124
202 212 219
216 224 234
210 219 227
211 220 229
212 220 228
209 217 224
212 220 229
204 214 221
210 219 227
211 219 227
209 218 227
205 215 226
211 220 228
217 225 235
214 223 233
218 226 235
206 216 226
212 220 230
211 220 230
209 218 226
211 219 228
210 219 228
212 220 228
210 219 228
213 222 231
213 222 231
210 219 228
208 218 228
217 224 233
211 220 229
201 211 218
157 172 158
99 127 76
101 128 76
103 131 79
99 126 75
99 127 76
100 128 77
101 128 77
101 129 77
98 125 75
103 131 78
99 126 75
101 128 77
98 125 75
98 125 75
100 127 76
100 128 78
100 128 76
99 126 75
100 128 77
101 129 78
99 126 76
97 125 75
99 126 75
100 127 76
101 128 76
99 126 76
101 129 77
100 128 77
104 131 79
120 143 108
215 223 232
212 221 231
210 219 229
213 222 233
211 220 231
209 218 226
215 222 230
213 221 228
216 224 232
208 217 225
212 220 228
212 221 231
214 222 232
210 219 227
212 221 231
204 212 220
213 221 228
209 219 228
210 218 227
215 223 231
209 218 225
215 223 232
218 225 234
214 222 231
215 223 231
216 224 233
213 222 230
209 217 225
110 136 93
101 128 77
102 129 77
98 126 75
100 128 77
99 126 76
100 128 76
102 129 78
99 126 75
103 131 78
100 128 77
98 126 75
99 127 76
100 128 77
101 129 78
98 126 76
102 130 78
99 126 76
98 126 75
101 129 77
99 127 76
102 129 77
207 216 225
207 216 225
173 187 183
95 122 74
97 124 74
98 126 76
100 128 77
99 127 76
98 126 76
101 128 76
99 127 76
100 128 77
100 127 75
98 125 75
96 123 74
99 126 75
95 123 73
97 125 75
96 123 74
101 128 77
97 124 75
101 129 78
100 128 77
96 124 74
98 125 75
100 127 77
101 129 77
98 125 74
97 125 76
205 215 222
205 215 224
205 215 224
214 223 233
209 217 225
214 221 229
217 226 238
208 218 229
211 220 229
204 214 221
217 225 234
211 220 229
208 216 223
211 219 229
214 223 232
209 218 225
216 224 234
214 222 232
212 221 232
212 221 230
214 223 233
204 214 223
215 223 233
207 216 226
212 222 232
210 219 228
213 222 232
217 225 236
215 223 232
98 126 75
96 123 74
100 127 76
98 125 75
97 124 75
101 129 78
98 126 76
99 127 76
98 126 76
100 128 77
102 130 78
99 126 75
97 124 74
99 126 76
100 128 77
102 129 77
98 126 75
98 125 75
96 123 74
97 124 74
102 129 77
103 131 79
99 126 76
99 127 76
98 126 76
100 127 76
96 123 73
99 127 76
98 125 74
98 126 76
167 182 178
213 222 231
204 213 220
214 222 232
210 218 227
209 218 225
213 222 232
207 216 224
211 221 231
207 216 225
216 223 232
212 221 230
210 219 229
209 218 228
209 218 227
210 218 227
211 220 229
214 223 232
206 215 222
206 216 224
207 216 223
213 221 230
213 221 230
212 220 229
201 211 219
208 217 225
209 218 225
208 218 228
207 216 223
206 215 223
208 216 225
207 216 224
137 156 134
99 127 76
95 122 72
98 125 75
98 126 75
97 125 75
99 126 75
98 126 75
95 123 73
97 124 74
103 130 78
99 127 76
102 129 77
100 128 77
100 127 77
100 128 77
99 126 75
100 127 77
97 125 75
100 127 76
101 128 77
96 123 73
100 127 76
99 126 75
99 127 76
98 126 76
98 125 74
97 124 74
100 127 76
101 129 78
101 128 77
98 125 75
97 125 75
185 196 196
213 221 230
212 221 229
213 222 230
213 222 232
210 219 226
210 219 227
209 218 226
215 223 233
210 219 228
212 221 230
208 218 228
209 218 228
213 222 233
215 223 233
216 224 232
209 218 226
215 223 232
214 223 234
211 220 231
206 215 224
217 225 235
209 218 229
211 219 229
213 221 230
214 223 233
208 218 227
210 218 226
212 220 228
212 221 231
209 217 226
212 220 230
211 220 230
218 227 237
102 129 78
102 130 78
102 129 78
101 129 78
100 127 76
99 126 76
100 128 77
98 126 76
100 127 76
100 128 76
97 124 74
99 127 76
100 128 77
97 125 75
99 127 76
99 127 76
101 129 77
99 126 75
98 125 75
100 127 76
101 128 77
98 126 76
100 127 76
100 127 76
98 125 74
99 126 76
102 130 78
99 126 76
97 125 75
100 128 77
100 128 77
98 125 75
96 124 74
101 128 76
213 221 229
212 220 227
214 222 230
211 220 231
211 220 228
215 223 232
205 214 223
209 218 228
214 223 232
208 217 226
215 224 233
212 220 228
209 217 224
214 222 231
211 219 227
215 224 234
211 220 230
214 223 235
215 223 232
213 221 230
208 218 228
214 222 229
207 216 224
212 221 231
212 220 229
203 213 220
209 218 227
214 222 230
206 216 225
208 218 228
207 216 223
209 218 226
212 222 232
160 176 163
102 130 78
100 127 76
99 126 76
101 128 77
102 130 78
95 121 72
100 127 76
102 130 78
96 123 74
98 126 75
100 128 77
101 128 77
97 124 74
98 125 75
99 127 76
98 125 74
100 127 76
98 125 74
96 123 73
98 125 75
99 126 76
99 126 76
96 123 74
102 129 77
95 122 72
101 129 77
100 128 76
102 130 78
100 128 77
99 126 76
99 127 76
101 128 77
208 217 224
209 219 228
208 216 223
209 218 226
212 220 228
214 223 233
209 218 229
209 218 225
210 220 230
209 219 228
213 221 230
204 213 221
213 222 231
216 224 233
209 218 225
207 216 227
211 220 231
213 222 233
214 223 234
211 219 225
206 216 224
219 226 236
211 219 227
214 222 231
211 220 230
214 222 229
213 222 232
217 224 234
213 221 230
214 222 230
214 222 232
214 223 233
99 126 76
101 129 78
100 128 76
100 127 76
98 126 76
100 128 76
101 129 78
100 127 76
99 127 75
100 127 76
99 126 74
100 127 76
98 126 75
101 129 77
101 128 77
101 129 77
100 127 76
101 128 77
99 127 77
99 126 76
99 127 76
99 126 76
99 126 75
100 127 76
100 128 77
100 128 77
100 127 76
98 125 75
99 126 75
103 130 78
214 222 230
213 222 231
211 220 229
211 221 231
221 229 239
215 223 231
209 218 227
215 223 232
212 221 230
213 221 230
212 221 232
215 224 234
207 216 224
214 222 230
219 227 237
210 219 227
212 220 229
216 224 235
212 220 228
210 219 228
211 220 230
211 219 227
212 220 229
211 219 229
208 217 226
216 224 234
207 216 225
212 221 232
133 153 126
104 131 78
100 127 76
100 127 76
99 127 76
97 124 75
101 129 78
99 127 76
100 127 76
98 126 75
99 127 76
96 124 74
100 128 77
97 125 75
100 127 76
101 128 76
100 128 76
101 128 77
100 128 76
102 130 78
101 128 77
100 128 77
100 128 77
210 219 228
216 224 233
210 218 226
161 177 165
98 126 76
98 125 75
98 125 75
100 128 76
101 129 77
99 127 76
100 128 77
99 126 75
96 124 75
100 127 76
96 123 74
99 126 76
96 123 74
100 127 76
97 124 74
95 122 72
99 127 77
98 126 76
99 126 75
96 123 73
100 127 76
101 128 77
98 125 75
99 126 76
100 127 76
98 126 75
214 222 232
207 216 224
206 216 224
211 220 228
209 217 224
217 225 233
208 217 225
209 219 229
213 222 232
213 222 232
212 220 228
210 218 226
211 220 230
210 220 228
208 218 228
211 220 230
206 215 224
211 219 228
208 217 226
213 221 231
209 218 228
218 226 235
210 219 229
205 214 222
207 217 224
210 219 229
209 218 226
212 221 232
177 190 189
97 125 75
97 124 73
97 125 74
96 123 73
99 126 75
99 126 75
99 126 76
96 124 74
95 122 72
101 128 76
98 125 75
100 128 76
98 125 75
96 123 73
98 126 76
99 127 76
101 128 76
100 127 77
97 124 74
101 128 77
100 127 75
102 130 78
99 127 76
100 127 76
98 126 76
97 125 74
98 125 75
101 128 77
97 125 75
102 129 78
208 218 226
210 220 230
208 217 225
211 219 227
215 223 231
210 218 226
215 224 233
197 208 217
201 211 217
214 222 232
212 220 230
213 221 231
211 219 227
212 220 229
211 220 230
197 208 215
215 224 233
204 213 221
207 217 228
206 215 223
208 217 224
212 221 230
215 223 231
207 216 223
217 225 234
212 220 227
213 222 231
214 222 232
210 219 227
213 222 230
212 221 230
208 217 225
99 127 76
96 124 74
100 127 76
98 126 75
100 128 76
100 128 76
100 128 77
97 124 73
99 126 76
99 127 76
98 126 76
98 125 75
100 128 77
97 125 74
99 126 75
103 131 79
100 128 76
99 127 76
98 125 74
97 125 75
97 124 74
98 125 75
98 125 75
101 128 77
97 125 75
99 127 76
99 126 76
98 126 75
94 121 72
97 125 75
99 127 77
94 122 73
128 149 117
210 219 227
209 218 227
205 215 224
214 222 231
208 217 225
211 220 228
213 223 234
214 222 232
216 224 234
205 214 222
207 216 225
214 222 233
214 222 230
208 217 223
208 216 225
216 224 234
208 218 228
213 221 229
208 217 226
210 220 230
210 219 228
208 217 225
214 222 231
208 217 226
215 224 235
211 220 229
214 222 232
208 218 227
213 221 229
208 217 225
215 223 233
217 225 236
208 217 224
102 129 78
97 124 74
99 127 76
100 127 77
103 130 78
98 125 75
99 127 76
97 125 75
101 129 78
96 124 74
99 126 75
100 128 77
98 125 75
95 122 73
97 124 74
100 128 76
101 128 77
100 127 76
99 126 76
101 129 77
102 130 78
101 128 77
97 124 74
100 128 77
99 126 75
101 128 77
101 128 77
102 130 78
100 128 76
102 129 78
97 125 75
100 127 76
98 126 76
98 125 75
210 219 229
212 220 228
213 222 234
212 221 231
214 222 232
215 223 232
215 223 233
214 222 230
214 222 231
219 227 237
207 216 224
213 221 231
211 219 227
212 221 230
206 216 226
210 218 227
207 216 223
209 218 225
211 220 229
212 221 231
215 224 235
211 219 229
207 216 224
211 220 229
210 219 229
211 220 229
210 219 229
209 218 225
213 221 228
214 221 229
217 224 233
209 217 223
212 220 229
100 127 76
101 128 77
100 128 77
100 128 76
100 128 76
99 127 76
100 127 76
99 128 77
100 128 77
100 128 76
99 127 75
97 125 75
100 128 76
100 128 76
100 128 77
101 129 78
102 128 77
100 127 76
98 126 76
99 127 76
101 129 78
98 125 75
98 125 75
98 125 75
100 128 77
99 127 77
102 129 78
99 127 76
101 128 77
95 122 73
100 127 76
100 128 77
100 128 77
212 220 228
214 223 233
215 223 232
218 225 235
211 220 228
210 220 232
206 216 224
212 221 229
208 217 226
208 217 226
211 220 228
210 219 229
212 220 229
211 220 228
213 222 231
211 221 231
211 220 230
209 218 227
214 223 233
212 220 228
213 221 230
212 221 230
210 218 227
206 216 226
213 221 229
217 225 235
215 223 233
209 218 227
219 227 237
210 219 227
214 223 233
144 162 138
101 128 76
101 129 77
101 128 77
100 127 76
97 125 74
100 127 76
98 125 75
100 128 77
98 126 75
102 129 77
100 128 76
98 125 75
100 127 76
100 128 76
98 125 75
100 127 75
100 127 76
99 126 75
99 127 76
98 125 75
98 125 75
99 127 76
97 125 74
100 128 76
100 127 76
97 125 75
99 127 76
99 126 75
102 130 78
189 201 202
212 220 228
210 219 228
207 216 224
211 220 228
216 224 232
210 219 228
214 222 233
213 221 230
218 225 234
209 218 227
215 223 233
216 224 232
213 222 232
210 219 227
209 218 227
210 219 227
210 218 227
213 222 232
212 220 230
211 220 229
207 216 225
212 221 229
216 223 232
210 219 227
217 224 234
211 219 227
213 221 231
172 185 177
98 124 73
101 128 77
99 127 76
103 130 78
101 129 77
99 127 77
101 128 76
100 127 76
99 127 77
97 124 74
99 126 75
103 131 78
99 126 76
97 125 75
99 126 75
101 128 76
99 127 75
101 129 77
99 127 76
100 127 76
98 125 75
99 126 75
98 125 75
214 223 233
213 222 230
207 216 224
208 218 227
139 157 134
97 124 74
97 123 73
99 126 75
97 124 75
96 124 75
100 128 77
99 126 76
97 124 74
100 127 76
99 126 75
96 124 74
98 125 74
101 128 77
100 127 76
96 123 73
96 123 73
98 126 76
100 127 77
100 127 76
97 125 74
102 129 77
101 129 78
98 125 75
101 128 77
100 128 77
111 135 94
209 219 229
208 217 226
210 218 225
207 217 227
213 222 232
210 219 229
211 220 229
210 219 227
211 220 229
210 217 223
208 216 223
209 219 228
211 220 230
217 225 235
207 216 224
211 219 227
209 218 227
211 220 228
208 217 226
208 217 226
209 218 228
208 217 225
206 216 225
211 219 228
214 222 232
206 216 225
212 221 231
216 224 233
119 142 108
99 126 75
99 127 76
99 127 76
99 127 76
98 125 75
99 126 75
100 128 77
97 125 75
100 128 77
98 125 75
97 124 75
101 128 77
99 127 76
97 125 75
99 126 75
100 127 76
99 127 76
97 125 75
99 126 75
97 125 75
99 126 76
100 128 76
99 127 76
99 126 75
99 126 76
100 127 76
100 127 76
97 125 75
100 127 75
182 195 192
210 219 227
213 221 228
209 218 227
211 220 230
208 217 225
211 220 230
209 218 226
206 215 222
212 221 231
207 216 223
211 220 230
209 218 227
209 218 226
212 221 229
210 219 229
208 217 224
214 222 230
211 219 228
214 223 233
203 213 220
217 225 235
211 219 227
208 216 223
215 223 233
205 214 222
213 221 230
205 216 226
210 219 227
214 222 232
214 223 234
210 219 228
100 127 76
100 127 76
99 127 76
99 127 76
100 128 76
94 121 72
100 127 76
98 126 75
98 125 74
98 125 75
100 128 76
100 128 76
98 125 75
101 128 78
99 127 76
99 126 75
99 126 75
99 127 76
101 128 77
100 127 77
100 127 76
97 124 74
98 125 75
98 125 75
100 127 77
97 125 74
101 128 77
98 125 75
101 129 77
100 128 77
100 127 76
102 130 78
100 127 76
212 220 228
207 217 225
210 219 227
213 222 233
210 218 227
206 215 225
208 216 224
217 225 234
209 218 227
206 215 223
212 221 230
211 220 230
209 219 228
210 219 227
215 223 232
210 219 229
206 215 225
215 223 231
209 218 228
207 216 226
206 215 223
216 223 232
213 221 230
209 218 228
204 214 223
208 218 227
213 221 229
214 221 229
217 224 231
211 220 228
216 225 234
210 219 227
212 221 229
98 126 75
96 123 74
97 124 75
101 129 78
99 126 75
98 126 75
99 127 77
100 127 76
98 125 75
100 128 77
101 129 77
100 128 77
100 128 77
100 128 76
102 130 78
100 128 77
101 128 77
100 127 77
99 126 76
101 128 77
99 127 76
100 127 76
99 126 75
99 126 76
100 127 77
99 126 76
99 126 75
97 124 74
98 126 75
102 129 78
99 126 76
99 127 76
100 127 76
121 143 109
209 218 227
209 218 227
215 223 233
208 217 227
210 219 229
209 219 228
210 219 230
208 217 227
210 220 229
209 218 227
210 220 229
206 215 224
209 218 228
209 218 227
211 220 228
214 222 231
212 221 229
204 214 223
210 218 227
211 219 227
210 218 227
205 214 222
214 223 233
214 223 233
209 217 226
209 218 226
208 218 227
211 219 228
214 223 232
215 224 233
217 224 233
210 219 228
206 215 223
101 128 77
101 128 77
100 127 76
100 128 77
99 126 76
98 125 75
98 125 75
99 126 76
100 128 77
100 127 76
99 127 76
97 125 75
101 129 77
99 126 76
99 127 76
101 128 77
100 127 76
97 124 75
99 126 76
100 128 76
99 126 76
100 127 76
99 127 77
98 125 75
98 125 75
98 125 74
98 126 75
100 127 76
102 130 78
97 124 74
100 128 77
98 125 75
180 192 187
210 219 226
213 222 230
216 223 232
218 226 236
205 214 223
205 215 227
207 216 225
205 214 224
206 216 224
214 222 231
211 220 228
208 217 226
209 218 225
214 222 231
209 217 226
209 218 226
207 216 224
211 220 230
205 214 221
213 221 230
214 223 233
213 221 228
214 223 233
213 221 231
210 219 226
214 222 231
208 216 223
213 222 231
205 214 222
210 219 229
212 220 229
103 130 78
98 125 74
101 128 77
100 127 76
102 130 78
102 130 78
98 125 75
101 128 76
95 123 73
96 124 74
102 130 78
95 123 73
100 128 77
99 126 76
101 129 77
100 128 77
99 127 77
102 130 78
94 121 72
101 128 76
100 128 77
99 126 76
97 124 74
102 129 78
99 126 76
96 123 74
101 128 77
100 128 76
103 130 78
118 141 105
212 220 227
209 218 228
219 226 236
213 222 233
211 220 229
210 219 229
210 219 226
214 223 233
203 212 220
210 219 227
210 219 226
208 218 227
207 216 225
220 228 238
209 218 227
210 219 230
210 218 225
209 218 229
216 223 232
210 219 227
214 222 232
209 218 227
212 220 229
213 221 230
207 217 225
211 220 229
208 217 225
196 207 211
97 124 74
99 126 75
99 127 76
98 125 74
102 129 77
99 126 76
101 129 77
100 128 77
98 125 75
100 127 76
100 127 76
100 127 76
99 127 77
100 127 77
99 127 76
100 127 76
98 125 75
97 125 75
100 128 76
101 129 78
100 127 76
101 128 77
101 129 77
99 126 75
207 216 225
209 218 227
210 218 226
205 215 224
215 223 233
125 147 117
97 125 74
99 126 75
99 127 75
99 127 76
96 124 75
100 127 76
103 130 78
98 125 75
98 125 75
99 126 75
98 126 75
100 127 76
98 126 76
99 126 75
98 125 75
95 122 73
98 126 76
101 128 77
97 125 75
99 127 77
99 127 76
99 126 75
97 124 74
100 127 76
100 127 76
154 169 154
209 218 225
196 206 211
210 218 226
213 221 231
215 223 232
214 222 231
207 216 224
211 219 229
214 222 232
209 218 225
206 215 223
210 219 229
214 223 233
213 221 231
206 216 227
207 217 226
206 216 224
205 214 222
210 220 230
206 215 221
210 219 229
216 224 233
205 215 224
213 221 230
213 222 232
210 219 228
208 217 224
208 216 224
102 129 77
95 123 73
96 123 73
97 125 74
98 125 74
99 126 76
97 125 75
100 127 76
98 125 75
100 128 77
99 126 75
98 125 75
96 123 74
101 129 77
97 124 74
99 126 75
101 129 77
98 126 76
97 124 74
98 125 75
98 125 74
101 128 76
97 124 74
98 126 76
99 126 76
98 125 76
102 130 78
98 126 76
101 128 77
97 125 75
217 225 235
208 218 227
207 217 227
215 223 233
203 213 222
211 220 228
209 217 225
217 225 236
219 227 237
210 218 226
212 221 230
206 215 221
211 221 230
211 220 228
209 218 228
218 226 236
208 217 225
208 218 226
215 223 233
209 218 228
207 217 224
207 217 225
210 219 228
208 216 224
207 216 225
211 219 228
206 215 223
207 216 225
214 222 231
215 223 232
208 217 226
161 176 166
97 125 76
101 128 78
100 127 76
99 126 75
99 127 76
96 123 73
102 129 78
96 123 73
97 124 74
101 128 77
96 123 73
98 125 75
101 128 77
101 128 77
99 127 76
98 125 75
96 123 73
100 127 76
98 126 76
98 126 75
98 126 76
99 126 75
99 126 75
99 126 76
99 127 77
100 127 76
94 121 72
99 126 75
98 125 75
99 126 75
100 128 77
100 128 77
210 218 227
215 223 233
203 213 224
213 222 231
207 216 224
205 214 221
209 218 226
210 218 226
213 222 232
215 223 233
212 221 232
216 224 234
216 224 234
209 219 229
211 220 230
213 221 230
216 224 232
213 222 232
209 218 225
211 220 229
211 219 227
208 217 224
209 218 227
210 219 230
207 217 226
210 219 229
209 217 225
214 223 234
205 215 226
209 218 226
212 221 231
208 217 225
213 222 231
102 130 77
99 127 76
100 128 77
101 129 78
98 125 75
99 127 76
99 127 77
101 128 76
100 127 76
99 126 75
96 123 74
102 129 77
96 123 74
101 129 78
99 126 76
98 126 76
97 123 73
100 128 77
102 130 78
99 126 76
99 127 76
101 128 77
100 127 76
100 128 77
99 126 76
94 121 71
98 125 74
100 128 76
100 127 76
101 128 77
98 126 76
100 127 77
99 127 75
144 162 141
208 217 225
213 222 230
214 222 231
204 213 221
215 223 233
213 221 230
212 220 228
210 219 229
213 222 232
205 215 223
208 217 227
206 216 225
212 221 229
211 220 229
207 215 223
209 218 227
214 222 231
204 213 220
207 216 225
208 217 223
212 220 228
212 220 229
206 215 223
205 214 221
212 220 229
207 216 226
214 222 230
210 218 227
211 219 227
206 215 225
209 218 226
219 226 236
202 211 215
98 126 75
98 125 75
100 127 76
98 125 75
97 125 74
100 128 78
99 127 77
100 128 77
100 128 77
101 129 77
101 128 77
101 129 77
100 127 77
100 128 76
98 125 75
98 125 76
99 126 75
100 127 76
98 125 75
99 126 76
98 126 75
101 129 77
99 127 75
97 124 74
99 126 76
98 126 75
99 126 76
99 126 76
95 122 73
101 129 77
100 128 77
101 128 77
209 218 226
212 221 231
216 224 232
212 221 230
216 223 233
200 211 219
216 223 232
208 217 226
206 216 224
215 223 231
200 210 216
212 220 228
214 222 232
209 218 227
206 216 225
211 219 229
214 223 232
208 217 227
214 223 232
212 221 232
207 216 224
205 215 222
206 215 223
202 213 222
210 218 226
208 217 225
210 218 226
213 222 232
211 220 232
210 219 228
212 220 229
119 142 105
99 126 76
101 129 78
98 126 75
100 129 78
99 127 76
101 129 78
99 126 76
99 126 75
99 126 75
100 127 77
102 129 77
97 125 75
101 129 77
100 128 77
100 127 76
100 128 77
97 124 73
101 129 78
98 125 74
102 129 78
99 126 76
97 124 74
103 130 78
97 123 73
98 125 74
100 127 76
100 128 77
100 128 77
99 127 76
216 224 233
206 215 222
208 217 224
210 219 228
212 220 229
210 219 225
216 224 233
204 212 219
217 225 234
218 226 235
211 219 227
212 220 228
219 227 238
212 219 227
208 217 228
218 226 234
214 222 230
211 219 227
201 211 219
214 221 229
207 217 225
211 219 226
213 221 227
211 220 229
213 221 230
209 217 224
214 222 230
210 218 227
101 128 77
99 126 75
101 128 77
102 129 78
96 124 74
99 127 76
100 128 77
98 126 76
99 126 76
97 125 75
100 127 76
99 126 76
97 125 75
99 127 76
100 127 76
97 124 74
101 129 77
97 124 74
100 128 77
98 125 75
98 125 75
99 127 76
100 128 77
101 128 77
102 129 77
210 220 230
207 216 224
210 218 225
209 218 228
205 215 222
212 221 230
121 143 109
100 128 77
101 129 78
100 128 77
100 127 75
101 129 78
98 125 75
98 125 75
98 125 74
97 125 74
97 124 74
98 125 75
98 126 76
97 124 74
99 127 76
98 125 75
95 122 74
98 125 74
97 124 75
97 125 75
101 128 76
100 127 76
98 125 75
100 127 75
99 127 76
97 124 74
195 205 208
207 216 225
209 218 228
214 221 230
211 219 228
208 216 222
210 219 227
206 216 224
212 221 229
212 221 231
212 220 228
209 218 225
209 217 226
208 218 227
210 219 229
209 217 224
206 215 223
209 219 229
218 226 235
215 223 233
214 223 233
213 221 231
217 225 236
210 219 228
206 215 222
214 223 233
201 212 221
213 221 229
166 182 174
102 130 79
99 126 75
96 124 74
96 123 74
96 124 74
99 126 76
96 123 73
100 127 77
98 125 74
102 130 78
102 130 78
103 131 79
102 130 78
97 124 75
100 127 76
96 123 74
99 127 76
99 127 76
98 126 75
101 129 78
100 128 78
98 126 75
99 127 76
99 126 75
101 129 77
99 126 76
101 128 77
100 128 77
98 126 76
166 180 170
206 215 222
211 219 227
210 219 229
206 216 226
211 221 230
210 219 227
210 219 228
210 219 230
208 217 224
219 227 237
207 217 226
214 222 229
208 218 227
206 214 219
207 216 226
215 223 234
209 218 229
209 218 226
212 220 227
206 216 225
205 215 224
212 220 230
206 216 225
212 220 229
216 224 233
210 219 229
212 220 228
209 219 227
203 213 223
206 216 225
205 215 223
101 128 76
98 125 75
96 123 74
96 124 75
95 122 73
98 125 75
98 126 75
98 125 75
100 127 76
99 127 76
100 127 76
98 126 76
99 127 77
100 128 77
100 128 77
100 127 76
99 127 76
98 126 76
97 124 74
95 122 72
97 124 74
98 125 75
96 124 74
100 128 77
100 127 76
100 128 77
99 127 76
102 130 78
97 125 75
100 128 76
97 124 74
97 124 74
207 216 225
211 219 227
210 219 228
202 212 221
214 222 232
215 223 231
210 219 228
206 215 223
211 219 226
213 221 230
203 213 219
213 221 229
208 217 226
215 223 232
209 218 227
215 223 233
210 218 226
208 217 226
213 222 232
209 218 227
211 220 228
211 220 229
210 218 227
216 224 233
212 220 227
204 213 221
212 221 232
207 217 226
215 223 231
204 214 222
213 222 232
211 220 229
214 223 232
106 131 88
98 126 76
99 127 76
100 127 75
100 128 77
100 128 76
97 124 75
96 123 73
100 127 77
98 126 76
100 127 76
98 126 75
99 127 75
98 125 75
97 124 74
100 128 77
101 128 76
97 124 74
99 126 75
99 126 76
98 126 76
101 129 78
99 126 76
100 127 77
100 127 77
99 126 76
99 127 76
99 126 76
101 128 77
99 126 75
98 125 75
96 123 74
100 128 77
175 187 183
213 221 230
210 220 229
209 218 227
211 220 230
215 222 230
213 221 231
214 222 232
208 217 225
211 219 226
215 224 236
213 222 232
209 218 227
209 218 228
205 215 223
216 225 236
208 217 227
210 218 226
211 219 228
217 225 233
208 216 224
214 222 232
209 218 226
211 219 228
212 220 229
214 223 233
209 218 227
212 220 229
217 224 233
210 219 228
210 219 228
212 221 229
212 221 230
147 164 147
95 123 73
94 121 72
97 125 75
99 127 76
101 128 76
99 126 76
100 127 76
102 129 78
98 125 75
98 125 75
101 129 77
101 128 77
100 128 77
98 125 75
102 130 79
100 128 77
95 123 74
101 129 77
96 123 73
101 128 76
99 127 76
99 126 76
98 125 75
101 129 77
100 128 77
100 127 76
100 127 76
98 125 75
100 128 77
100 127 76
98 126 75
137 156 133
208 217 225
218 226 235
211 219 226
213 221 230
215 223 232
210 219 228
206 216 225
211 220 228
212 220 227
209 218 228
212 220 229
207 216 224
214 221 228
215 223 232
209 217 224
216 225 234
207 216 224
214 222 230
215 223 231
203 213 220
213 221 230
211 219 227
210 219 228
209 218 225
215 223 232
208 217 227
209 217 226
213 222 231
208 217 225
209 218 226
207 216 222
99 126 75
98 126 75
100 128 77
100 128 76
97 124 74
99 127 76
100 127 76
99 127 76
97 124 74
100 127 76
100 127 76
102 130 78
99 126 75
99 126 76
101 129 77
102 130 77
100 127 76
100 127 76
101 129 77
97 125 75
101 128 77
98 126 76
98 125 76
99 127 76
98 125 75
100 128 76
99 127 76
97 124 74
95 121 73
190 200 203
210 219 229
207 216 225
212 221 230
207 216 224
213 221 230
208 217 225
203 213 222
213 221 230
215 223 231
216 224 231
209 217 224
215 224 234
212 221 230
211 220 230
213 221 229
208 217 226
213 221 229
209 217 224
214 221 230
205 215 223
212 221 230
216 224 232
214 222 231
215 223 233
212 221 231
216 224 234
206 215 223
102 129 77
100 127 76
102 130 78
98 126 75
101 128 77
99 127 76
101 128 77
101 128 76
100 127 76
101 129 77
97 124 74
103 130 78
99 126 76
101 128 76
100 128 77
99 127 76
101 128 77
101 129 77
99 126 75
100 127 76
99 127 76
97 125 75
101 128 76
99 126 75
102 129 77
117 140 104
210 220 232
213 221 230
211 220 228
209 218 227
207 216 224
204 214 223
208 217 226
99 127 76
98 125 75
101 128 77
98 125 75
100 127 75
99 126 76
99 126 75
97 124 74
96 123 73
97 124 75
100 127 76
97 125 74
97 124 74
98 126 76
98 126 76
100 128 76
99 126 75
98 125 75
99 126 75
99 126 76
99 126 76
98 125 76
97 124 74
100 128 78
98 125 75
98 125 75
209 217 226
209 218 228
209 218 229
205 215 225
207 216 224
212 221 231
206 215 222
210 219 229
215 223 232
207 216 225
212 221 231
213 222 232
204 213 221
211 220 229
209 218 226
214 222 230
215 223 233
210 219 228
209 217 226
208 218 227
215 223 231
210 219 228
207 216 224
198 208 214
206 214 221
209 218 227
209 218 226
209 218 227
107 133 89
98 126 75
96 123 73
101 128 77
97 124 74
98 126 75
101 129 78
102 130 78
100 127 76
101 128 77
100 127 76
98 125 75
98 126 76
99 127 76
100 127 77
98 126 76
99 126 75
100 127 76
96 124 75
98 125 75
98 125 75
98 125 75
98 125 75
99 126 76
101 129 77
101 128 77
97 124 75
101 128 77
99 126 75
99 126 76
207 216 225
205 213 220
211 219 228
210 218 224
207 216 224
208 217 225
210 219 228
204 213 221
207 215 222
212 220 229
202 212 221
208 217 224
213 221 229
210 219 226
213 221 229
207 217 227
216 224 235
209 218 228
204 213 221
209 217 226
202 212 220
210 219 227
203 213 221
209 218 227
203 212 219
207 216 225
212 220 229
211 221 232
206 215 223
206 216 223
212 220 228
105 131 86
100 127 76
98 125 74
97 125 75
98 126 76
100 128 77
100 128 77
100 128 77
99 127 77
100 127 76
98 125 75
98 126 76
98 125 75
102 130 78
99 126 75
99 126 76
98 125 75
98 125 74
102 130 78
97 125 75
96 123 74
97 125 74
101 129 78
101 128 77
99 126 75
99 127 76
100 127 76
98 125 75
100 128 77
99 127 76
98 125 75
100 127 76
169 183 176
207 216 224
213 222 232
213 222 232
213 221 230
212 220 229
206 215 225
214 223 233
210 220 232
209 218 227
209 218 228
212 220 229
212 221 231
213 222 231
214 222 230
210 219 228
214 222 230
214 222 231
209 218 227
214 222 231
205 214 221
214 222 231
211 220 229
210 218 226
210 219 229
213 221 228
211 220 229
217 225 234
214 223 233
210 219 229
202 212 219
209 218 226
214 222 230
126 146 118
102 130 78
99 126 76
98 126 75
98 125 75
98 126 76
102 129 78
99 127 75
102 129 78
99 127 75
99 126 75
94 120 71
101 129 78
99 126 76
100 128 77
101 128 77
99 126 76
99 126 76
100 128 76
98 125 76
100 127 76
98 126 76
98 126 76
100 127 76
96 123 74
98 125 75
95 122 73
100 127 76
97 125 75
97 124 74
97 124 75
98 126 76
98 125 75
179 192 189
215 223 233
214 222 231
211 220 229
207 216 226
211 219 227
207 217 226
210 219 228
213 221 232
211 220 229
211 219 227
205 214 222
214 222 230
217 225 235
208 219 230
212 221 232
215 223 233
210 218 227
208 217 226
210 219 230
210 219 229
209 218 228
216 224 233
205 215 223
207 217 227
202 212 220
216 224 233
219 227 237
206 215 224
214 222 231
214 223 232
212 221 230
212 220 228
97 125 75
101 129 77
100 128 77
96 124 75
98 125 75
98 125 75
100 127 76
99 126 76
97 125 74
98 125 75
101 128 77
101 128 77
97 124 75
101 129 77
97 124 74
99 127 76
99 126 76
99 126 75
95 123 73
99 127 76
98 125 75
100 128 77
103 131 79
99 126 75
100 127 76
100 127 77
98 125 75
98 125 75
98 125 75
104 131 78
99 127 76
98 125 75
204 213 219
216 224 233
210 218 226
214 222 229
212 221 230
214 221 229
211 219 227
203 213 221
211 221 232
216 223 232
210 219 227
211 220 230
210 219 228
213 221 229
210 219 228
211 219 227
211 219 228
205 213 221
207 216 224
214 222 232
214 223 232
209 218 226
209 217 224
212 221 230
211 220 229
209 218 226
210 219 227
218 226 234
210 218 225
220 227 237
218 225 234
102 129 80
101 128 77
100 127 76
100 128 77
99 126 76
99 127 76
99 126 76
96 123 74
96 123 73
100 128 77
100 127 76
101 128 77
99 127 76
96 123 73
99 126 76
98 126 75
101 128 77
98 126 75
99 127 76
99 126 76
99 126 76
102 129 77
99 126 75
101 129 78
100 128 77
99 127 76
101 129 78
97 124 74
99 126 75
146 164 145
212 220 227
210 218 226
212 220 229
211 219 228
210 218 224
208 216 224
210 218 225
215 223 232
209 217 225
210 219 228
211 220 229
214 222 230
221 228 238
217 224 234
208 218 229
213 221 229
211 219 227
217 224 232
208 217 225
210 219 227
209 219 229
207 217 225
204 214 222
209 218 229
207 215 222
211 219 227
204 214 224
115 139 100
94 121 73
95 123 74
99 126 75
99 127 76
96 124 74
100 127 76
97 124 74
99 126 75
96 123 74
100 127 77
99 126 76
101 129 77
100 127 76
97 124 74
96 123 74
99 126 75
101 129 78
100 127 76
98 126 75
99 127 77
100 127 75
96 123 73
101 129 77
101 129 77
107 133 89
214 222 230
211 220 230
210 218 227
212 220 229
208 217 225
216 224 234
213 221 230
213 220 227
211 221 231
101 128 79
97 124 74
96 123 73
98 125 75
99 126 76
101 129 77
100 128 77
97 124 74
99 126 76
99 126 76
97 124 74
97 124 75
98 126 76
98 126 75
101 129 78
97 124 74
97 124 75
98 126 75
96 124 74
99 127 76
102 130 77
101 128 76
98 126 75
101 129 77
99 127 76
95 122 73
214 222 229
205 213 221
212 221 232
204 214 222
207 217 227
209 219 229
218 226 236
210 219 228
213 222 231
208 217 225
209 218 227
215 223 233
205 215 224
210 218 227
212 219 227
212 221 231
202 212 221
205 215 223
207 217 225
209 218 226
212 220 229
210 219 228
212 221 231
211 220 230
216 224 234
212 221 232
200 211 220
208 216 224
95 122 72
97 124 74
101 129 78
100 128 77
97 124 74
101 128 77
100 127 77
100 127 76
99 126 75
101 128 77
98 126 76
100 128 77
97 124 73
98 125 74
102 130 78
99 126 76
98 126 76
101 128 77
99 127 76
99 126 75
98 125 74
100 128 77
100 127 77
96 123 74
101 129 77
99 126 76
96 123 73
100 128 77
97 124 75
158 173 161
205 215 225
204 214 222
210 219 230
212 221 233
207 216 223
210 219 228
210 219 229
209 218 228
204 213 220
204 214 223
204 213 221
213 221 228
209 219 228
209 218 227
206 215 224
204 213 222
211 220 230
207 217 227
211 220 228
206 215 225
211 219 229
206 215 221
209 218 227
204 213 220
207 216 224
212 220 227
207 217 227
202 213 221
211 219 228
211 220 229
192 203 206
100 128 77
98 125 75
101 129 77
98 126 75
96 123 73
99 126 75
97 124 74
101 128 77
98 126 75
97 125 74
99 126 75
100 127 76
100 127 76
99 126 75
99 127 76
99 126 75
99 126 75
96 123 73
97 124 74
100 127 76
96 124 74
99 126 75
99 126 75
98 126 75
100 127 76
100 127 76
96 123 73
99 126 75
98 126 76
94 120 72
98 125 75
112 136 99
212 222 233
204 213 221
214 223 232
208 217 226
212 220 229
211 220 229
216 223 231
212 221 229
209 217 225
210 219 227
207 216 224
211 220 230
214 222 230
212 221 231
212 220 228
212 220 229
212 221 229
216 224 233
208 217 225
212 221 229
209 219 229
204 213 220
211 220 230
206 217 226
216 224 234
213 221 229
202 212 220
207 216 224
217 224 233
210 218 227
208 217 227
209 217 225
141 159 139
101 128 77
100 127 76
97 124 75
99 126 76
99 126 76
95 122 73
98 126 75
98 125 75
100 127 76
98 126 76
97 124 74
96 124 75
100 127 76
101 128 76
98 125 74
100 127 76
102 130 78
100 128 77
99 126 76
97 124 74
98 126 76
99 127 76
99 126 75
98 126 76
98 125 75
100 128 77
98 125 75
100 128 77
99 126 75
101 128 77
100 128 77
101 128 77
208 217 225
207 217 224
213 222 232
212 221 231
201 211 219
211 220 229
212 220 228
212 220 229
212 221 229
209 218 227
212 220 230
210 219 229
208 216 223
215 223 230
219 226 234
210 219 227
206 215 223
216 225 237
205 213 220
210 219 227
209 218 224
209 218 227
211 219 228
210 219 227
210 219 227
207 216 223
215 223 232
213 222 233
211 220 228
211 219 227
214 223 233
215 222 230
211 219 228
98 125 75
101 129 77
99 126 76
99 126 75
97 124 74
98 126 76
96 124 74
100 128 76
97 124 74
102 130 78
99 126 76
101 128 77
98 126 76
100 127 76
98 125 75
101 128 77
97 124 74
101 128 77
98 126 75
96 123 73
98 126 76
96 123 74
101 129 77
102 129 77
100 127 76
98 126 75
99 127 77
99 127 76
99 127 76
97 124 75
98 126 76
103 130 80
213 221 231
211 220 229
208 217 225
204 213 221
210 219 229
206 215 222
211 219 228
212 220 228
211 220 228
206 215 222
213 221 230
212 220 228
213 221 231
206 215 225
212 220 228
209 218 227
218 226 235
213 222 230
207 216 225
213 221 229
212 220 227
209 218 228
210 218 227
209 218 227
211 220 228
209 219 228
205 215 222
214 222 231
217 224 233
213 221 228
183 195 194
99 126 76
101 128 76
101 128 77
101 129 77
99 126 75
99 127 76
99 126 76
100 127 76
99 126 75
99 127 76
97 124 74
99 127 76
98 125 75
97 124 74
98 125 75
99 126 76
97 124 74
100 127 76
100 128 77
99 126 76
101 128 77
100 127 77
100 128 77
98 125 75
100 127 76
96 123 74
101 128 77
101 128 77
99 126 76
209 219 230
211 220 228
209 218 227
212 220 229
209 217 225
208 217 224
211 219 227
217 225 234
207 216 225
208 217 223
216 224 234
210 218 227
209 218 228
213 222 231
210 219 227
210 219 228
212 220 228
213 221 231
212 220 228
207 216 224
211 220 228
214 221 229
211 219 227
211 220 230
205 214 222
210 219 228
208 216 224
151 168 149
101 129 77
99 126 76
99 126 76
99 126 76
98 125 75
100 128 76
99 126 76
97 125 75
97 124 74
99 126 75
101 128 76
98 126 75
99 127 76
100 128 77
98 125 74
100 127 76
97 124 74
97 124 74
99 127 76
102 130 78
98 125 75
99 126 76
97 124 73
97 125 75
117 141 103
217 224 234
211 220 229
212 220 227
209 219 229
207 216 223
208 217 224
210 219 228
215 223 233
214 222 230
203 214 224
208 217 225
98 125 75
98 126 75
99 127 76
99 127 76
97 124 74
100 128 77
97 123 73
99 127 76
101 128 77
99 126 76
98 126 75
99 126 76
101 129 77
102 130 78
102 130 78
100 127 76
96 123 74
98 126 75
100 128 77
99 126 76
98 125 75
96 123 74
97 125 75
98 126 75
100 127 77
107 132 90
213 221 230
205 214 220
209 218 226
214 223 234
206 215 222
206 214 221
205 214 221
207 216 225
206 216 225
204 213 221
214 222 230
211 220 230
209 218 227
213 221 230
213 221 230
210 219 227
206 215 223
210 220 230
209 219 228
206 216 224
206 215 222
211 220 229
197 207 216
210 220 231
212 221 230
209 218 227
210 220 231
164 179 172
97 125 74
99 127 77
98 125 75
100 127 77
100 127 76
95 123 74
95 122 73
100 128 77
98 126 75
100 127 76
101 128 77
96 123 74
98 126 76
98 126 76
100 127 77
97 124 74
96 123 73
101 128 77
100 127 76
98 126 75
100 127 76
96 124 74
98 126 75
101 129 78
100 127 76
98 126 75
103 131 78
100 127 76
101 128 77
216 225 235
207 217 225
215 223 233
207 217 225
203 213 220
208 217 224
216 224 234
209 218 228
212 221 231
211 220 229
211 219 227
214 222 229
214 222 232
213 222 233
209 218 227
207 217 225
209 218 228
209 218 227
211 220 229
215 223 231
209 217 225
215 224 235
208 217 224
212 220 228
209 218 226
206 216 224
211 220 229
214 222 231
207 216 224
205 215 222
207 217 226
97 124 74
101 128 76
101 128 77
99 127 76
99 126 75
97 124 74
100 127 76
101 128 76
98 126 75
100 128 77
98 125 76
100 128 77
98 126 76
102 129 77
99 127 76
100 127 76
97 124 74
99 127 76
99 126 75
98 125 74
98 125 75
97 124 73
100 127 76
95 122 72
101 128 77
97 124 75
98 126 76
100 127 76
93 119 71
99 127 76
98 124 74
100 127 76
212 221 230
208 217 226
205 214 220
215 223 231
209 219 228
204 215 225
214 222 232
214 222 231
212 222 232
209 219 230
213 222 232
210 219 230
207 216 225
211 219 228
211 220 231
209 218 226
203 211 217
205 214 222
213 222 232
209 219 228
216 224 234
207 216 224
207 216 225
210 219 229
210 219 229
208 217 226
206 216 225
210 219 228
209 217 225
208 216 224
212 221 229
210 219 229
159 174 164
101 129 78
98 126 75
99 126 76
101 128 77
100 127 76
98 126 76
100 128 77
100 127 76
103 130 78
99 126 75
98 126 76
101 129 78
97 125 75
99 126 75
99 126 76
98 125 74
95 122 73
98 126 75
98 126 76
100 127 76
99 126 76
97 124 75
99 126 76
98 125 75
98 125 75
99 126 75
101 128 77
100 128 77
99 127 76
101 128 77
101 129 78
99 126 76
208 217 224
215 222 230
213 221 230
206 215 224
209 218 228
213 222 234
207 217 225
212 220 228
213 222 232
208 217 226
208 217 226
210 218 226
213 220 227
212 221 230
202 212 220
218 225 234
212 220 230
213 221 228
213 221 230
208 217 226
213 221 229
213 221 228
211 220 230
206 216 226
212 220 229
203 212 219
213 222 232
212 221 230
210 219 229
211 219 228
205 214 222
211 220 230
194 205 209
99 127 76
99 126 75
101 128 77
99 127 76
99 126 76
99 126 75
97 125 75
100 128 76
98 126 75
99 126 76
101 129 78
99 127 76
97 125 74
98 125 75
100 127 76
99 127 76
99 126 75
101 128 76
98 125 74
98 125 76
101 128 76
97 124 74
99 127 76
97 125 75
98 125 75
101 129 77
98 126 75
98 125 75
100 128 77
99 126 76
98 126 76
186 197 197
219 227 236
208 217 226
206 215 224
208 217 225
210 219 229
211 220 229
208 217 223
212 221 230
209 218 227
216 224 233
215 223 232
206 215 223
209 218 227
200 211 219
214 222 232
207 216 224
212 221 229
209 218 227
214 222 230
205 214 223
210 218 225
213 222 231
215 223 233
217 225 235
207 216 223
214 222 231
215 223 231
209 219 229
211 219 228
211 219 227
99 126 75
98 126 76
98 125 74
100 128 76
100 127 76
104 131 79
101 129 78
97 125 75
100 127 76
101 129 77
98 126 75
99 126 75
97 125 76
98 125 74
101 128 76
101 129 77
101 128 77
101 129 77
98 125 75
98 126 75
98 125 75
100 127 76
98 126 76
101 128 77
101 129 77
97 124 74
100 128 76
100 128 77
96 122 72
207 216 225
210 219 229
208 217 227
203 213 221
216 224 235
211 219 228
213 221 229
212 221 229
211 219 227
209 218 225
213 222 230
215 224 235
210 219 229
205 214 222
217 225 235
205 214 220
214 222 230
216 224 234
210 218 227
205 214 222
206 215 222
211 219 227
210 219 227
203 212 218
206 216 226
215 223 232
219 227 236
182 194 190
101 128 76
100 127 76
99 126 76
100 127 76
100 127 76
101 128 76
101 129 78
99 126 75
100 128 77
101 129 77
100 128 77
98 126 75
101 128 77
97 125 74
102 129 77
97 124 74
98 126 75
100 128 76
100 128 77
99 126 75
101 128 76
99 126 75
99 126 76
96 123 74
110 134 93
207 217 226
210 219 227
212 221 230
203 213 220
208 217 225
211 220 229
211 218 226
204 214 221
212 222 232
214 223 233
209 218 227
207 216 225
203 213 221
97 124 73
103 131 79
100 127 76
100 128 76
96 123 73
99 127 76
97 124 74
98 125 75
99 126 76
98 125 75
98 125 75
95 122 73
98 125 75
96 123 74
99 127 76
100 128 76
101 128 77
97 125 75
96 122 72
96 123 73
100 128 77
99 127 76
99 126 76
96 124 74
97 125 75
149 165 149
212 220 229
211 220 228
209 218 227
210 219 229
209 218 226
211 219 229
203 213 222
207 216 224
207 217 226
212 220 227
207 216 225
209 217 226
209 218 227
207 216 225
215 223 233
212 221 230
206 216 224
208 216 225
209 218 227
207 216 225
210 219 228
212 220 228
209 218 228
207 216 225
210 219 228
213 221 231
206 215 224
108 133 91
98 126 75
96 124 74
97 125 75
99 126 76
99 126 75
100 128 77
99 127 76
98 125 75
97 125 74
98 126 76
99 127 76
98 126 76
101 128 77
98 125 75
100 127 76
99 127 76
96 124 74
99 126 75
99 127 75
99 126 75
99 127 76
99 126 76
100 128 77
99 127 77
102 130 78
100 127 76
102 130 77
98 126 75
150 167 152
206 215 222
209 218 227
210 219 227
214 223 235
206 215 223
204 213 219
209 218 226
201 211 217
213 222 231
212 221 229
205 215 224
208 217 225
206 216 225
208 216 223
206 216 225
214 222 232
218 226 236
210 219 228
209 218 227
205 214 222
209 218 227
208 217 225
206 216 225
212 221 231
212 222 232
210 220 229
206 216 225
213 221 229
213 221 230
211 220 230
121 143 110
101 129 78
100 128 77
101 128 77
97 125 75
101 129 77
100 127 75
99 127 76
101 128 76
98 126 76
100 128 77
102 129 77
99 127 76
100 128 77
99 127 76
102 129 76
99 127 76
99 127 76
101 128 76
98 126 75
98 126 76
99 127 76
99 127 76
96 123 73
99 126 74
96 124 75
100 127 76
97 124 74
99 126 75
101 128 77
99 127 76
98 126 76
207 216 225
213 220 227
210 218 227
213 221 232
211 219 228
211 219 228
218 226 235
212 221 231
209 219 228
210 219 227
214 222 230
207 217 227
210 219 228
207 216 226
215 223 233
208 217 225
208 216 224
207 216 223
216 225 235
210 219 228
211 220 228
211 219 229
205 215 226
212 220 230
204 213 220
209 218 227
211 220 230
209 218 227
209 217 224
202 212 219
209 218 226
211 220 231
170 184 177
100 127 76
99 126 76
100 128 77
97 124 74
98 126 75
98 125 75
100 128 76
101 128 76
99 127 76
97 124 74
96 124 74
99 126 76
95 122 72
98 125 75
100 128 77
97 124 74
99 126 75
100 128 77
99 127 76
96 122 72
101 129 78
101 129 77
98 125 75
100 127 77
100 127 76
96 124 74
97 124 74
98 125 75
97 124 74
102 129 78
99 126 76
100 127 76
211 220 228
214 222 229
209 219 228
208 217 225
213 222 231
213 221 230
208 217 226
212 220 229
209 219 229
212 220 229
207 216 224
206 215 224
201 211 219
210 219 228
214 223 233
215 223 231
206 215 223
210 219 228
214 222 233
213 222 230
211 219 227
215 223 232
212 221 230
209 218 227
208 216 223
207 217 226
213 222 231
212 221 229
208 216 223
212 220 227
209 217 225
215 223 231
129 149 124
99 127 76
100 128 77
99 127 76
100 127 76
99 127 76
100 128 76
95 122 73
99 127 76
99 126 75
97 124 74
98 125 75
98 125 75
100 127 76
95 122 72
99 126 75
101 128 77
100 127 76
101 128 77
98 125 75
95 123 74
97 125 74
100 128 77
98 125 75
100 127 76
100 127 76
98 125 75
101 128 77
98 126 76
98 125 74
100 127 76
99 126 75
209 217 225
214 223 232
214 223 232
216 224 234
209 217 227
211 219 226
212 221 229
209 218 228
210 219 229
208 218 227
212 220 229
209 218 228
210 219 228
217 225 235
210 219 229
215 222 230
217 225 234
211 219 227
211 220 228
207 217 226
210 218 226
210 219 228
210 219 228
215 223 231
212 221 230
217 225 236
210 219 227
210 218 225
209 218 226
212 221 228
154 169 156
100 127 77
100 128 77
99 127 76
99 127 76
97 124 74
97 124 74
98 125 74
98 125 75
99 127 76
100 127 76
98 126 76
97 124 74
99 126 76
102 129 78
99 127 76
100 127 75
101 129 77
101 128 77
101 128 77
94 121 72
102 130 78
99 126 76
96 123 73
100 127 76
95 122 72
97 125 75
95 122 73
99 126 75
169 182 172
219 225 234
217 224 233
213 221 230
210 218 225
212 220 229
207 217 225
214 222 232
210 218 225
207 216 224
213 222 232
209 218 227
209 218 226
209 218 227
212 220 229
208 217 226
206 215 223
214 222 229
212 220 229
215 223 233
209 218 227
209 218 226
213 221 231
210 219 227
213 221 230
209 218 225
210 218 226
196 205 209
97 125 75
100 128 76
99 127 76
100 127 77
99 127 76
100 127 77
97 123 73
101 128 76
96 124 74
99 127 76
101 128 77
99 126 75
99 126 75
99 126 76
101 128 76
95 122 72
99 127 76
101 128 76
98 125 75
96 123 74
99 127 76
99 127 76
99 126 76
97 124 74
99 126 79
208 217 225
219 226 235
206 215 225
211 220 229
206 215 222
212 220 229
209 219 231
207 217 227
207 217 226
206 215 221
213 222 230
213 221 230
210 219 230
206 216 225
214 221 229
100 127 76
100 128 77
100 128 76
99 127 76
94 121 72
95 122 73
99 126 76
100 127 76
98 126 76
102 130 78
98 126 75
95 122 72
97 124 74
97 124 74
99 127 77
97 125 74
96 123 74
98 125 74
100 127 76
97 125 74
100 127 77
95 123 73
98 126 75
99 127 76
101 128 77
185 196 195
209 218 228
214 221 228
213 221 229
213 221 231
215 223 233
210 219 227
215 223 233
207 218 229
213 222 231
212 221 231
208 217 226
211 220 228
205 215 224
213 221 229
210 219 228
203 213 223
203 214 224
216 225 236
210 220 231
205 214 222
208 217 226
210 219 226
206 215 222
203 212 219
204 213 220
210 219 226
209 218 227
96 123 73
99 126 75
98 126 76
99 127 77
98 126 75
99 127 76
100 127 76
101 128 77
101 128 76
99 127 77
101 129 77
97 124 73
98 126 76
95 122 73
100 127 76
101 128 77
99 127 75
98 126 76
99 126 75
99 127 77
100 128 77
101 129 77
97 124 74
99 126 76
98 126 75
98 125 74
98 126 75
100 127 76
99 127 76
207 216 225
208 218 226
208 217 225
210 219 229
210 219 228
213 222 233
207 217 225
207 216 225
211 221 231
207 216 224
210 219 230
213 221 231
216 224 236
208 217 224
208 218 227
205 215 223
211 220 230
206 216 224
207 216 225
206 216 224
210 218 225
212 220 229
209 218 226
207 215 222
215 224 235
207 216 224
215 223 233
211 219 226
213 222 232
213 221 230
207 216 222
95 122 72
97 124 74
101 129 78
99 126 76
101 128 76
98 126 76
101 129 78
100 127 77
98 125 75
100 127 76
100 127 77
98 125 74
101 128 77
100 127 76
97 124 74
99 126 75
98 125 74
100 127 77
95 122 73
98 125 75
97 124 75
100 128 77
98 126 75
99 126 76
99 126 75
98 125 75
100 128 76
99 126 75
96 123 74
99 127 76
97 124 74
191 201 204
209 218 226
209 219 229
212 221 229
206 216 224
207 216 223
212 221 230
205 215 223
215 224 234
211 219 228
214 222 230
212 220 228
208 217 225
213 222 231
213 221 229
212 221 228
201 211 218
206 216 225
213 221 231
208 217 225
205 214 221
214 223 233
213 221 230
213 222 231
216 225 236
208 217 225
214 222 229
216 224 232
214 223 234
213 221 228
211 220 229
212 219 226
179 191 188
98 125 74
102 129 78
100 128 77
96 123 74
99 126 75
99 126 75
100 127 76
101 129 77
98 126 76
96 124 74
100 127 76
98 126 76
100 127 75
99 127 76
99 126 75
100 127 76
100 127 76
98 125 75
98 125 75
96 124 74
96 123 73
101 128 77
100 128 76
97 124 74
98 126 76
99 126 76
97 124 74
100 128 77
98 126 76
98 125 75
95 123 73
96 124 74
216 224 234
205 214 224
212 220 227
211 220 230
212 221 230
213 222 231
211 221 230
211 219 228
211 219 228
215 223 231
213 221 231
203 213 222
209 218 226
211 219 228
206 215 223
205 215 224
207 216 223
208 216 224
202 211 217
213 222 230
208 218 227
214 222 232
210 219 227
208 217 224
205 215 223
213 222 231
215 225 236
213 221 229
207 217 228
212 221 230
215 223 231
213 221 230
101 129 77
103 131 78
97 124 74
97 124 74
99 127 76
100 128 77
102 129 77
100 128 77
95 122 73
97 125 75
97 125 75
99 127 76
101 128 76
100 127 75
98 126 76
98 126 75
98 125 75
99 126 76
101 129 77
99 126 76
98 126 75
95 122 73
101 128 76
97 125 75
99 126 76
101 128 77
96 123 73
98 125 74
99 126 75
98 126 75
100 127 76
152 169 155
216 223 231
210 219 227
209 217 226
209 218 228
208 217 225
208 217 225
213 221 231
210 218 225
215 223 231
212 221 229
205 214 222
208 218 228
203 213 223
212 222 233
216 224 234
215 224 236
209 218 226
212 222 233
205 214 223
211 219 227
212 222 233
211 219 226
207 216 223
210 219 227
213 221 229
217 225 234
214 222 231
210 219 229
210 219 228
209 217 224
99 127 76
99 127 76
100 127 76
99 127 76
101 129 77
96 124 74
99 126 76
99 127 76
98 125 74
98 125 75
100 128 76
97 125 75
98 125 74
101 128 77
99 126 76
98 125 75
101 129 77
99 126 76
99 126 76
102 130 77
96 123 73
96 123 74
97 124 74
99 126 75
93 120 72
99 126 75
100 127 76
101 128 77
108 133 87
213 222 231
216 224 233
217 225 236
210 219 227
206 215 224
205 214 221
218 225 234
212 220 229
212 221 232
211 219 228
204 213 220
215 223 233
214 221 228
213 221 231
216 223 231
215 223 233
203 214 223
212 220 228
216 225 236
207 216 225
213 221 231
202 212 220
212 221 230
214 222 231
209 218 227
214 222 232
213 222 232
99 126 75
99 126 75
101 129 77
100 128 77
95 122 73
101 129 78
97 123 73
101 128 77
102 130 78
100 128 76
98 125 75
98 126 76
100 128 77
99 126 75
99 127 77
99 127 77
99 126 76
102 130 78
101 129 77
99 127 76
98 125 74
99 126 76
99 126 76
102 129 77
100 127 78
209 218 226
209 218 226
213 222 233
210 218 226
213 221 229
212 221 230
214 222 232
211 220 230
210 220 231
213 221 230
206 215 224
207 215 223
208 216 223
210 218 227
213 221 230
209 218 226
198 208 214
94 121 72
100 127 76
98 125 74
99 127 76
99 127 76
99 126 76
97 124 75
100 128 77
99 127 76
99 126 75
98 126 76
99 127 76
99 127 75
98 125 75
97 124 74
100 128 77
100 128 76
99 127 76
100 128 76
97 124 74
101 128 77
101 129 77
97 124 74
98 125 75
100 128 77
201 211 217
213 221 232
214 222 229
203 213 222
213 223 234
210 220 230
204 214 221
208 217 226
210 219 229
212 220 227
205 214 222
206 215 223
212 221 231
206 215 222
210 219 228
212 221 230
211 220 229
208 217 225
202 213 223
209 218 227
209 218 225
213 221 230
208 217 227
208 217 226
204 214 222
211 220 230
207 216 226
170 184 177
99 126 75
99 127 76
98 126 76
98 125 75
99 126 75
96 124 74
99 126 75
96 123 74
98 125 75
99 126 75
98 125 75
95 123 74
98 125 75
97 125 75
97 124 74
99 126 76
100 127 76
97 124 74
102 129 78
101 129 78
98 126 76
98 125 75
99 127 76
95 122 74
96 123 75
99 127 76
98 125 75
101 129 78
125 146 116
211 220 230
206 216 225
210 219 228
209 218 225
213 222 231
206 216 225
210 219 228
216 224 233
213 222 230
210 218 227
209 218 226
204 213 222
211 220 227
212 221 230
207 216 225
210 218 226
208 218 229
208 218 226
210 220 230
205 215 223
201 211 219
216 223 231
213 221 230
205 214 221
210 219 227
212 221 230
211 219 227
210 219 228
209 218 225
209 218 226
101 129 77
101 129 78
97 125 75
100 128 77
100 128 77
97 124 74
98 125 75
99 126 76
100 127 76
98 125 75
100 128 77
97 124 75
98 125 75
99 127 76
101 128 77
100 128 77
97 124 74
98 125 74
99 127 76
98 126 75
97 125 76
100 127 76
97 124 74
102 129 78
96 124 74
97 124 75
98 126 76
99 126 75
98 126 75
100 128 77
99 126 76
146 164 145
208 217 225
209 218 226
208 218 227
205 214 222
212 220 228
205 214 222
206 215 222
217 225 236
216 224 232
205 214 223
211 220 229
213 221 230
210 218 227
205 215 223
209 218 226
204 214 224
204 214 223
204 213 221
208 217 225
211 220 229
204 214 221
208 217 227
210 219 227
213 221 232
203 212 219
217 225 236
213 221 230
215 223 232
213 222 231
216 224 235
209 218 227
195 205 206
101 129 78
97 125 74
98 126 75
101 129 78
100 127 76
98 125 75
101 129 78
99 126 75
103 130 78
100 128 77
98 125 75
97 125 75
99 126 75
99 126 75
100 127 77
98 125 75
99 127 77
98 126 76
98 125 75
100 128 76
98 126 75
101 129 78
96 123 73
98 125 74
99 126 76
98 126 75
97 124 74
98 125 75
96 123 74
98 126 75
99 126 76
101 129 77
213 222 231
214 222 232
211 220 228
207 216 224
210 218 225
211 219 229
210 219 228
212 221 231
216 224 233
215 223 233
212 221 230
212 221 230
210 219 228
211 220 227
213 222 232
206 216 223
208 217 224
216 224 234
209 218 225
207 216 223
209 219 229
207 216 224
207 216 226
211 219 227
202 212 218
216 224 232
208 217 226
211 220 228
203 213 221
207 217 228
212 220 230
204 213 220
102 129 78
99 126 75
98 125 75
99 126 75
101 129 77
102 130 78
100 127 76
98 125 74
98 125 75
101 128 77
101 128 77
98 125 75
102 130 77
96 123 74
98 126 75
101 129 77
99 127 77
101 128 76
96 124 74
102 129 78
97 124 74
97 125 75
100 128 76
99 127 76
100 127 76
98 125 75
100 127 76
96 123 73
99 127 76
100 127 76
100 128 77
206 215 223
210 219 228
206 216 225
216 224 234
208 217 226
214 223 234
208 218 226
213 220 226
221 228 236
207 216 225
206 216 225
210 219 227
212 221 230
208 216 225
207 216 224
212 221 230
212 220 228
209 217 225
211 220 229
202 213 222
207 217 226
206 215 222
210 219 227
207 216 223
208 217 224
215 222 230
213 220 228
210 219 228
213 221 231
217 224 232
124 145 115
103 130 78
101 128 77
98 126 75
100 127 76
101 128 77
99 126 75
98 125 74
101 128 77
99 126 75
96 124 74
95 122 73
100 128 77
99 127 76
101 128 77
100 128 77
100 128 77
98 125 74
97 125 75
98 125 75
101 129 77
97 124 74
99 127 76
99 127 76
99 127 76
100 127 76
100 127 76
98 125 75
97 125 74
209 218 227
211 219 227
214 222 231
210 220 230
214 222 232
212 221 230
219 226 235
217 225 235
213 222 231
214 222 232
212 221 231
209 219 228
209 218 226
207 215 223
209 217 224
213 222 231
212 220 227
206 215 221
212 220 228
208 217 225
208 217 224
214 222 231
210 218 227
209 217 224
211 219 226
208 217 224
212 220 227
97 124 74
99 127 76
100 128 76
98 125 75
97 125 75
102 129 77
99 126 75
99 126 75
97 124 75
102 130 78
100 128 77
99 126 75
100 128 77
101 128 78
98 125 75
98 126 75
101 128 76
99 126 75
100 127 76
100 127 76
99 127 76
97 124 75
100 128 76
100 128 76
98 124 74
216 223 231
211 220 229
210 219 227
212 221 230
207 215 223
212 220 228
213 222 231
211 220 229
206 216 225
207 216 224
204 214 222
209 217 225
216 224 235
207 216 224
203 213 221
207 216 225
207 217 228
206 215 222
199 209 213
98 125 75
99 126 76
100 127 76
97 125 75
101 129 77
97 124 74
98 125 75
96 123 73
99 127 76
99 126 76
101 129 78
97 124 74
99 127 76
101 129 77
97 124 74
97 124 74
100 127 76
102 129 77
101 128 77
97 124 74
101 129 77
97 124 73
97 124 74
98 125 74
99 126 75
203 212 219
206 216 227
210 219 229
208 216 222
208 218 228
207 216 226
211 218 226
207 215 221
206 215 224
209 219 227
208 216 224
212 220 228
206 214 221
211 219 228
202 212 220
212 220 231
209 218 227
208 217 227
215 223 233
211 220 228
213 221 230
208 217 226
215 224 235
205 215 223
208 217 227
215 223 232
212 220 229
107 132 92
98 125 75
99 126 75
96 124 75
96 123 73
102 130 78
100 127 76
97 124 74
97 125 74
97 124 74
100 128 77
100 128 77
97 125 74
99 127 76
96 124 74
97 124 75
99 126 75
95 122 72
98 125 74
100 127 75
97 125 75
99 126 76
99 126 75
99 127 76
99 127 76
100 127 77
101 128 77
97 125 75
101 129 78
206 215 223
212 221 230
208 217 225
208 217 226
211 219 228
217 224 232
205 214 223
203 213 220
208 218 227
206 215 222
210 219 228
207 217 224
213 222 231
215 224 235
209 218 228
211 220 228
212 221 230
212 221 231
211 220 229
210 218 226
207 216 224
214 222 230
209 218 228
215 223 231
216 224 232
211 219 228
219 227 236
207 217 225
211 219 228
212 221 232
164 179 173
98 125 76
96 123 73
97 124 74
99 126 76
98 125 75
100 128 77
100 127 76
99 127 76
98 125 74
98 125 75
100 127 76
97 124 74
96 124 74
98 126 76
97 124 73
98 125 74
98 126 75
98 126 75
101 129 78
98 126 76
99 127 76
97 125 75
98 126 75
98 125 75
96 123 74
99 127 76
101 128 76
97 125 75
97 124 74
99 127 77
94 122 73
210 220 230
209 219 229
210 220 230
203 214 222
207 217 225
208 217 223
210 219 230
213 221 228
209 217 226
215 223 233
213 222 229
210 219 227
205 215 224
211 219 226
201 211 220
206 215 223
211 220 229
208 217 224
209 218 227
207 216 224
211 219 227
209 218 228
202 212 220
208 218 228
207 217 225
214 223 233
210 219 227
208 217 226
209 218 228
209 219 229
210 218 224
206 215 224
97 124 74
99 126 75
98 125 75
99 126 75
100 127 76
100 128 77
101 128 78
98 126 76
101 128 77
97 125 75
98 125 75
100 128 76
99 127 76
99 126 76
95 123 73
98 125 75
97 125 75
98 125 75
99 127 76
97 124 75
100 127 75
98 125 76
98 125 75
100 127 76
98 125 74
96 123 73
96 124 74
98 126 75
96 124 74
100 127 77
101 129 77
99 126 75
208 217 227
209 217 223
209 218 228
209 217 224
202 213 221
208 217 227
211 220 230
210 219 227
213 221 231
208 217 225
209 218 227
206 215 223
211 220 230
212 221 230
206 215 222
216 224 234
211 220 228
214 222 232
210 219 229
207 216 225
207 215 222
213 222 231
215 223 231
214 223 233
207 217 225
213 222 231
209 218 228
212 222 232
210 218 226
212 221 232
211 219 227
186 197 196
100 128 77
101 129 77
98 126 75
95 122 73
97 124 75
97 124 74
99 126 75
99 126 76
98 125 75
100 127 76
99 126 76
99 126 76
100 127 76
100 127 76
100 127 77
101 129 77
103 130 78
95 122 72
100 127 76
98 126 75
99 127 77
99 126 75
103 130 78
99 126 75
100 128 77
99 127 76
100 127 76
100 128 76
99 126 75
99 126 75
103 130 83
213 221 230
208 217 224
213 221 230
212 221 233
212 221 231
209 218 226
209 218 226
211 219 227
211 220 230
206 216 224
209 219 229
216 224 235
207 217 226
205 214 221
212 220 228
211 220 230
209 218 226
210 219 228
215 223 231
210 219 227
213 221 230
202 211 218
210 219 231
208 216 224
206 215 223
213 222 231
209 218 227
216 223 231
209 217 225
208 217 224
100 128 77
100 127 76
100 127 76
97 124 74
98 125 74
100 128 76
99 126 75
100 128 76
97 124 75
100 127 76
100 128 77
99 126 76
99 127 76
101 129 77
99 127 76
98 125 75
97 124 74
99 126 75
100 127 76
100 128 77
98 126 76
100 128 77
100 128 76
97 124 74
99 126 75
97 124 74
99 127 76
97 125 75
180 193 190
210 219 227
206 215 223
210 219 229
213 222 231
213 222 232
212 220 229
214 222 231
213 221 231
210 219 228
203 212 218
208 218 226
211 219 228
216 224 234
209 218 226
213 222 230
218 226 235
211 219 226
212 221 230
204 213 221
208 217 225
212 221 229
213 222 231
211 219 226
202 211 219
215 223 232
214 221 226
108 134 90
98 126 75
100 127 76
101 128 77
101 128 76
98 126 75
98 125 75
101 129 77
100 128 77
99 127 76
99 127 76
98 125 75
99 126 75
98 125 75
98 125 74
98 126 75
101 129 77
99 127 76
99 126 75
100 127 76
101 128 77
98 125 74
102 130 77
101 128 77
101 129 78
208 218 227
209 217 225
212 221 230
208 217 225
208 217 227
209 218 225
213 222 232
157 172 161
146 163 146
157 172 160
141 159 141
146 163 150
164 178 168
154 170 156
156 172 162
157 172 159
153 169 154
153 169 159
162 177 167
163 176 166
145 162 148
160 175 163
160 175 162
164 178 167
149 165 148
150 167 152
154 170 158
152 169 155
145 163 149
152 167 151
150 167 152
150 167 152
143 161 142
147 165 147
144 162 142
141 158 138
144 162 141
145 162 145
144 161 139
133 153 129
144 161 143
134 153 128
134 154 132
142 160 139
131 151 125
133 153 128
188 200 201
188 200 201
188 200 203
196 206 210
193 203 206
189 201 201
194 204 206
197 208 212
204 213 219
199 209 214
199 210 215
199 209 214
207 215 222
202 212 218
201 211 217
198 208 212
202 212 218
200 210 216
206 215 221
198 208 215
202 211 218
206 216 223
203 213 220
206 215 224
213 222 231
204 214 224
210 219 228
101 129 80
98 126 75
98 125 74
98 124 74
98 125 75
99 127 76
94 121 72
98 126 76
97 124 75
100 127 76
98 126 75
98 126 75
102 129 78
97 124 74
98 125 75
99 126 75
100 127 76
102 130 78
97 124 74
98 125 75
100 127 76
100 127 76
102 129 77
99 126 76
96 123 73
100 128 77
100 127 76
98 126 75
116 140 103
202 212 220
211 220 231
210 219 229
210 219 228
205 215 223
208 218 228
217 225 234
205 214 222
215 222 229
215 223 234
209 218 227
211 220 228
210 218 227
211 221 232
214 222 230
210 219 229
208 217 225
207 216 226
214 222 230
207 217 226
207 217 227
210 218 227
210 219 226
211 219 228
213 221 230
216 224 235
211 219 227
203 214 224
211 219 228
210 219 229
100 128 77
99 126 75
95 122 72
99 127 76
98 125 74
96 123 74
97 124 75
100 127 76
99 127 76
98 126 76
99 126 76
97 124 75
99 126 76
95 122 73
101 129 77
97 124 74
95 122 73
99 126 76
99 126 76
97 124 74
94 122 73
97 125 75
97 125 75
99 126 75
100 128 77
97 125 75
100 128 77
102 129 78
97 125 75
98 125 74
99 126 75
214 223 232
213 221 230
210 219 228
203 212 218
207 216 225
203 213 222
205 215 223
209 218 227
211 220 231
207 216 225
215 223 234
207 216 224
210 219 229
208 217 225
206 216 227
205 214 223
212 221 230
205 214 224
211 219 227
218 226 236
213 222 230
211 219 229
211 221 232
208 217 227
215 223 232
208 217 225
217 225 235
212 222 233
212 221 232
198 208 215
210 219 228
214 222 230
99 127 76
101 128 76
99 126 75
98 126 75
100 127 76
99 126 76
100 128 76
98 125 75
98 126 76
99 127 76
101 128 77
98 126 76
99 126 75
99 127 76
97 125 74
97 123 73
97 124 75
97 124 74
97 125 75
99 127 77
99 127 76
98 125 74
97 124 74
100 128 77
100 128 77
99 126 75
97 124 74
99 126 75
96 123 74
101 129 77
95 122 73
108 133 91
215 223 233
212 220 230
208 217 225
216 224 234
211 219 227
212 220 228
214 222 231
210 219 228
207 217 227
206 216 225
211 220 228
216 225 234
215 223 233
208 217 225
207 215 222
206 215 223
207 216 224
210 219 229
214 223 234
207 216 224
209 217 226
208 217 226
209 218 227
204 213 220
217 225 235
212 220 228
208 217 226
209 219 230
205 215 224
210 218 226
214 223 232
130 151 123
98 125 75
98 126 76
101 129 77
99 126 76
96 123 73
98 125 75
96 123 73
98 125 75
97 124 75
98 125 75
99 126 75
98 125 75
102 129 77
96 123 73
101 128 76
98 126 75
97 125 75
100 127 77
102 129 78
100 128 77
99 127 77
100 127 76
100 127 76
100 127 75
102 129 78
98 126 75
100 127 76
98 125 74
99 127 76
102 129 78
195 206 209
208 217 226
209 218 229
212 220 227
203 213 221
207 216 224
210 219 227
210 219 226
209 218 226
209 218 226
203 213 221
206 215 222
212 221 230
204 214 222
213 221 231
211 220 229
210 219 229
211 219 228
207 217 225
206 215 224
208 217 225
206 216 225
210 219 227
213 221 229
205 214 221
206 215 224
203 213 223
209 218 227
215 223 231
211 220 229
113 137 99
99 126 75
99 126 75
101 129 77
97 123 73
96 123 73
97 124 75
100 127 76
97 124 74
99 127 76
99 126 75
98 125 75
98 125 75
98 125 75
100 128 77
102 130 78
97 125 75
101 128 77
100 128 77
100 128 76
101 128 77
98 125 75
104 131 80
101 128 79
107 133 93
106 131 85
108 133 91
105 130 87
116 139 104
206 215 221
199 209 216
201 211 217
202 211 217
204 213 219
201 211 216
202 211 219
205 214 220
198 209 217
199 209 213
203 212 218
200 209 215
192 202 204
193 204 206
205 214 217
197 206 211
188 200 204
190 202 202
192 203 205
194 203 205
197 207 210
188 200 199
189 200 200
193 204 204
195 205 208
193 203 206
171 185 175
147 164 146
147 164 143
147 165 145
138 157 136
146 163 146
152 168 153
143 161 144
145 163 145
149 166 147
147 165 147
138 157 136
143 161 143
159 173 161
151 167 154
160 175 162
159 174 163
157 172 159
161 176 166
158 174 164
168 181 172
172 185 179
164 178 169
172 185 179
170 184 177
145 162 145
151 167 151
160 175 164
150 167 153
157 173 160
151 167 154
157 173 161
140 159 139
99 126 75
96 123 73
97 124 74
99 126 76
95 122 73
100 127 76
95 122 73
100 127 75
97 125 75
97 125 75
97 124 74
98 125 75
98 125 74
98 126 76
135 154 132
209 218 226
208 217 225
206 215 223
205 216 226
216 224 234
209 218 227
208 218 228
211 220 229
213 222 233
204 213 220
215 223 232
213 222 233
211 219 228
208 218 229
214 223 233
209 218 226
209 218 226
206 215 223
209 218 226
209 218 228
204 214 222
212 221 231
213 221 231
211 219 227
189 200 201
99 126 75
101 129 78
97 125 75
97 124 74
97 124 74
99 126 76
98 125 75
95 123 73
95 122 73
103 130 77
98 125 75
99 127 76
96 123 74
97 125 75
100 128 76
99 127 76
97 124 74
99 126 76
97 124 74
96 124 74
98 125 75
100 127 76
100 128 76
101 128 77
100 128 77
97 124 75
139 158 142
211 219 227
212 221 229
207 217 227
206 215 223
208 216 223
210 218 225
205 215 223
212 220 228
208 217 225
214 222 232
207 216 223
209 218 227
204 214 222
213 222 232
209 219 231
215 223 232
217 225 234
203 213 221
206 216 224
213 221 230
211 219 229
213 222 230
211 220 229
209 218 228
217 224 233
214 223 233
220 227 237
205 214 221
114 137 99
99 126 75
96 123 74
100 128 77
100 127 76
98 126 76
99 127 77
99 126 75
94 121 72
99 126 76
100 128 76
100 128 77
98 126 75
96 123 74
99 127 76
99 126 75
98 125 74
100 128 77
101 129 78
100 127 76
98 126 76
98 125 75
99 126 75
99 127 76
100 128 77
97 124 74
96 122 72
100 127 76
99 126 76
98 125 75
203 213 221
210 219 230
207 217 226
203 213 219
208 217 227
207 217 226
204 213 221
212 220 229
206 216 225
210 218 225
210 218 227
209 218 229
211 219 228
213 222 232
205 215 224
206 216 224
215 223 232
215 223 233
213 222 231
207 216 223
212 220 229
210 219 228
205 215 223
204 213 221
209 218 225
212 220 228
211 220 231
209 218 226
209 218 226
206 215 224
210 219 227
102 128 82
100 127 76
99 127 76
96 124 74
100 127 76
98 126 76
98 125 75
98 126 75
99 126 75
99 126 75
97 125 74
99 126 75
100 127 76
100 126 75
99 127 76
97 125 75
99 126 76
97 124 75
98 126 75
98 126 76
98 126 76
101 129 78
95 122 73
97 125 75
98 125 74
98 126 75
101 128 77
100 128 77
98 126 75
99 126 76
100 128 77
99 126 76
204 213 221
206 216 224
206 215 226
215 223 231
211 219 227
211 220 230
208 217 227
212 221 231
211 220 229
209 219 228
211 220 229
206 215 223
214 221 229
214 223 234
209 218 227
209 217 225
210 219 226
208 217 226
211 219 227
212 220 228
209 219 228
212 220 228
211 219 228
200 210 219
210 219 229
210 219 229
211 219 227
212 220 228
211 219 228
211 221 231
203 213 223
185 197 198
100 128 76
101 128 76
97 124 75
99 127 77
100 127 76
99 126 76
100 127 77
98 125 75
98 126 75
99 126 75
97 125 75
98 125 75
95 122 73
102 129 77
98 125 74
100 127 76
98 125 75
98 126 75
99 126 75
102 129 78
97 124 75
98 125 75
100 128 77
96 123 73
103 130 78
100 127 76
100 127 75
98 126 75
96 123 73
97 124 74
100 127 76
207 216 225
212 221 231
209 219 229
202 211 217
211 219 227
206 215 223
209 218 226
210 218 226
209 217 224
214 221 230
211 220 229
209 218 227
206 215 224
213 221 230
210 220 231
206 215 224
212 220 227
213 221 230
212 220 228
206 215 224
211 219 229
212 221 230
211 220 231
210 218 225
214 223 233
208 217 227
216 224 234
210 219 227
212 221 230
210 218 225
214 222 231
98 125 75
96 123 74
100 127 76
98 125 74
99 127 76
98 125 75
98 125 74
100 127 76
101 129 77
99 126 75
99 126 76
98 125 75
97 124 74
100 127 77
99 126 75
103 130 78
103 130 78
100 127 76
97 124 74
95 122 72
97 124 75
96 123 73
100 128 76
98 125 74
97 124 74
96 124 75
102 129 78
101 128 77
102 129 77
129 148 123
208 217 223
206 216 225
213 221 231
211 219 228
214 222 231
206 215 225
214 221 229
209 217 225
205 215 224
211 220 227
214 222 233
215 223 232
211 219 227
214 222 231
210 218 228
216 223 231
217 225 235
213 221 229
209 218 226
216 224 233
212 221 230
209 218 226
209 219 229
210 219 228
208 216 223
209 218 225
209 218 227
212 220 229
101 129 77
100 127 76
102 129 78
102 129 78
99 126 75
100 127 75
100 128 77
99 127 76
96 123 74
97 125 75
96 124 74
100 127 75
99 126 76
99 126 76
99 126 76
98 126 75
97 124 74
97 125 74
100 127 76
94 121 72
102 129 77
98 125 75
100 127 76
100 127 77
94 121 72
97 124 74
167 181 174
209 218 228
204 213 220
212 221 230
208 216 224
214 222 231
210 219 227
209 218 224
214 222 231
209 218 226
207 216 225
207 217 228
209 218 227
211 220 229
208 217 225
208 216 224
214 221 228
210 219 227
209 218 225
217 224 234
213 221 228
216 223 232
204 214 222
210 219 226
213 221 229
102 129 80
99 125 74
101 129 77
98 125 75
100 128 77
98 126 76
97 124 74
101 128 77
100 127 76
99 127 76
100 128 76
98 126 75
98 125 74
98 125 75
99 126 75
99 127 76
99 126 76
96 123 73
99 126 74
102 129 78
103 130 78
96 123 73
99 127 76
99 126 76
140 158 139
205 214 220
212 220 230
206 216 223
209 217 226
207 216 223
216 223 231
213 221 231
212 220 229
208 216 223
209 218 226
206 216 225
208 217 225
222 229 239
212 220 229
205 215 225
209 217 225
210 219 228
210 219 229
211 219 228
212 220 229
206 216 224
216 225 235
207 217 225
210 220 231
146 163 145
98 126 76
96 124 75
99 126 76
99 127 77
98 125 75
100 127 77
97 124 74
97 124 74
100 127 76
96 123 73
98 125 75
100 127 76
99 126 75
98 126 76
100 128 77
97 124 74
99 127 76
101 128 77
98 125 75
95 122 73
96 123 73
99 127 77
97 124 73
98 125 75
97 124 74
95 123 73
191 202 204
216 224 233
206 215 225
207 216 224
208 217 225
213 222 231
211 220 229
212 221 231
207 215 223
207 217 226
203 212 220
207 216 224
204 215 225
204 214 222
207 215 220
211 220 229
215 223 232
207 217 227
205 214 221
202 211 218
214 223 232
204 214 224
209 218 225
206 214 221
207 216 224
207 216 224
209 218 225
207 217 226
209 217 226
102 129 77
96 123 74
98 126 76
98 126 76
99 126 76
100 128 77
100 128 77
98 126 76
97 125 74
98 126 76
95 122 72
99 126 74
99 127 76
99 126 76
97 125 75
96 124 75
96 123 75
100 127 76
99 127 76
97 124 74
99 126 76
100 127 76
100 127 76
95 122 73
100 127 76
97 125 75
98 125 75
100 127 76
99 127 76
125 146 116
207 216 223
210 219 227
206 215 223
212 220 229
210 219 228
208 217 225
213 222 231
216 224 235
209 218 227
210 219 228
214 222 229
210 219 228
205 214 222
206 215 225
202 212 219
213 221 230
211 220 230
216 224 234
210 219 228
206 216 225
206 215 223
215 223 233
211 219 225
207 216 225
211 219 228
206 216 224
208 217 226
210 218 226
204 214 223
205 214 223
166 180 173
97 124 74
99 126 76
99 126 76
100 128 76
97 125 75
95 122 73
99 127 77
97 124 74
100 128 77
99 126 76
95 122 73
97 124 74
98 126 76
98 125 75
99 127 76
99 127 76
99 126 75
99 127 76
97 125 74
100 127 76
98 125 75
102 129 78
97 124 73
100 127 76
100 127 76
98 125 75
98 125 74
96 123 73
97 124 74
95 121 72
97 124 74
209 218 228
208 217 224
215 223 233
211 219 227
213 221 229
213 221 229
213 222 231
205 213 219
211 219 228
212 220 227
205 215 225
209 218 227
208 217 225
208 216 225
207 216 226
213 221 229
213 220 227
205 214 222
216 224 234
217 225 234
210 219 227
213 221 230
209 218 227
213 221 231
211 219 227
213 221 231
209 218 227
210 218 225
213 221 231
209 217 224
213 221 229
166 180 170
99 127 76
101 129 77
97 124 74
96 124 74
96 122 73
97 125 75
98 125 75
98 126 76
99 126 76
96 124 75
98 125 74
95 122 73
99 126 75
100 128 76
97 124 74
98 125 75
100 128 77
100 128 77
99 127 75
99 127 76
100 128 77
100 127 76
99 126 76
102 129 77
99 126 75
97 123 73
100 128 76
100 128 77
97 124 74
100 127 76
98 125 75
206 215 224
207 217 227
206 215 222
214 222 230
209 217 223
211 220 227
212 220 228
203 213 221
204 213 220
213 222 233
209 218 228
201 211 219
213 222 231
215 222 230
200 210 218
214 223 232
202 211 219
207 215 223
212 221 232
210 219 229
199 209 216
215 223 233
214 222 231
212 220 228
210 219 227
208 217 225
211 220 229
207 216 225
200 210 218
205 215 224
166 180 170
100 128 77
96 124 74
102 130 78
96 124 74
95 122 72
95 122 73
102 129 77
100 127 76
95 122 73
99 126 75
100 127 76
98 125 75
101 129 78
97 124 74
99 126 75
99 126 75
99 127 76
102 130 78
98 125 75
101 128 77
100 127 76
101 128 77
97 124 74
98 125 74
99 126 75
100 128 77
99 126 76
96 123 74
100 128 77
206 215 224
208 217 226
204 213 221
203 213 221
215 223 233
215 223 232
207 215 221
213 221 231
211 220 228
211 219 227
213 221 230
210 220 229
214 222 229
210 219 226
215 223 233
213 221 229
216 225 235
211 220 229
212 220 229
210 220 231
216 224 233
215 223 233
210 218 227
209 217 224
209 218 226
213 221 230
212 220 228
204 213 220
108 133 91
99 127 76
100 127 76
103 130 78
97 125 74
100 128 76
97 125 75
100 127 76
98 126 75
100 127 76
98 126 76
99 126 76
101 128 77
101 128 76
96 123 74
98 125 75
98 125 75
94 121 72
100 127 76
101 128 76
95 122 73
101 128 77
99 126 75
99 126 76
100 127 76
100 128 77
151 167 151
216 224 232
208 217 224
206 215 223
207 216 224
208 216 224
210 218 225
203 212 218
212 220 229
213 221 231
212 220 229
213 221 229
212 220 228
206 215 222
204 213 220
207 216 225
211 219 227
214 222 229
209 217 226
215 223 233
214 222 232
210 219 229
213 222 231
217 225 233
203 212 221
100 127 76
98 125 75
99 126 75
98 125 75
99 127 76
100 128 76
99 126 76
102 129 77
98 126 75
95 122 74
95 122 73
98 126 75
94 121 72
99 126 76
98 126 76
97 124 74
98 125 75
101 129 77
96 124 74
99 127 76
95 122 73
98 125 75
102 130 78
100 127 77
97 124 74
102 130 77
153 169 154
210 218 229
204 213 221
211 219 227
214 222 232
208 218 227
212 220 228
211 219 228
207 216 226
202 211 216
212 220 229
212 221 231
214 223 232
209 218 226
213 221 229
204 214 222
213 221 229
195 206 213
206 215 222
211 219 226
199 209 217
209 218 228
211 220 229
208 218 228
209 219 228
134 154 131
100 127 77
99 126 75
95 123 74
97 124 74
98 126 76
100 128 77
100 127 76
100 127 76
98 125 75
97 124 74
98 126 75
98 125 74
99 126 75
100 127 76
98 125 75
99 126 76
97 124 75
98 126 75
100 127 76
95 122 73
101 128 77
97 125 75
96 123 73
101 129 78
98 126 75
98 125 74
207 216 224
204 213 221
201 211 219
208 217 226
205 214 222
211 220 228
210 219 228
212 220 228
209 218 227
209 218 226
214 222 230
202 213 223
199 209 218
211 219 228
212 221 229
208 217 224
213 222 233
210 218 226
211 220 230
204 214 221
209 217 226
210 219 228
211 220 229
212 221 230
204 214 224
218 226 235
209 218 227
209 218 226
126 147 121
96 123 73
99 126 76
95 122 73
98 125 75
99 126 76
95 123 73
99 127 76
100 127 76
100 128 77
97 125 75
98 125 75
99 126 76
97 125 74
97 125 75
99 126 74
97 124 74
96 123 74
98 125 76
98 126 76
96 123 73
98 125 75
101 128 77
99 127 76
98 126 76
99 127 76
100 127 76
96 123 73
98 125 75
98 126 75
209 218 228
208 217 226
208 218 227
209 218 227
204 214 222
212 221 231
209 218 227
208 218 228
211 220 231
214 222 231
205 214 222
215 223 234
210 218 228
207 216 224
215 223 234
207 215 223
211 220 229
207 215 222
204 214 222
212 220 228
211 220 229
215 222 231
209 219 228
209 218 225
211 220 229
207 216 224
211 219 227
213 221 230
208 217 226
212 221 229
207 216 223
97 125 75
100 127 76
99 127 76
97 124 75
98 127 77
99 126 76
97 125 75
99 126 76
96 123 74
93 120 71
102 130 78
97 125 76
100 128 77
97 124 74
99 126 76
97 124 74
99 126 75
99 126 75
96 123 73
99 127 76
99 127 76
96 124 74
96 124 74
101 128 77
99 127 76
100 127 75
95 121 73
98 125 74
97 124 75
101 129 77
98 126 75
208 216 222
207 216 224
214 221 228
213 222 231
206 215 221
214 223 233
211 219 227
208 217 227
208 217 225
210 219 229
205 214 221
206 215 222
209 219 229
209 218 227
205 214 222
207 216 222
212 221 229
210 219 228
208 217 226
202 212 221
197 207 213
199 210 220
209 218 227
212 220 228
206 216 224
215 223 230
209 217 225
209 218 226
211 220 229
207 215 223
210 218 226
148 164 149
98 125 74
101 129 77
102 130 78
98 125 74
99 126 76
100 128 77
100 128 77
98 126 75
100 128 77
96 124 74
99 126 76
100 128 76
99 126 76
100 127 77
101 129 77
97 125 75
96 123 73
99 126 75
99 126 76
100 128 77
100 127 76
99 126 75
97 124 74
100 127 76
102 129 77
96 123 74
101 129 77
100 127 76
98 126 76
98 125 76
131 152 124
207 217 227
207 216 225
210 219 228
210 219 228
211 221 231
211 219 227
212 220 227
208 218 228
207 216 224
209 217 224
213 222 231
201 212 219
202 212 219
210 219 227
206 215 222
210 220 230
207 216 224
213 222 233
209 219 228
206 215 223
205 214 221
208 217 225
213 221 231
207 217 226
210 219 229
211 220 228
207 216 224
212 219 226
210 219 228
209 218 227
99 126 75
97 124 74
98 125 74
100 127 76
97 124 75
101 128 76
99 126 76
98 126 75
98 126 75
99 127 76
99 126 75
100 127 76
99 126 76
97 125 75
101 128 77
99 126 75
98 125 75
97 124 73
98 125 75
98 126 76
98 125 75
100 128 77
103 130 79
99 126 75
101 129 78
102 130 78
98 125 74
99 126 75
99 127 75
161 176 166
209 218 225
207 216 224
209 217 224
217 224 233
205 215 223
210 219 229
212 221 232
206 214 221
208 217 226
209 218 226
216 224 234
202 212 220
206 216 225
208 216 223
204 213 218
209 219 229
213 221 230
211 220 230
214 222 230
211 220 230
205 214 222
213 221 229
209 218 226
211 219 227
209 218 227
209 217 225
211 220 231
166 180 171
98 126 76
99 126 75
99 126 75
98 125 75
98 126 77
99 127 76
98 124 74
98 126 75
101 128 77
99 126 75
98 125 75
102 130 78
98 125 75
99 126 75
97 123 73
99 126 76
101 128 77
96 123 74
98 125 74
95 122 73
100 128 77
98 125 75
99 126 76
100 127 76
99 126 75
121 143 107
203 213 222
214 222 232
208 217 224
209 218 225
208 217 226
206 214 221
213 220 227
210 219 226
217 225 234
204 214 222
207 216 224
204 214 221
209 218 228
213 222 231
210 219 227
214 222 231
206 215 222
214 223 233
210 219 227
205 215 223
207 216 223
211 220 228
216 223 231
210 219 227
101 128 82
100 127 76
98 124 74
100 127 75
100 127 76
98 125 75
101 129 77
98 125 75
98 125 74
96 123 73
97 125 75
98 125 75
97 124 75
99 127 76
98 126 75
97 124 74
98 125 74
96 122 73
101 129 77
100 128 77
97 124 75
96 123 74
96 123 74
100 127 77
100 128 77
100 128 77
98 125 75
98 126 76
161 176 168
206 215 221
204 214 223
212 220 229
209 217 226
212 220 227
203 213 221
208 217 226
215 223 232
206 217 227
210 220 230
205 214 222
205 215 222
215 223 231
207 216 224
205 215 224
207 216 224
212 221 231
210 219 228
206 216 226
208 217 227
208 217 226
209 217 224
206 216 225
201 211 218
100 127 78
98 125 75
100 127 76
97 124 73
99 127 76
100 127 76
101 128 76
96 123 74
97 124 74
99 127 76
98 126 76
96 123 74
96 123 74
96 123 73
95 122 73
98 125 74
97 125 75
98 125 75
95 122 73
97 124 74
99 126 76
97 124 75
98 125 75
97 124 74
98 126 76
97 125 75
125 147 115
215 223 232
209 218 227
209 218 227
209 218 226
209 219 230
207 216 223
209 218 225
211 220 230
206 215 224
208 218 230
208 217 224
219 226 236
209 217 225
215 224 233
217 224 234
213 221 229
202 212 221
204 214 222
208 217 227
214 222 232
215 223 231
212 220 228
206 216 224
206 215 222
211 220 229
201 210 214
212 221 230
208 217 226
97 125 75
101 129 77
100 127 76
100 127 76
101 128 77
100 128 77
99 126 76
99 127 76
99 126 75
97 124 75
96 123 73
97 124 74
98 125 74
100 128 77
99 126 75
100 127 76
98 125 75
100 128 77
101 128 77
98 125 75
98 125 75
97 124 74
99 126 76
99 126 76
100 128 77
96 124 75
102 129 78
96 123 74
100 128 77
184 196 195
209 218 227
208 217 226
209 218 227
207 216 224
209 218 228
204 213 221
208 217 227
214 222 231
203 213 220
204 214 223
209 218 229
211 220 230
212 221 231
209 218 226
209 218 227
203 213 221
208 217 225
217 225 234
210 219 226
204 213 222
211 219 227
212 220 230
211 219 226
213 221 230
212 221 230
213 222 232
204 213 220
208 218 227
213 221 229
214 222 230
96 123 73
95 122 72
101 128 77
99 126 75
97 124 75
96 123 73
96 123 74
100 128 77
97 125 75
99 127 76
96 123 73
99 126 75
96 124 75
97 124 74
97 124 75
100 127 76
101 128 77
99 126 75
99 125 75
96 123 73
96 124 74
100 127 76
96 124 74
98 125 74
101 129 77
97 124 74
98 126 76
99 126 75
95 122 73
99 127 76
100 127 76
210 218 227
208 217 225
214 223 234
204 213 220
206 216 224
216 224 234
213 221 231
215 222 230
210 219 228
201 211 220
205 214 223
208 217 226
208 217 224
207 216 224
202 211 217
214 221 229
210 219 227
204 212 218
206 216 225
202 212 217
208 217 223
209 217 225
210 218 226
204 214 222
207 216 224
206 215 222
214 221 229
216 224 234
205 214 221
210 219 228
205 215 224
117 141 105
99 126 76
96 123 74
96 123 74
99 127 76
97 124 74
98 126 76
96 123 74
96 123 73
98 125 75
99 126 75
98 125 74
101 128 76
97 124 74
98 125 74
98 125 75
100 127 76
98 125 75
100 128 76
100 128 77
98 126 75
97 124 74
99 127 76
101 128 77
99 126 75
102 129 77
95 121 72
98 125 75
97 125 75
99 127 75
100 127 76
200 210 215
206 216 224
208 217 225
204 213 220
210 218 226
214 222 230
213 221 230
204 213 221
209 217 224
211 220 229
210 219 228
207 217 227
209 218 227
213 221 231
206 216 224
211 219 229
212 221 231
208 217 225
209 218 226
205 215 223
213 221 228
207 217 225
209 218 227
207 216 223
204 213 221
212 221 231
212 220 227
210 219 227
205 215 223
207 216 223
181 194 194
100 127 76
99 126 75
102 129 77
98 124 74
99 126 76
100 128 77
100 127 76
98 126 75
97 125 75
99 126 75
100 128 77
101 129 77
100 128 77
100 127 76
96 124 73
95 122 73
101 129 78
97 124 74
102 129 77
98 126 76
97 125 75
103 131 79
100 127 76
97 124 74
98 125 75
100 128 77
99 126 76
98 126 76
100 128 77
212 221 232
213 221 230
205 215 224
213 222 233
207 217 225
213 221 229
208 218 227
212 221 231
205 214 223
203 212 220
210 218 226
215 222 231
208 217 227
209 218 228
210 219 229
202 212 219
207 216 225
212 221 230
206 215 222
216 223 231
212 221 230
207 216 225
204 213 222
208 217 224
212 220 227
213 222 232
212 220 229
210 218 226
97 124 75
98 125 75
96 123 73
99 126 75
98 125 74
96 124 74
100 127 76
98 125 75
95 122 73
101 129 77
97 124 74
99 127 76
100 127 76
99 127 77
100 127 76
95 122 73
100 128 77
99 127 76
98 125 75
97 124 74
96 123 73
99 126 76
99 126 75
100 127 76
101 129 77
98 125 74
212 220 228
208 216 225
210 218 226
210 219 226
214 222 231
206 215 222
209 217 224
207 216 223
214 221 228
202 211 219
210 218 227
211 220 229
214 222 230
211 219 227
215 223 234
208 217 224
215 223 233
209 217 226
203 212 220
206 215 223
206 214 223
207 217 225
209 218 227
214 222 231
99 126 78
101 129 77
102 129 77
97 123 73
101 128 77
101 129 77
100 127 76
97 124 74
101 128 76
98 125 74
99 126 75
97 125 75
97 124 73
99 126 75
97 125 75
97 125 74
98 125 74
100 127 77
94 121 71
99 126 75
101 129 78
97 124 74
99 127 76
98 125 75
98 125 75
97 125 74
98 125 75
98 125 74
100 127 76
100 127 77
148 166 152
207 217 227
213 221 230
198 208 215
205 214 219
208 216 224
213 221 231
213 221 230
207 217 226
213 221 231
211 220 229
210 218 227
212 221 231
211 220 230
212 220 230
209 218 227
211 220 229
208 217 225
216 224 235
214 223 232
208 217 225
213 221 229
209 217 224
210 219 227
199 209 216
96 124 74
100 127 76
99 126 75
97 125 75
97 125 75
100 127 76
98 126 75
98 125 75
101 128 77
101 129 77
101 129 77
101 128 76
97 124 74
100 128 77
99 127 76
97 125 75
97 125 75
97 125 74
97 124 74
98 125 74
98 125 75
96 123 74
98 125 74
100 127 76
100 128 77
101 129 77
184 196 197
206 215 223
210 219 228
218 224 232
207 217 226
213 222 231
214 222 230
210 219 227
205 215 224
209 218 227
211 219 229
207 216 224
203 213 221
211 220 229
207 216 225
213 222 232
210 219 229
204 213 219
207 216 226
214 223 234
208 216 224
211 219 228
218 226 236
208 216 224
210 218 226
205 215 223
206 215 223
208 217 227
151 167 150
99 127 75
98 125 75
93 120 72
100 127 76
100 127 76
92 119 71
96 124 75
98 125 75
100 127 77
102 130 78
99 126 76
98 125 75
97 124 74
99 126 75
99 126 76
99 126 75
98 126 77
99 127 76
101 129 77
96 123 73
100 128 77
98 126 76
101 129 78
100 127 76
100 128 78
94 121 72
98 125 75
97 125 75
99 127 79
206 215 224
210 219 227
212 221 231
208 217 223
208 217 225
213 221 229
208 218 229
211 220 229
205 214 222
214 222 230
206 215 222
214 222 231
215 222 229
209 218 226
207 216 226
210 218 226
212 220 227
213 222 231
208 217 228
212 220 230
201 211 219
213 222 231
204 213 222
206 216 225
210 219 228
210 218 226
208 217 226
210 219 229
207 217 227
211 220 227
98 126 75
101 128 77
96 123 73
94 121 73
98 125 75
98 125 75
100 128 77
97 124 73
100 127 76
97 125 75
101 128 77
98 126 75
100 128 77
98 125 75
98 125 75
99 127 76
101 128 77
97 124 74
93 120 72
99 126 76
97 125 74
99 127 76
100 128 77
97 125 75
98 125 75
96 123 73
100 127 75
100 128 77
99 126 75
96 123 74
94 121 72
207 215 222
211 220 228
213 222 233
210 219 228
209 219 228
211 220 229
208 217 226
210 219 228
214 222 231
215 223 232
206 215 224
209 218 228
212 220 230
203 212 218
216 224 233
209 217 225
216 223 231
208 217 227
206 215 223
211 220 229
207 216 225
209 218 226
203 212 220
211 220 228
213 221 231
206 215 222
206 215 221
212 221 231
208 217 226
212 221 230
210 219 227
101 128 77
98 125 75
98 126 76
101 129 77
100 127 76
98 125 75
98 124 74
100 127 76
99 126 75
101 128 76
98 126 75
97 124 74
97 124 73
101 129 77
101 129 78
100 128 77
101 129 78
101 129 77
98 126 75
100 127 76
100 127 76
101 129 78
99 126 76
98 125 75
99 127 76
98 125 76
99 127 76
98 126 76
98 125 75
97 124 74
100 128 76
210 219 229
211 219 228
213 222 232
214 223 233
207 217 225
208 217 223
204 213 219
214 222 232
211 219 228
210 218 226
210 219 227
207 216 225
207 216 223
212 220 230
211 219 229
208 216 223
210 218 226
213 221 231
208 216 224
207 215 223
210 218 226
209 218 226
208 217 226
210 218 226
210 218 227
207 216 223
203 212 219
216 223 231
203 213 221
204 214 222
108 132 90
100 128 77
98 125 75
97 124 73
97 125 75
100 127 76
99 127 76
101 129 77
97 125 75
97 124 75
99 126 75
100 128 77
101 129 77
96 124 74
97 124 74
100 127 76
100 128 77
99 126 75
101 128 76
99 126 75
100 128 76
100 128 77
100 127 76
100 127 76
98 125 75
99 127 76
98 125 75
97 124 75
100 127 76
187 197 196
208 216 224
212 220 230
208 216 225
208 217 226
211 219 228
210 218 224
204 214 223
212 219 226
207 217 226
210 219 228
208 217 223
212 221 230
213 221 231
206 215 222
209 218 228
210 217 225
206 216 227
209 217 225
204 213 219
215 222 230
203 213 220
207 215 222
209 218 226
208 217 224
208 217 225
207 216 225
213 221 231
99 127 76
100 128 78
98 125 74
99 127 76
94 121 72
96 123 74
101 129 78
100 127 75
99 127 76
100 127 76
98 126 75
95 123 73
96 123 73
99 127 76
99 126 75
99 126 75
97 124 74
99 126 76
99 127 75
98 126 76
99 126 75
96 123 73
96 123 73
96 123 74
97 124 74
101 128 76
210 219 227
210 219 227
215 223 231
212 220 228
207 215 221
209 218 227
209 217 224
208 216 224
212 221 230
210 218 225
213 220 228
213 221 229
208 217 224
207 217 226
207 217 225
202 212 219
213 221 230
213 221 230
203 213 219
210 219 227
214 221 230
208 217 226
210 218 225
208 216 224
102 128 82
98 125 75
99 126 75
96 124 74
100 128 76
96 123 73
98 125 74
99 127 76
98 125 74
99 127 75
100 127 76
100 127 76
99 127 76
96 123 73
98 125 75
98 125 75
95 122 73
96 124 74
100 128 77
96 123 73
98 125 74
99 126 75
97 124 74
95 122 73
98 125 75
95 123 74
96 123 73
98 126 75
99 127 76
97 124 74
98 126 76
102 129 78
174 187 183
207 217 225
203 212 218
206 216 224
216 224 233
208 217 226
213 221 230
210 219 228
210 219 228
212 221 229
208 217 225
210 218 225
211 220 231
208 217 225
211 220 230
211 219 228
211 220 229
204 214 225
209 218 225
215 223 232
209 219 229
204 214 222
208 218 226
207 217 227
209 218 228
99 126 75
99 127 77
96 123 74
100 128 77
100 127 76
96 123 74
100 127 76
96 123 74
96 124 74
100 127 76
98 125 74
98 126 76
100 127 76
99 126 75
98 126 75
101 128 77
99 126 76
100 127 76
95 122 73
100 127 76
97 125 75
98 125 75
102 129 77
100 128 76
97 124 74
99 127 76
205 215 224
207 217 227
200 209 217
209 217 225
206 216 225
208 217 226
210 219 227
208 217 227
206 215 224
200 210 219
214 222 232
205 214 222
204 213 220
204 213 220
208 217 226
207 216 224
214 223 233
210 218 227
213 221 230
210 218 226
206 215 224
205 215 223
200 211 218
210 218 227
211 219 228
200 210 217
205 215 223
209 218 226
97 124 74
97 124 74
96 123 73
97 124 74
95 122 73
96 124 74
98 126 75
97 123 73
98 125 75
97 124 74
99 126 76
97 124 74
100 127 75
98 125 75
98 125 75
95 122 73
99 126 76
99 126 76
98 125 75
96 123 73
99 126 76
99 126 76
98 125 74
101 128 77
96 123 72
100 128 77
99 127 76
96 123 74
98 125 75
206 216 223
207 216 223
210 218 226
206 215 222
216 225 235
208 217 226
205 214 221
207 216 224
201 212 220
199 209 215
211 220 229
207 216 224
206 215 223
210 219 226
207 216 224
211 220 230
212 220 227
203 213 221
204 213 221
209 218 227
209 218 226
206 214 222
211 219 229
212 220 230
206 215 223
211 219 227
213 222 232
210 219 227
212 220 228
207 216 223
145 161 142
99 127 77
98 125 75
97 124 75
96 123 74
100 127 76
96 123 74
98 125 74
101 128 77
96 124 75
98 125 75
98 125 75
97 124 74
99 126 75
99 127 76
98 126 76
97 124 74
100 127 76
97 125 75
96 124 75
97 125 74
100 128 77
98 125 74
97 124 73
99 126 75
97 124 74
99 126 76
97 124 74
100 127 76
99 126 75
95 122 73
213 222 231
209 218 226
216 224 233
213 222 231
207 216 222
207 217 227
208 216 225
209 218 226
202 211 219
211 219 227
207 215 222
213 222 234
208 217 225
210 218 226
203 212 220
209 217 225
209 217 224
204 213 221
211 219 226
208 217 224
206 215 222
211 220 229
210 218 225
206 214 222
208 217 225
206 216 224
206 215 224
205 215 222
205 215 223
203 212 220
206 216 226
98 125 75
94 121 71
99 126 75
99 127 76
97 124 75
97 125 76
98 126 76
99 126 75
94 121 73
97 124 74
98 125 74
96 123 73
101 129 78
97 124 74
100 128 77
96 123 74
100 128 77
99 126 76
98 126 75
97 124 74
99 126 76
100 128 77
99 127 76
99 126 75
97 125 75
96 123 74
96 123 73
100 127 76
97 125 75
97 124 74
101 128 79
212 221 231
207 216 223
213 221 231
213 222 232
212 220 230
208 217 225
205 214 223
213 221 229
204 213 223
210 219 228
212 220 229
207 216 225
205 214 221
212 221 229
215 223 232
211 220 229
209 219 229
209 218 227
208 217 225
204 214 221
211 219 227
203 212 218
208 218 228
208 217 224
208 218 228
208 217 223
210 219 228
210 219 228
210 218 227
207 216 226
98 125 75
99 127 77
101 129 77
94 121 72
99 126 76
98 125 74
99 126 76
98 125 75
101 128 77
99 126 75
97 125 75
97 124 74
101 128 76
98 125 75
98 126 75
100 128 77
98 125 75
99 126 76
95 121 72
97 124 74
100 128 77
99 126 76
100 128 76
95 122 73
99 126 75
101 128 76
100 127 77
101 128 77
117 140 102
209 218 226
209 218 227
211 220 229
212 220 229
209 217 225
206 216 224
212 221 231
209 219 230
213 221 229
209 217 225
212 221 230
207 216 224
210 219 227
210 219 228
206 214 221
208 217 227
213 221 229
211 219 227
212 220 230
212 220 228
208 216 223
209 218 226
213 221 229
211 220 229
210 218 226
212 220 228
209 217 224
111 134 98
100 127 76
97 125 74
98 125 74
100 127 76
99 126 75
98 126 75
100 127 76
98 125 75
97 124 74
98 125 75
100 127 76
100 127 76
99 127 77
99 127 76
97 124 74
100 127 76
94 121 72
99 126 76
97 125 74
100 128 77
99 126 75
98 125 74
96 124 74
98 125 74
100 127 77
202 212 219
208 217 224
204 214 223
212 220 230
206 216 224
209 217 225
208 217 224
213 221 229
210 219 228
201 211 219
212 220 229
209 219 228
204 214 222
206 215 223
212 221 230
213 222 231
209 218 226
208 217 225
208 217 224
211 220 228
215 223 233
208 216 224
208 217 225
212 219 227
105 131 83
94 122 73
100 127 76
98 125 74
98 125 75
99 126 75
99 126 75
101 129 77
99 126 75
99 126 76
103 130 77
97 125 74
97 124 74
99 127 76
98 125 74
99 126 75
99 126 75
99 127 76
96 123 74
98 125 75
95 122 73
99 127 76
96 123 73
98 125 75
94 121 72
98 126 75
101 129 77
96 123 73
98 125 75
99 127 76
101 128 76
99 126 76
99 126 76
100 127 77
166 180 172
205 215 224
204 214 222
206 215 223
206 216 224
209 218 228
206 215 223
211 220 230
208 217 227
211 220 230
210 219 228
207 216 225
210 219 229
202 212 219
208 217 227
209 218 228
210 219 228
212 221 230
211 220 230
208 217 225
209 218 226
208 217 224
213 221 230
208 216 224
184 196 195
97 124 75
100 127 76
96 124 74
94 121 72
97 125 75
98 125 75
98 126 76
97 125 75
96 123 74
99 127 76
97 125 75
99 127 76
99 126 75
100 127 76
99 126 75
101 129 77
99 126 75
98 125 75
98 126 76
99 126 75
94 121 72
100 127 76
96 123 73
99 126 75
97 125 75
107 132 91
207 217 227
215 224 234
212 220 229
209 217 224
207 216 226
203 212 219
213 222 231
209 218 226
210 218 226
208 218 227
215 223 232
208 217 227
203 213 220
209 218 228
211 219 228
204 214 223
207 216 223
207 216 225
207 217 225
205 214 223
216 223 231
207 217 226
207 217 226
210 219 227
208 217 225
207 216 223
218 225 234
172 185 181
97 124 74
95 122 73
98 125 75
101 129 77
97 124 74
97 124 74
98 125 74
98 125 74
98 125 75
100 127 76
97 124 74
100 128 77
101 129 77
99 126 75
98 125 75
98 125 75
98 125 75
96 123 74
98 125 74
96 123 73
100 127 77
96 123 73
98 125 75
101 129 78
100 127 76
99 126 76
99 127 76
98 125 76
136 155 133
204 212 217
212 221 230
210 219 228
210 219 228
208 216 224
200 210 218
208 217 224
203 213 222
212 221 230
205 214 223
203 213 222
213 222 231
215 224 233
213 221 231
209 217 224
214 222 231
211 220 230
215 222 230
208 217 227
205 215 224
207 217 226
215 223 233
207 216 224
206 215 223
203 212 221
211 219 227
210 219 229
210 218 226
209 218 226
192 202 203
103 130 78
96 123 73
96 123 74
99 126 76
95 121 72
95 122 73
97 124 74
97 124 74
97 124 74
97 124 74
98 125 75
99 126 76
100 127 76
97 124 74
98 125 75
97 124 74
94 121 72
98 126 76
100 127 76
99 126 76
99 126 76
99 127 76
95 123 74
97 124 74
98 125 75
99 126 75
95 122 72
101 129 78
97 124 74
100 127 76
214 222 232
214 222 231
207 217 227
215 224 234
211 220 228
206 215 223
209 218 227
212 221 230
207 217 227
209 218 227
211 220 231
211 220 228
212 221 229
203 212 219
210 219 229
205 214 222
208 218 228
207 216 223
208 217 227
208 217 224
207 216 223
210 218 226
204 214 223
208 217 225
204 213 219
204 213 221
212 221 231
209 218 226
211 220 228
210 219 228
213 221 228
94 121 73
100 127 75
92 119 71
98 125 75
98 125 74
100 128 77
97 124 75
96 123 74
98 125 75
100 127 77
100 127 77
99 126 75
97 125 75
98 125 75
99 126 75
97 125 75
99 126 76
101 129 77
100 128 77
101 128 77
99 126 76
98 125 74
99 127 76
99 126 76
97 125 75
95 121 73
96 123 74
100 128 77
100 127 76
98 126 76
170 184 179
205 215 224
214 222 232
203 212 219
206 216 225
208 217 225
214 222 230
209 218 227
209 219 228
206 216 226
199 209 216
207 216 225
206 214 223
210 219 227
202 213 222
210 218 226
205 215 223
204 214 222
206 216 223
209 218 226
209 218 226
213 221 229
209 218 228
211 220 229
210 218 225
215 223 233
206 216 224
207 216 223
214 223 233
213 222 231
135 154 132
99 126 75
98 125 75
99 126 76
99 126 75
97 124 73
98 126 76
98 126 76
98 125 74
99 126 75
100 127 77
97 125 75
100 128 77
100 127 76
95 122 72
99 126 76
98 125 76
101 128 77
99 127 76
100 128 76
97 124 74
100 128 77
96 123 73
98 126 75
98 125 74
99 126 75
97 124 74
99 126 76
101 129 77
212 220 228
205 214 223
216 224 233
207 215 224
207 216 223
213 222 231
213 220 227
211 219 229
208 216 222
203 213 221
213 221 231
209 219 229
209 217 225
211 219 228
211 220 228
218 225 235
205 215 223
208 216 223
208 217 226
209 218 227
212 221 231
214 223 233
215 223 231
212 220 227
211 219 227
211 219 228
209 218 227
174 186 181
102 130 78
101 128 77
99 126 76
99 126 75
99 127 75
100 128 76
95 122 72
103 131 79
100 128 77
96 123 74
97 124 74
101 128 76
99 126 75
97 124 74
100 128 77
99 126 76
99 126 75
97 124 74
99 126 75
99 126 76
99 127 76
101 128 76
99 126 76
99 126 76
102 130 78
192 203 207
199 209 214
206 215 222
211 219 228
218 226 236
206 215 221
215 223 233
210 218 227
209 218 228
213 221 230
208 217 225
207 216 226
214 221 228
212 221 229
211 219 227
216 223 230
215 222 230
212 221 231
207 216 223
208 217 224
213 220 226
208 216 224
208 217 227
209 218 228
101 127 81
99 127 76
96 124 74
99 126 76
100 128 76
94 120 71
99 126 75
97 123 73
100 128 77
99 127 76
98 125 75
98 126 75
100 127 76
100 127 76
102 129 77
99 126 75
96 123 73
97 124 74
98 125 74
97 125 75
99 127 76
96 123 74
96 124 75
96 124 74
95 122 72
97 124 75
97 124 74
99 127 77
96 122 73
95 122 73
97 124 74
96 123 73
99 126 75
100 128 77
95 122 74
101 129 77
155 171 159
211 220 228
204 214 221
211 219 228
202 211 220
211 219 228
209 217 225
210 219 229
207 216 225
202 211 219
210 218 226
201 210 217
213 221 231
206 215 225
205 215 223
208 217 226
215 223 232
207 216 224
204 214 222
207 216 226
207 216 223
205 214 222
207 217 227
210 219 228
172 185 180
96 124 74
97 124 74
99 126 75
99 126 76
99 126 75
99 126 75
96 124 74
101 128 77
98 125 74
101 128 77
97 124 74
98 125 74
99 126 75
98 125 75
95 123 73
100 127 76
97 125 74
96 123 73
97 124 75
98 125 74
97 124 75
97 125 75
97 125 76
100 127 76
102 129 78
170 184 176
210 218 226
210 219 227
214 222 231
208 218 226
203 213 219
212 220 230
208 217 227
205 214 222
208 216 225
209 218 227
210 218 226
206 215 223
212 220 229
212 220 229
210 219 229
209 217 225
210 219 228
203 213 221
210 219 229
205 215 223
210 219 230
204 214 223
209 218 227
210 219 230
214 223 232
206 215 223
208 217 224
98 126 75
99 127 76
99 126 75
98 125 74
98 125 75
97 125 75
99 127 76
97 124 74
97 124 74
98 126 75
100 128 76
97 124 74
97 125 75
98 126 76
96 123 74
96 123 73
100 127 76
96 123 73
101 128 77
100 128 76
99 126 76
98 125 74
98 125 75
97 124 74
100 128 77
96 124 75
95 122 73
94 121 72
97 124 75
204 214 221
207 215 224
211 220 232
206 216 224
207 217 227
207 216 225
214 222 231
208 216 224
216 224 233
197 208 215
204 215 224
205 215 224
210 219 228
209 218 227
205 214 222
206 215 223
208 217 224
211 220 229
214 222 230
202 212 219
200 210 216
216 224 234
206 215 224
201 211 219
208 217 227
211 220 230
211 220 229
212 220 228
205 214 222
203 213 221
98 126 75
98 125 76
97 125 76
98 125 75
98 125 75
100 127 76
98 126 75
99 126 76
99 127 76
96 123 73
101 129 77
96 123 74
97 125 75
99 126 76
95 122 73
97 124 74
97 124 74
99 127 76
99 126 75
99 126 76
99 126 76
96 124 74
97 124 74
97 125 75
99 126 75
98 125 75
98 125 75
101 128 77
98 125 75
96 123 73
194 204 208
204 214 222
202 212 219
206 215 223
213 221 229
208 217 224
210 219 229
208 217 226
210 220 231
212 221 229
213 222 233
206 215 223
206 216 225
208 217 225
209 217 225
213 221 229
206 215 224
212 221 230
211 220 229
214 222 230
205 213 219
209 218 226
208 217 227
206 216 224
208 217 227
204 213 220
208 218 226
206 215 224
208 217 225
208 216 223
215 223 231
98 125 74
94 122 74
99 126 75
98 125 75
99 127 76
101 129 78
100 128 78
101 128 77
100 127 76
98 125 75
101 129 78
98 125 75
100 127 76
99 126 76
100 127 76
101 128 77
97 124 74
98 126 76
98 125 76
97 125 75
101 128 77
99 125 74
96 123 73
101 129 78
96 123 73
97 124 74
99 127 76
94 121 72
99 126 75
96 123 73
204 213 220
212 221 229
209 218 226
208 216 223
213 222 234
205 214 222
211 219 227
214 222 231
205 214 221
209 217 225
208 217 224
205 215 223
215 224 234
208 217 224
210 218 226
212 221 230
209 218 227
211 220 230
212 221 231
214 222 231
207 217 226
206 215 223
214 222 232
206 214 222
207 216 224
212 221 230
216 224 234
214 222 231
206 216 225
212 221 231
100 127 76
100 127 76
97 124 74
98 125 76
101 129 77
98 125 75
102 129 78
97 125 75
100 127 76
97 125 75
97 124 73
96 124 74
96 122 73
101 129 77
99 126 75
98 125 74
101 129 77
98 125 74
100 127 75
98 126 75
97 124 74
99 126 75
102 129 78
97 124 74
99 126 75
98 125 75
97 125 74
99 127 76
146 163 145
216 224 234
206 215 222
213 221 229
208 218 228
210 220 229
214 222 231
215 223 233
216 224 233
211 219 226
207 217 227
208 217 223
205 215 224
207 216 224
208 217 225
212 220 228
213 221 231
205 214 221
214 223 232
213 221 230
214 222 230
196 207 214
218 226 236
205 214 222
210 219 229
208 217 225
212 220 228
211 220 229
98 125 75
101 128 77
99 126 75
98 125 75
99 126 75
97 124 74
99 127 76
96 123 73
96 123 73
98 126 75
99 125 74
101 129 78
98 125 74
96 123 73
98 125 74
100 127 75
100 128 77
96 124 74
98 126 75
97 124 74
101 128 76
97 124 74
98 124 73
98 125 75
101 128 76
180 192 191
210 219 226
207 215 222
211 220 229
211 219 226
207 216 226
215 223 231
208 218 227
209 218 227
202 212 220
208 217 226
202 212 221
212 220 228
214 222 230
212 221 230
210 218 225
212 220 229
209 217 225
207 217 228
210 219 227
209 219 228
208 216 223
210 218 224
210 218 227
100 128 77
100 127 75
100 127 76
97 124 74
97 125 75
100 127 76
97 124 74
98 126 75
99 126 75
99 126 75
98 124 74
98 125 74
99 126 76
97 124 74
97 124 74
98 125 75
178 191 191
98 125 75
99 126 75
95 122 73
95 122 72
94 120 71
99 126 75
98 125 74
97 125 76
98 125 75
99 127 76
97 123 73
96 123 74
96 124 74
98 126 76
96 123 74
99 127 76
98 125 75
98 125 74
99 127 75
98 125 75
100 128 77
162 177 170
210 219 228
212 221 232
206 216 224
210 219 227
202 212 221
210 219 229
208 216 223
214 223 233
205 214 223
211 219 229
215 222 231
211 219 228
209 217 224
203 214 223
204 213 220
206 215 225
214 222 231
206 216 224
209 218 227
207 217 227
205 215 222
208 217 225
203 214 222
140 159 137
97 124 74
100 127 76
96 123 74
97 124 74
101 128 77
99 126 75
98 125 74
97 124 74
99 126 75
95 122 73
101 129 77
98 126 76
98 125 75
98 126 75
95 123 73
99 126 75
98 125 75
98 126 75
97 125 75
96 124 74
100 128 76
97 124 74
99 127 76
95 122 72
96 123 73
204 213 220
215 224 234
207 216 224
199 210 220
200 210 218
205 214 221
198 208 217
203 213 221
209 217 225
211 220 229
208 217 225
203 214 222
209 218 228
205 215 223
208 217 227
206 216 224
211 220 231
209 218 226
207 216 225
212 221 232
207 216 223
207 217 226
213 221 229
204 214 222
205 215 223
211 220 231
205 214 223
195 205 207
99 127 76
97 124 74
99 127 76
99 126 75
98 126 75
94 122 72
98 125 75
98 125 74
96 123 74
99 126 75
95 123 74
98 125 75
97 125 75
100 128 76
99 127 76
100 127 77
102 130 79
97 124 74
93 120 72
96 123 74
101 129 77
97 124 73
97 124 73
100 128 77
96 124 75
96 123 72
98 126 75
98 126 76
183 194 192
209 219 228
208 218 227
205 215 221
206 215 223
211 220 229
208 217 225
213 220 227
210 219 229
212 220 228
212 220 229
208 217 225
204 213 220
209 218 227
206 215 221
206 215 225
210 219 228
204 214 223
206 216 225
203 213 221
204 213 219
205 214 222
213 221 230
208 216 223
210 218 225
215 223 232
207 217 226
212 221 230
206 215 223
210 219 228
100 127 76
97 124 74
99 127 76
100 127 75
99 126 75
99 126 75
98 125 75
96 124 74
98 125 75
99 126 75
98 125 74
100 127 77
94 122 73
98 125 74
100 128 77
97 124 74
97 124 74
98 125 75
100 127 76
95 122 73
99 126 75
98 125 74
98 125 75
98 125 75
100 127 76
98 125 73
98 124 74
101 128 77
96 124 75
98 126 76
185 197 198
212 220 230
213 221 232
210 219 229
211 219 229
209 218 226
213 222 231
206 216 226
207 215 222
212 220 228
210 219 228
200 210 216
209 217 224
204 213 221
207 216 224
211 220 230
210 218 226
205 214 221
210 219 227
212 221 229
202 211 219
212 221 231
215 224 234
204 213 221
216 224 233
209 218 226
211 220 229
205 214 221
209 218 227
210 217 223
206 215 224
100 127 77
99 126 75
97 125 74
99 127 76
96 123 74
98 126 76
95 122 73
100 127 76
93 120 71
101 129 77
99 126 76
97 125 75
99 127 76
97 124 74
100 127 76
97 124 74
101 128 76
97 124 74
94 121 73
98 126 75
96 123 74
100 127 76
97 124 74
98 125 75
99 126 76
96 123 74
100 127 76
100 127 76
97 124 74
101 128 76
203 213 221
212 221 230
210 218 227
209 218 225
205 214 222
214 222 233
210 219 226
213 221 230
212 220 229
213 221 229
211 219 227
207 216 225
210 219 228
214 222 231
205 215 224
213 221 229
217 225 235
210 219 229
208 217 225
205 215 223
206 216 226
208 217 223
208 217 225
211 219 227
213 221 230
212 220 228
212 219 227
200 210 217
209 217 224
159 174 162
97 125 75
96 123 73
102 129 77
100 127 76
101 128 77
99 126 76
99 126 75
95 122 73
100 128 76
100 128 77
97 125 74
94 121 72
99 126 76
97 124 75
99 126 75
99 126 75
98 125 75
103 130 78
100 128 77
100 128 76
98 125 75
97 124 74
98 125 75
100 127 76
98 125 74
96 123 74
103 131 78
99 127 76
209 219 231
207 216 224
209 218 227
205 215 225
207 216 223
208 217 225
210 219 228
210 218 226
208 218 228
207 216 224
218 226 234
214 223 233
213 221 229
211 219 227
211 219 226
211 220 228
206 215 223
203 212 219
205 215 224
210 218 226
214 223 233
204 213 219
209 218 227
208 217 226
213 221 231
208 217 224
212 221 231
102 130 78
97 124 74
97 124 75
97 124 75
99 126 76
98 125 74
101 128 77
97 125 75
101 128 77
96 124 74
98 126 75
96 122 73
99 126 75
97 125 75
100 128 77
98 125 74
99 126 75
97 124 73
95 122 73
100 127 77
100 127 76
100 127 76
100 127 76
98 125 75
102 129 77
152 168 153
212 220 228
210 219 227
208 217 225
207 217 225
207 216 224
204 214 223
203 212 220
211 219 227
209 217 225
213 221 229
209 218 228
208 217 225
212 220 230
210 218 227
213 220 228
210 218 226
209 218 225
214 222 231
206 216 225
211 220 228
198 207 212
209 217 224
204 212 219
102 129 80
102 130 78
100 128 77
99 127 76
97 124 74
96 123 73
100 127 76
96 123 73
99 126 75
99 127 77
99 126 75
98 125 74
100 128 76
99 127 75
98 125 75
98 125 75
102 129 77
209 217 226
184 196 198
99 127 76
97 124 74
98 124 74
95 122 73
98 125 74
100 127 76
97 125 75
98 125 75
97 124 74
96 123 74
98 125 75
98 125 75
98 125 75
96 124 74
99 126 76
97 124 74
98 126 75
100 127 76
98 125 75
100 127 77
99 126 75
182 194 193
207 216 225
206 215 223
205 214 220
203 212 219
207 216 222
209 218 228
210 219 228
212 220 229
212 221 230
208 218 226
211 220 229
211 220 230
206 216 226
208 216 225
213 222 232
205 215 224
210 219 228
202 212 219
207 217 226
209 218 228
206 215 223
205 215 224
211 220 228
122 143 115
99 127 76
99 126 75
98 126 76
99 127 76
99 127 76
99 127 76
98 126 76
99 126 75
99 126 75
98 125 75
95 122 73
99 126 76
98 125 74
98 126 76
97 124 74
98 125 75
95 123 73
100 127 76
99 126 76
96 123 74
96 123 73
99 127 76
95 122 73
99 126 75
97 124 75
210 219 228
213 221 230
206 214 221
208 216 224
205 216 226
207 216 225
212 220 230
214 223 232
206 215 224
199 209 216
200 210 217
212 220 229
205 214 222
210 219 227
211 219 228
208 218 228
210 218 226
211 220 228
211 219 227
213 221 230
216 224 233
206 214 221
201 211 217
199 209 218
204 213 221
206 216 225
210 220 230
109 134 94
96 123 74
98 125 75
95 122 73
98 125 75
98 125 75
97 125 75
95 122 73
98 126 75
96 124 74
97 125 75
99 126 76
96 123 74
98 125 75
95 122 73
96 123 74
99 126 75
100 127 76
97 124 74
99 126 75
98 126 75
98 125 75
99 126 75
97 124 74
98 125 75
96 123 73
99 127 76
98 125 74
100 127 78
209 218 227
198 209 218
204 214 222
206 215 224
207 217 226
208 217 227
210 218 227
211 220 231
208 217 226
212 220 228
208 217 226
207 216 225
211 219 226
203 212 219
207 216 224
209 218 225
206 216 226
207 215 224
203 214 224
207 217 225
202 212 219
207 216 225
207 216 223
216 224 233
209 218 227
204 213 219
206 216 225
208 218 228
211 220 228
117 140 105
95 122 73
96 124 74
101 128 77
99 127 76
98 126 75
99 127 76
99 127 77
99 126 75
98 126 75
96 124 74
98 126 75
95 123 73
100 128 76
97 125 76
99 126 76
100 127 76
99 127 76
96 123 74
99 127 76
98 125 74
98 125 75
96 124 74
94 121 73
100 127 76
100 127 76
98 125 75
97 125 75
99 127 76
98 126 75
176 189 183
210 219 227
208 217 225
207 216 224
213 221 231
206 215 224
212 220 228
208 216 224
209 218 227
208 217 225
207 216 225
204 214 221
206 216 225
212 220 228
209 218 226
209 218 227
210 219 228
212 220 230
203 213 221
209 217 225
212 221 230
210 220 230
211 219 226
212 220 226
206 215 224
209 218 228
203 213 220
207 215 222
209 217 226
215 222 230
200 211 220
95 123 74
98 125 75
99 127 76
98 125 75
101 128 76
96 123 73
100 128 77
95 122 73
97 124 74
98 125 74
99 127 76
99 126 76
95 122 73
99 127 76
94 121 72
101 128 76
96 123 74
98 126 76
101 128 77
100 127 76
99 126 76
95 122 73
100 127 76
98 125 74
99 126 75
100 128 77
99 126 75
94 122 73
99 126 76
109 134 94
211 220 228
208 216 225
209 217 226
212 220 229
209 217 225
214 222 231
217 225 235
211 220 228
208 216 225
209 218 227
204 212 219
208 217 225
215 223 232
209 218 226
213 222 230
209 219 229
210 220 232
211 220 229
209 218 227
207 216 223
201 211 219
209 218 228
210 219 228
200 210 217
205 214 221
210 218 225
213 221 229
210 219 230
212 220 229
99 126 75
96 123 73
96 123 73
100 128 77
98 125 74
98 126 75
99 126 75
95 122 73
98 125 74
96 124 74
96 123 74
99 125 74
97 124 74
100 127 76
96 124 75
98 126 75
102 129 78
99 126 75
99 126 75
100 127 76
96 123 73
100 127 76
98 126 75
96 124 74
98 125 75
98 125 74
100 128 76
99 126 75
185 196 197
209 218 226
208 217 225
212 221 230
207 217 227
204 213 222
216 224 234
206 216 224
214 222 230
211 219 228
212 220 228
212 220 229
203 212 220
207 215 220
209 217 226
208 216 223
210 218 226
210 219 226
204 213 222
211 220 228
205 215 223
212 220 229
208 217 226
209 218 226
214 222 231
203 213 223
214 221 229
127 148 120
101 128 76
100 127 76
102 129 77
100 127 77
100 127 76
96 123 74
95 123 73
99 126 75
97 124 74
99 127 75
97 125 75
102 129 78
100 127 76
98 125 75
98 125 74
101 128 77
100 127 76
98 125 75
99 127 75
99 125 74
102 129 77
96 123 74
99 127 76
96 124 74
145 162 143
205 214 222
215 223 232
207 217 225
203 212 219
209 218 225
216 224 233
208 217 225
208 217 224
207 216 224
205 214 219
210 218 227
213 222 230
210 218 226
208 217 225
210 219 228
218 225 233
208 217 226
203 213 220
199 208 216
207 216 224
211 219 228
211 219 227
205 214 223
99 126 75
99 127 76
98 125 75
99 126 75
96 123 73
96 124 74
102 129 76
101 129 77
99 126 75
99 126 75
98 126 75
98 126 75
98 125 75
97 123 73
98 125 74
101 128 76
101 128 77
99 126 76
205 214 222
213 221 229
198 208 214
97 124 75
98 126 75
97 124 74
97 124 75
100 128 77
98 125 75
97 124 74
95 122 73
100 127 76
96 123 73
98 125 75
97 124 75
97 125 75
97 124 74
101 129 77
96 123 73
97 124 75
98 126 76
97 124 74
98 126 76
99 127 76
159 175 168
209 218 227
210 219 229
207 217 225
204 213 219
205 214 222
209 218 226
201 210 216
211 219 227
208 218 229
207 216 225
207 216 223
215 223 232
205 214 220
210 219 228
199 209 216
199 209 216
201 211 219
213 221 228
214 222 231
212 220 229
202 212 220
203 212 219
213 222 231
97 123 76
95 123 74
98 124 74
97 124 74
100 127 76
97 125 74
95 121 72
99 125 75
99 126 75
99 126 75
95 122 72
94 121 72
96 124 75
96 123 74
98 126 76
101 128 77
99 126 75
96 123 73
96 124 73
94 121 72
100 127 77
95 122 73
98 125 75
98 126 75
97 124 74
127 148 119
208 217 227
206 215 223
209 217 227
205 214 223
215 223 234
205 215 224
214 222 232
206 215 223
210 218 226
207 216 227
205 215 223
204 214 224
203 212 219
209 218 225
208 217 226
210 219 229
213 221 228
211 219 227
205 214 223
206 215 223
213 221 228
200 211 219
211 220 231
214 223 233
215 223 232
211 220 229
199 210 217
96 123 74
97 125 75
99 126 75
98 125 75
95 122 73
99 126 75
97 124 75
94 121 72
99 126 75
95 123 73
99 126 75
98 126 76
100 127 75
99 126 75
96 123 74
99 126 75
100 128 77
101 128 77
101 128 76
96 123 73
95 122 73
98 126 75
97 124 74
96 123 72
97 123 73
95 123 73
99 125 74
99 126 76
208 218 226
212 220 228
210 218 227
208 217 225
207 215 223
208 217 224
206 215 223
205 214 222
208 218 228
210 219 229
215 223 231
210 219 229
206 216 225
207 217 225
206 215 223
204 214 222
207 216 224
208 217 225
212 220 230
214 222 232
215 223 230
203 213 222
211 219 226
209 218 228
203 212 220
200 210 216
209 218 226
215 224 234
208 218 227
172 185 178
100 128 77
98 126 75
98 125 75
100 128 76
96 123 73
98 125 75
101 129 77
93 120 72
99 126 75
101 128 77
101 128 77
99 127 76
97 125 75
96 123 74
100 128 76
96 124 75
98 125 75
98 125 75
96 124 74
97 124 74
99 127 76
97 124 74
96 124 74
97 124 74
98 125 74
98 126 75
99 126 76
97 124 74
99 126 77
151 167 155
210 219 228
210 218 226
213 221 229
206 215 224
208 217 225
210 218 227
211 220 228
210 219 229
206 216 225
207 216 225
209 217 225
213 221 231
207 216 225
213 221 230
213 222 232
213 222 232
206 215 223
202 211 217
213 221 230
210 218 226
209 217 225
203 213 223
202 212 220
212 220 227
202 210 216
212 221 229
211 220 228
212 221 232
210 219 227
176 189 184
98 125 74
97 124 74
98 125 75
99 126 75
96 122 73
98 125 75
96 123 74
99 126 75
95 122 73
97 124 74
95 122 73
96 123 74
99 126 76
97 124 74
102 129 77
101 129 77
98 124 73
98 124 74
98 125 75
95 122 72
96 123 73
97 124 74
98 126 75
99 126 76
100 127 76
97 124 74
98 125 74
98 125 75
96 123 73
168 181 176
201 211 220
218 226 235
208 218 229
209 217 225
205 214 223
208 218 228
211 220 228
200 210 217
210 218 225
204 214 224
207 216 224
203 213 223
209 217 224
203 213 222
207 217 226
215 223 231
212 220 229
206 216 226
207 216 224
212 220 228
212 220 228
209 218 229
219 226 234
208 217 225
206 215 222
208 216 225
208 217 226
208 217 226
183 195 195
100 128 77
98 126 75
97 125 75
102 130 78
98 125 75
97 125 74
98 126 75
95 121 72
97 124 74
100 128 77
96 123 73
97 124 74
100 127 76
99 126 76
100 127 76
101 128 76
98 126 76
99 127 76
97 124 74
100 128 77
101 128 76
99 126 75
100 127 75
97 125 75
98 126 75
99 126 76
98 125 74
105 130 89
209 217 225
210 219 228
210 219 229
209 218 225
213 221 231
206 214 222
209 218 226
209 218 225
209 217 224
204 214 222
207 216 224
214 221 230
211 220 230
204 213 220
210 218 225
215 223 232
208 218 227
211 219 227
208 217 226
201 211 218
215 224 233
208 216 223
211 219 225
215 223 231
207 215 222
210 218 228
181 193 188
97 124 74
99 126 75
96 123 74
101 129 78
98 125 75
99 126 76
98 125 75
100 127 76
93 120 71
102 130 77
96 123 73
98 126 75
101 128 77
99 126 75
99 127 76
96 123 75
99 126 75
98 126 75
100 127 77
100 128 77
97 125 75
101 129 77
100 128 76
98 126 75
125 147 118
212 221 230
216 224 234
209 218 225
203 212 217
212 221 229
202 211 218
207 216 226
198 208 215
206 215 223
207 216 225
207 216 224
209 218 228
208 217 227
208 217 227
211 219 228
209 217 224
205 215 225
210 220 229
215 223 232
210 218 226
207 216 221
217 224 232
208 217 224
99 126 76
99 126 75
97 124 74
95 122 72
99 126 75
98 125 75
98 125 75
100 127 76
94 121 71
98 125 75
100 127 76
100 127 76
97 124 74
100 128 76
97 124 74
98 125 75
95 122 72
98 125 75
100 127 76
206 215 223
201 211 219
210 219 227
201 211 218
96 123 74
97 125 75
99 126 76
99 127 76
94 121 72
98 125 75
98 126 76
97 124 74
95 123 74
98 126 76
98 125 75
96 123 74
100 127 76
95 122 73
97 124 74
98 126 75
99 126 76
96 123 73
95 122 73
99 126 76
101 128 77
176 190 186
203 213 222
208 217 227
207 217 227
209 218 227
203 213 220
210 219 228
207 216 224
201 211 218
202 212 220
214 222 229
206 215 225
205 214 220
214 222 231
211 219 227
200 210 218
208 217 225
206 215 223
213 222 232
212 220 227
216 224 232
202 212 221
207 217 226
211 219 228
98 126 75
97 124 74
99 126 75
95 122 72
94 121 72
98 125 75
99 126 75
98 125 74
98 126 76
98 126 75
97 124 74
98 126 75
98 124 74
99 126 76
97 124 74
96 123 74
94 122 73
97 124 74
99 126 76
100 128 77
99 126 76
99 126 75
98 125 74
98 125 74
98 125 74
182 195 198
208 216 224
209 218 227
204 214 223
203 212 220
212 220 227
205 214 223
207 216 223
207 216 222
205 214 221
208 217 227
207 216 222
212 220 228
213 221 228
215 223 232
209 218 227
204 214 223
207 216 225
213 222 232
215 224 236
216 224 232
205 215 223
204 214 225
209 218 225
202 211 216
209 218 225
206 215 223
124 145 116
101 129 78
96 123 73
98 125 75
98 126 76
99 126 76
100 128 77
97 125 75
99 126 76
96 124 74
100 127 77
96 124 74
95 122 73
98 125 75
99 126 76
100 128 76
100 128 77
99 127 76
96 123 74
95 122 73
97 124 74
95 122 73
99 127 76
97 124 74
96 123 73
97 124 74
99 126 76
97 124 74
130 149 125
203 212 219
213 221 229
212 220 230
207 216 223
203 213 223
207 216 224
213 221 230
209 218 229
209 218 228
208 218 226
211 220 228
211 220 230
206 215 222
198 208 214
208 217 225
200 210 217
207 216 225
207 216 223
210 218 227
219 226 235
214 223 233
204 213 222
211 219 228
206 215 223
209 218 226
204 214 222
204 214 222
211 219 228
210 219 229
98 125 75
100 127 76
97 124 74
102 130 78
97 124 73
98 126 76
99 126 76
95 122 72
98 125 75
99 126 76
97 124 74
102 129 77
98 125 75
98 125 75
98 125 75
95 122 72
96 124 74
100 127 76
97 124 74
98 125 75
98 125 75
98 125 75
98 125 75
97 124 74
98 125 74
99 126 75
97 124 75
97 124 75
100 127 76
159 174 163
206 216 226
209 218 224
206 216 225
210 219 228
209 218 227
210 219 228
206 216 226
207 216 226
207 216 225
206 216 226
214 222 230
210 219 228
206 215 223
200 210 216
208 217 225
210 219 229
212 221 229
208 217 226
210 219 229
206 215 222
211 219 229
207 216 224
206 216 225
211 220 230
211 219 228
209 218 225
211 219 227
210 218 227
211 220 230
153 169 156
98 126 76
101 128 77
100 128 77
98 126 75
97 124 74
97 124 74
98 125 75
98 125 75
100 127 76
96 123 73
100 128 77
100 128 76
98 125 75
100 127 77
99 126 76
100 127 77
97 124 75
93 120 71
97 124 75
101 128 77
96 124 74
101 128 77
98 125 74
97 124 75
100 127 77
101 128 77
96 123 73
101 129 77
98 125 75
208 217 228
206 215 225
210 219 229
200 210 219
208 217 226
204 214 222
206 215 223
207 216 224
211 219 228
209 218 228
204 213 218
209 218 226
211 219 227
211 220 229
213 221 231
207 217 225
211 220 229
212 221 231
209 217 224
215 224 233
212 221 230
209 218 226
205 214 222
211 219 226
209 218 227
209 218 228
207 217 228
210 220 230
206 215 222
102 127 83
102 130 78
98 125 75
98 126 76
98 125 74
99 126 77
97 123 73
98 125 75
96 123 74
101 128 78
100 127 77
100 127 76
99 126 75
97 125 75
99 127 76
98 125 75
95 121 72
98 125 75
98 126 76
96 123 73
98 126 76
98 125 75
95 122 73
99 126 76
100 128 77
99 126 75
96 123 73
98 125 74
202 211 217
214 222 230
212 220 229
215 223 232
201 211 218
207 216 224
211 219 227
208 218 228
207 215 223
211 219 226
214 222 232
212 221 230
206 215 223
213 222 232
209 218 228
206 215 222
215 223 231
213 222 233
204 213 221
205 214 220
213 221 231
203 212 218
213 221 231
217 225 234
210 219 228
209 218 226
194 204 210
99 127 77
97 125 74
99 126 75
101 128 76
93 120 71
95 122 73
96 123 72
98 125 75
101 129 77
97 124 74
98 125 76
98 125 75
97 124 74
99 126 75
99 126 75
100 127 76
100 127 76
96 122 73
97 125 75
100 127 76
100 127 76
98 126 75
99 126 75
100 128 77
105 131 83
209 218 228
212 220 227
213 222 230
205 215 223
212 221 230
201 212 221
207 215 223
211 220 227
213 221 230
206 215 222
208 216 223
208 217 225
210 218 225
207 216 223
205 214 220
210 219 228
215 223 232
212 220 228
210 219 227
205 214 222
206 215 222
213 222 231
200 211 221
101 129 77
101 128 76
98 125 74
101 128 77
98 124 74
97 124 74
99 126 76
97 124 74
96 123 73
100 128 77
98 126 76
96 123 73
96 123 73
101 128 77
97 124 74
96 122 73
97 124 74
98 125 75
98 126 75
99 127 76
209 219 230
211 220 230
211 220 229
207 216 224
209 218 225
97 124 74
95 122 72
98 126 75
98 125 75
97 124 74
94 121 72
99 126 76
97 124 74
100 127 76
99 126 76
96 123 73
98 125 75
100 128 77
99 126 75
98 126 75
95 122 72
93 120 71
99 126 76
98 125 74
99 127 76
104 131 78
166 180 173
209 218 226
211 219 228
207 216 224
211 219 228
203 213 220
211 219 227
209 217 225
210 219 227
210 219 228
203 213 221
208 217 225
216 224 232
206 216 224
214 222 232
203 213 221
206 215 224
217 224 233
203 212 218
205 214 224
204 213 220
206 216 224
208 217 225
204 213 220
96 123 73
96 123 73
99 127 76
99 127 77
95 122 73
97 124 74
95 122 73
95 122 72
97 124 74
96 123 74
98 125 74
93 120 71
97 124 74
96 123 74
95 122 72
98 125 75
99 127 76
98 125 75
95 121 72
96 123 74
100 127 75
94 122 73
100 128 76
100 128 77
96 124 74
207 216 225
207 217 228
209 218 228
209 218 226
210 219 227
209 218 226
206 215 221
209 217 226
209 218 225
208 217 225
206 216 226
211 220 227
208 217 225
206 216 226
212 221 231
208 217 226
208 217 225
212 221 231
211 220 228
210 219 226
208 217 224
200 211 220
211 220 230
205 215 224
210 219 226
205 215 224
204 213 220
97 124 74
99 127 76
100 127 77
101 128 76
97 124 74
99 126 76
96 123 74
96 123 73
100 128 76
98 125 75
95 121 72
99 126 75
97 124 75
97 124 74
97 125 75
97 124 74
92 118 70
95 122 73
95 121 72
96 123 74
100 127 76
98 125 75
100 128 76
98 125 75
97 124 73
98 125 74
100 128 77
98 125 75
213 221 229
206 215 223
204 214 222
209 218 227
210 218 227
207 216 224
209 218 227
208 217 224
208 217 225
200 210 217
202 213 223
213 221 230
208 217 227
210 218 226
208 218 228
209 217 225
204 213 221
204 213 221
211 220 231
207 215 223
210 219 228
207 217 227
205 215 224
203 213 222
211 220 230
205 214 221
210 219 228
200 210 217
206 215 223
96 123 73
93 120 72
98 125 75
100 128 76
98 125 75
99 127 76
97 124 74
94 121 72
100 128 76
98 125 75
97 125 75
97 124 74
99 126 76
99 126 75
98 125 74
99 126 75
97 125 75
99 126 76
98 125 75
98 126 76
93 120 72
98 125 75
101 128 76
99 126 75
100 128 76
98 125 74
101 129 77
97 124 74
96 123 73
136 154 132
210 220 230
206 215 224
203 211 218
205 214 220
215 224 233
210 218 227
209 217 225
211 220 229
204 214 224
207 216 222
208 216 223
207 215 225
212 221 231
209 218 225
207 216 224
206 215 223
213 221 231
207 217 227
208 217 226
198 209 216
210 218 225
203 213 220
213 222 230
208 217 224
215 222 230
209 217 224
211 220 229
209 218 225
207 216 225
137 155 135
99 127 77
95 122 73
97 125 75
96 123 73
98 126 75
96 123 73
95 122 72
99 126 75
97 125 75
100 127 76
98 125 74
96 123 73
99 126 76
94 122 73
97 124 73
99 126 75
100 127 75
94 121 72
97 124 74
98 125 75
98 126 75
94 120 71
95 121 72
98 125 74
100 127 76
97 124 74
102 129 78
99 127 76
97 124 74
215 223 233
197 207 214
204 214 222
211 220 229
206 215 224
213 221 229
215 223 232
208 216 224
200 210 217
210 219 227
213 222 232
210 218 225
209 218 226
212 220 227
199 209 215
212 220 229
211 220 229
202 211 218
209 218 226
202 212 221
214 221 229
212 221 232
207 216 225
206 215 223
212 221 230
211 220 229
217 225 234
208 217 227
203 213 220
101 128 77
98 126 76
90 117 69
94 121 72
99 126 75
100 127 76
95 123 73
99 126 76
96 123 73
96 124 74
98 126 75
100 127 76
98 125 75
97 124 74
101 128 77
99 126 75
95 121 72
98 125 75
99 126 75
95 122 73
100 128 76
99 126 76
100 127 76
102 129 77
97 124 74
98 126 76
95 122 73
160 175 163
203 212 220
209 217 224
209 218 226
211 220 228
213 221 229
208 216 223
201 211 219
210 218 227
208 217 226
211 219 227
207 215 223
205 214 223
209 219 228
201 210 217
207 216 224
210 218 226
206 215 222
206 214 220
207 216 224
209 218 227
204 212 219
211 219 227
212 221 230
212 220 227
206 216 225
208 217 225
100 127 76
95 122 73
97 124 73
100 128 76
99 126 75
95 121 72
98 125 75
98 126 75
97 124 73
97 125 74
100 127 76
94 121 72
97 125 75
98 125 74
101 129 77
98 126 75
98 125 75
98 125 74
95 123 74
96 122 72
98 125 74
99 126 75
98 126 75
99 126 76
99 126 76
211 219 229
207 216 225
205 214 220
216 223 231
208 217 224
212 220 227
208 216 225
214 222 232
207 215 222
210 218 225
206 215 223
208 217 225
211 220 230
206 214 221
206 215 224
213 222 232
209 218 226
204 214 224
207 215 223
208 216 224
206 215 222
205 214 221
207 216 221
97 125 75
97 124 74
98 126 76
99 126 76
98 126 76
100 127 76
96 123 73
102 129 78
97 124 74
97 124 75
96 123 74
96 123 73
97 125 75
95 122 73
99 127 76
102 130 78
99 125 75
97 125 75
97 125 74
97 125 74
116 139 104
95 122 73
96 123 73
96 124 74
93 120 72
96 123 73
97 125 75
196 207 211
204 214 223
202 211 215
195 206 211
187 199 200
183 195 196
189 201 204
183 194 194
184 195 195
177 189 186
184 196 197
160 175 164
160 174 166
166 180 171
160 175 164
151 168 151
156 172 159
152 169 157
150 166 151
143 160 142
144 160 140
182 194 194
192 203 207
185 197 197
196 206 211
195 205 208
200 210 216
193 204 209
211 219 225
204 214 222
209 218 228
208 217 225
208 217 226
198 208 214
205 214 223
205 215 222
209 218 225
206 215 223
211 220 229
205 215 222
206 216 224
206 215 223
213 220 227
212 221 229
197 207 211
97 124 74
99 126 75
100 127 76
97 125 75
95 123 73
99 127 76
98 125 74
98 125 75
97 124 75
98 125 74
98 125 75
96 124 74
94 122 73
95 122 73
100 128 76
96 124 74
97 124 73
100 127 76
98 126 75
98 125 75
99 126 75
99 126 76
98 125 74
98 125 75
107 133 89
206 216 225
210 219 228
211 220 229
207 216 225
201 210 217
195 205 212
209 218 230
208 217 227
212 220 230
209 218 227
207 215 222
202 212 221
205 215 223
207 216 223
207 216 224
214 223 231
205 215 224
212 221 229
203 213 222
204 213 221
213 221 230
208 217 223
216 224 234
209 218 227
211 220 228
204 214 222
162 178 169
96 123 74
96 123 73
98 126 75
95 122 73
97 125 75
97 124 75
100 127 77
95 121 72
99 127 76
97 125 75
99 126 76
99 126 75
100 127 76
97 124 74
94 121 72
98 125 75
98 126 76
98 125 75
101 129 77
97 125 74
97 125 74
99 127 76
98 126 75
98 125 74
96 123 75
98 125 75
97 124 74
179 191 186
208 217 225
204 214 221
212 220 227
207 216 224
209 218 226
208 217 224
209 217 225
212 220 227
205 213 220
200 210 218
204 213 221
211 220 231
210 220 229
206 215 225
208 217 226
210 219 228
209 218 229
211 220 229
212 220 229
206 216 226
203 213 222
202 212 222
210 219 227
207 215 222
212 220 228
210 218 227
209 217 224
208 216 224
107 133 87
100 127 76
98 125 75
97 125 75
99 126 76
98 125 75
100 128 76
97 124 74
96 123 74
97 125 75
95 122 73
99 126 76
100 127 76
97 124 74
95 122 73
95 122 73
97 124 75
98 125 75
97 124 75
99 127 76
100 127 76
97 125 74
101 128 76
98 125 75
96 123 74
95 122 73
98 125 75
97 124 75
98 126 76
112 135 96
205 214 222
204 214 223
207 216 225
212 221 230
207 215 221
212 220 228
212 220 229
206 216 224
211 219 227
206 216 225
210 218 226
205 213 217
209 218 227
207 216 225
207 216 225
211 219 226
212 221 231
198 208 215
207 216 222
203 212 219
212 219 227
204 214 223
202 212 219
204 214 222
212 221 231
209 218 228
207 215 224
205 215 227
207 216 225
109 134 92
101 128 77
97 124 74
99 126 75
97 125 74
99 126 76
97 124 74
95 123 74
96 123 73
99 126 75
96 124 74
100 127 76
95 122 73
101 129 77
97 124 75
98 125 75
96 123 73
98 125 74
99 126 75
98 125 74
99 126 75
97 124 75
98 125 75
98 126 76
97 124 74
98 125 74
98 125 74
100 128 77
97 125 74
132 152 129
208 216 223
216 224 233
209 218 225
200 211 219
214 223 233
210 219 227
207 216 226
211 219 228
212 220 228
209 218 227
213 221 230
212 220 229
207 216 224
198 207 213
211 219 230
203 212 219
202 212 219
206 215 224
208 217 225
208 217 226
212 220 230
205 214 221
206 216 225
205 215 224
212 220 227
209 217 225
204 213 218
213 222 232
121 143 110
98 125 74
96 124 75
97 124 74
98 125 75
99 127 76
95 123 74
100 127 76
99 127 76
101 129 78
97 124 74
99 127 76
99 127 76
95 122 72
102 129 78
99 126 75
100 127 76
97 124 75
97 123 73
99 126 75
99 126 75
100 127 76
97 124 74
96 123 73
97 124 74
101 128 76
98 125 75
100 127 76
211 219 228
204 213 217
208 217 226
209 218 225
201 210 216
211 219 228
210 218 226
207 217 226
201 211 218
209 217 225
211 219 228
198 207 213
205 214 221
211 220 230
208 217 226
215 223 231
207 216 226
211 220 229
215 222 230
210 219 226
216 223 232
203 213 220
209 217 224
207 215 223
213 221 229
209 218 227
125 146 116
96 123 73
98 125 75
99 126 75
98 125 74
101 128 77
97 124 74
99 127 76
94 121 72
97 125 74
100 127 76
99 126 75
97 124 73
98 125 75
97 124 74
99 127 75
99 126 75
101 129 77
97 124 74
98 126 76
96 123 73
100 127 76
99 127 76
99 126 75
96 122 73
204 214 222
213 222 229
208 217 224
211 220 229
204 213 220
207 216 226
211 219 226
209 217 226
211 219 224
209 217 224
210 219 226
200 210 216
207 216 222
199 210 216
195 206 209
194 205 209
195 206 208
191 202 204
193 204 208
181 193 191
170 184 178
179 191 187
183 194 192
157 171 159
168 182 171
164 178 167
159 174 166
165 180 171
177 191 188
166 180 172
177 189 185
182 194 193
179 191 188
181 193 191
193 204 206
198 209 215
195 204 208
206 215 222
200 209 215
217 225 235
213 222 231
207 215 220
204 213 221
190 200 200
100 127 76
99 126 74
99 126 75
98 125 74
100 127 76
97 125 75
99 126 76
96 124 74
187 198 198
210 219 229
205 215 223
208 217 227
209 219 229
203 212 219
207 216 225
209 218 227
199 209 216
210 218 226
206 215 223
204 214 222
213 222 231
214 222 230
208 217 224
206 215 222
216 224 232
207 218 228
208 217 224
203 213 221
209 218 226
143 160 144
97 124 74
96 124 74
97 124 74
100 128 76
93 121 73
98 125 75
96 123 73
98 125 75
97 124 74
96 123 74
96 124 74
101 128 76
99 127 76
98 125 75
94 120 71
98 125 75
100 128 77
98 125 75
96 124 74
96 122 73
97 124 75
96 123 74
141 159 141
201 210 218
198 209 217
207 216 223
203 213 219
207 216 225
209 218 227
206 215 223
212 220 228
197 208 215
213 221 230
206 215 224
206 215 223
205 214 221
206 215 223
204 214 223
202 211 218
207 217 225
206 215 222
202 212 219
205 214 220
207 216 225
211 221 231
214 222 231
209 219 230
171 185 182
101 127 82
107 133 91
113 136 99
113 137 99
119 141 108
126 146 119
125 146 118
133 152 130
139 157 136
137 155 134
137 155 132
141 159 140
136 155 131
132 152 128
141 158 140
139 156 137
144 161 143
142 160 139
141 158 139
150 167 155
146 164 150
158 173 162
153 169 157
151 168 154
165 179 170
171 185 178
164 178 171
166 179 170
144 162 146
150 166 152
151 167 152
162 177 167
156 171 159
152 168 152
147 164 150
146 163 146
129 148 125
138 156 136
135 154 132
141 159 140
140 159 140
139 157 133
136 156 132
137 155 131
125 145 115
118 142 104
121 143 110
127 148 123
128 149 123
118 140 109
111 134 99
128 147 121
116 137 106
123 143 115
202 212 218
197 207 211
195 204 209
195 206 210
202 211 217
203 213 222
205 214 222
199 208 214
210 220 229
209 218 226
209 218 227
206 215 223
203 212 219
206 216 225
209 218 228
203 212 219
206 215 225
203 214 223
208 217 224
208 216 225
208 217 224
213 221 230
206 215 222
209 218 228
211 220 231
202 212 221
207 216 223
211 219 226
176 189 184
98 125 75
98 125 75
95 122 72
97 124 74
97 124 74
96 123 74
97 124 74
95 122 73
98 125 74
98 126 76
100 127 77
97 124 74
99 126 75
95 122 73
99 126 76
96 123 73
96 123 74
98 126 75
99 126 75
95 123 74
98 125 74
98 126 75
100 128 76
96 123 73
94 121 72
97 124 73
99 126 75
100 128 76
99 127 76
213 222 232
212 221 232
209 218 227
208 217 226
210 219 229
211 220 229
207 216 225
211 220 230
209 218 227
196 207 215
208 218 227
206 215 223
205 214 220
209 217 225
205 214 222
207 216 225
204 213 220
206 216 224
201 211 219
211 220 230
204 213 220
209 218 227
206 215 223
210 218 226
213 221 231
209 218 226
205 214 220
209 218 226
205 214 221
99 127 76
100 128 76
100 127 77
98 125 74
99 126 75
97 124 74
96 123 73
96 123 74
97 124 74
96 123 73
97 124 74
99 126 75
102 130 78
96 123 73
97 124 74
98 126 76
95 122 73
97 124 74
97 124 74
97 124 74
98 125 76
99 127 76
99 126 76
98 125 75
98 124 74
98 126 75
100 127 77
100 127 76
97 124 74
205 214 221
209 218 228
211 220 232
207 216 225
205 214 222
200 210 218
210 219 227
210 219 228
204 213 219
207 215 222
210 218 226
202 212 219
210 219 228
197 207 212
201 211 216
200 210 215
207 216 224
196 206 209
204 214 221
202 211 216
207 216 222
189 200 202
192 204 210
201 211 216
203 213 220
189 200 201
192 202 205
196 206 209
190 201 205
136 155 133
127 147 121
137 156 132
139 157 136
129 149 125
134 153 130
132 151 126
147 163 147
142 160 141
149 166 150
145 162 145
156 171 158
157 172 161
149 166 150
157 173 160
139 157 136
149 165 151
167 180 170
167 181 172
146 163 146
168 182 173
157 173 163
155 171 161
164 178 170
160 174 164
169 182 177
162 177 164
146 163 147
147 165 148
147 164 149
142 160 141
153 168 153
135 155 131
141 157 138
136 155 133
133 151 129
144 161 142
122 144 112
132 152 127
121 143 114
118 140 106
129 149 124
118 140 106
107 133 87
118 140 106
117 141 106
105 130 85
104 129 86
103 128 83
100 127 76
101 128 77
96 123 74
102 130 78
147 164 149
208 216 224
204 213 222
206 215 223
207 215 224
203 212 220
203 213 222
204 213 220
213 221 232
214 223 233
209 218 227
209 218 227
209 218 225
215 222 229
211 219 228
211 219 227
209 218 226
203 213 220
212 220 227
213 221 230
208 218 227
209 218 226
212 221 231
204 213 220
212 220 227
101 127 81
98 125 74
100 127 76
98 125 75
99 127 76
99 126 75
96 123 73
97 124 74
94 120 72
99 126 75
94 122 73
97 124 74
96 123 73
98 126 75
102 129 78
99 126 75
94 121 71
96 124 74
97 124 74
97 124 74
100 127 76
97 125 75
114 137 98
206 214 220
205 213 220
203 212 221
204 213 222
211 219 228
209 217 223
208 217 226
211 220 229
206 215 224
207 216 225
210 219 226
211 219 226
208 217 224
212 220 229
211 219 227
208 217 225
212 220 230
216 223 230
206 215 222
213 221 228
168 182 177
99 126 75
100 127 76
98 125 75
97 125 75
95 122 73
96 123 73
98 125 75
97 124 74
96 123 74
99 127 76
163 177 170
209 217 225
201 211 218
202 213 221
203 212 219
208 216 223
213 221 230
205 214 221
211 220 230
200 210 219
208 217 226
208 216 223
206 216 223
207 216 224
208 216 223
206 215 225
199 210 217
202 212 221
207 217 224
204 213 220
207 215 222
153 169 158
99 126 75
98 125 75
97 124 74
99 126 76
95 122 73
97 124 75
97 123 73
98 125 75
98 125 75
98 125 75
97 125 75
95 122 73
95 122 73
97 125 75
96 123 73
96 123 73
97 124 74
97 124 73
95 122 73
96 123 74
98 125 75
100 128 77
163 177 168
207 216 227
213 221 230
203 213 222
200 210 221
203 212 218
203 211 218
212 221 232
203 212 218
205 213 221
206 215 223
202 212 219
211 220 230
208 217 225
209 217 226
204 214 222
203 213 221
206 216 224
206 216 225
207 216 224
215 223 231
208 216 224
210 218 227
206 215 223
210 219 228
125 146 118
99 126 75
94 121 72
96 123 73
98 125 74
97 124 74
97 124 74
99 126 75
99 126 76
98 125 75
95 122 73
97 125 74
98 125 74
97 124 74
96 123 74
98 125 75
98 125 75
96 123 73
97 125 75
100 127 76
97 124 74
97 124 73
98 125 75
94 121 72
96 124 75
97 124 74
129 148 124
211 220 229
201 210 216
203 213 222
203 212 218
209 219 228
204 213 222
201 211 220
210 219 227
212 221 230
206 215 222
210 219 229
207 216 224
207 216 224
204 213 221
205 214 222
204 214 222
202 211 218
208 217 224
205 214 223
208 216 223
204 214 221
205 215 224
209 217 224
211 219 226
204 213 218
205 214 223
207 216 223
104 130 88
99 126 76
96 124 75
94 121 71
98 125 74
95 122 72
95 122 73
99 127 76
92 119 70
95 122 73
99 126 75
98 125 75
97 125 75
97 125 74
97 125 75
96 123 74
97 125 75
98 126 75
100 128 76
97 124 74
97 125 75
100 128 77
94 122 72
96 123 73
96 123 74
99 126 76
100 127 76
96 123 74
98 124 77
208 216 224
201 210 218
207 216 223
207 215 221
212 221 230
209 217 227
204 213 220
204 213 221
209 218 229
214 221 229
208 216 224
203 212 220
197 208 216
205 214 222
203 213 220
214 223 233
211 219 227
207 216 224
215 224 233
204 213 220
205 215 225
212 221 230
200 211 221
210 218 225
211 219 227
205 214 223
207 216 225
215 224 234
208 216 224
96 123 74
99 126 75
97 124 74
101 128 76
98 126 76
100 128 77
98 125 74
97 124 74
97 124 74
100 127 76
97 125 75
96 123 73
97 125 75
99 127 76
97 124 73
102 130 78
96 123 73
99 126 76
100 127 76
96 124 74
97 124 74
98 125 75
97 125 75
95 122 73
98 125 75
96 123 73
95 122 73
98 126 75
99 126 75
205 214 224
204 213 220
205 215 225
209 218 228
210 218 228
214 222 232
210 219 228
208 217 224
210 219 228
214 221 229
215 223 231
215 223 233
204 214 223
213 221 230
210 219 228
200 209 214
208 217 224
206 216 227
206 216 224
210 219 226
204 212 218
205 214 222
202 212 219
206 215 223
210 219 228
209 218 227
207 216 224
207 216 224
205 214 221
99 126 75
101 128 76
97 124 75
97 125 74
98 125 74
96 123 73
99 126 76
96 124 74
98 125 74
97 124 75
98 126 75
100 127 75
98 124 74
97 125 74
100 127 76
99 127 76
100 128 76
98 125 75
97 124 74
100 127 76
99 126 76
96 123 74
102 129 77
95 122 73
100 127 76
94 121 72
96 124 74
102 129 77
173 186 182
212 220 228
212 220 227
206 215 221
211 219 227
212 219 225
212 220 230
207 216 224
206 216 226
210 219 229
213 221 228
207 215 222
210 218 227
207 216 223
203 212 221
212 220 228
209 218 227
209 217 224
210 219 229
206 215 224
203 212 220
207 216 226
204 213 221
199 210 218
206 216 224
206 214 221
210 219 228
199 209 216
97 123 73
97 125 75
100 127 77
98 125 75
99 126 76
100 127 76
101 128 76
98 125 75
100 127 76
102 129 78
99 126 75
97 125 75
99 126 75
98 126 75
98 125 75
101 128 76
98 126 76
96 123 74
94 121 72
99 126 75
99 126 76
101 128 77
96 123 74
98 125 75
99 126 75
108 133 91
214 222 230
208 218 228
213 222 231
214 222 232
206 217 227
211 219 226
209 218 227
200 210 217
200 210 218
209 218 227
205 214 221
211 220 230
210 219 227
213 221 230
203 213 222
206 214 220
207 216 224
210 218 226
208 217 223
210 219 229
205 215 223
202 212 219
209 218 225
208 217 224
98 124 79
100 127 76
99 127 77
98 125 74
101 129 77
94 120 72
98 125 74
97 124 73
94 121 71
98 126 76
97 124 73
97 124 74
97 125 75
98 125 75
98 126 75
99 127 76
97 124 74
96 123 74
97 124 73
101 128 76
98 125 75
99 126 75
116 140 104
208 216 223
207 215 224
207 216 225
212 220 230
200 209 215
206 215 224
213 221 229
205 215 223
210 219 228
205 215 224
200 210 216
211 219 228
209 217 225
213 221 228
211 219 228
207 216 224
211 219 226
208 217 226
201 211 218
210 219 229
130 149 123
97 124 74
97 124 75
98 125 75
98 125 74
99 127 77
96 123 74
99 127 76
97 124 74
96 124 75
95 122 72
100 127 76
97 125 75
129 148 123
205 214 221
213 221 231
200 210 217
214 222 231
202 211 216
212 221 231
201 211 219
201 211 219
198 209 218
204 213 220
207 216 225
200 209 216
201 212 220
203 213 220
214 222 232
210 218 226
201 211 217
212 221 229
211 220 232
209 217 224
159 174 164
98 125 75
98 125 74
98 125 75
97 124 74
99 126 75
97 124 74
98 125 75
98 125 75
95 122 73
97 124 74
98 126 76
100 127 76
97 125 75
99 127 76
98 125 75
97 125 75
99 126 75
96 123 74
97 125 75
99 126 75
96 124 74
97 124 74
188 199 200
207 217 226
210 218 228
206 216 225
209 218 228
205 214 221
209 217 223
203 212 219
207 216 224
210 219 229
205 215 223
206 215 223
207 216 226
206 215 223
200 209 216
208 217 227
203 213 224
214 222 231
211 220 229
206 215 220
214 222 232
214 222 233
215 223 232
209 217 224
205 214 220
97 124 74
98 125 74
100 128 76
99 127 76
97 124 74
99 126 75
95 122 73
97 124 74
94 121 71
96 123 73
96 124 74
94 122 73
97 124 74
96 123 74
96 123 73
96 124 75
98 125 75
97 124 74
96 123 73
97 124 74
98 125 75
98 126 76
97 125 75
96 123 74
100 128 77
97 124 74
205 215 223
212 220 228
211 220 229
200 210 217
202 212 221
213 221 230
201 211 219
210 219 228
206 216 225
206 215 224
211 219 228
207 217 226
203 213 221
210 219 229
208 217 226
202 212 219
200 209 215
207 216 225
202 212 221
209 218 226
201 211 217
203 213 221
204 214 222
206 216 224
207 216 224
204 214 223
201 211 219
198 208 216
97 124 74
99 127 76
97 125 75
97 124 74
99 127 76
96 123 74
98 125 75
98 126 76
96 123 74
99 126 76
98 125 75
98 126 75
96 123 73
99 126 75
99 126 76
99 127 77
98 126 76
98 125 74
98 125 74
97 124 74
99 127 76
96 123 74
93 120 71
95 123 74
97 125 75
98 126 75
93 120 72
98 125 74
206 216 226
208 217 224
211 219 226
199 209 217
205 214 223
208 216 225
214 222 230
199 210 216
212 220 230
211 220 230
209 218 225
205 215 223
207 216 224
206 215 225
207 217 227
201 212 220
214 222 231
209 218 228
210 219 227
208 217 224
204 214 221
212 221 230
207 216 224
208 217 227
210 219 227
213 220 227
205 214 224
204 214 221
209 217 224
95 122 72
95 123 73
96 124 74
96 123 73
97 124 74
97 124 74
98 126 75
95 121 72
97 124 74
100 127 76
98 125 75
97 124 74
95 122 73
95 122 72
96 123 73
98 125 74
95 122 72
98 125 75
99 125 75
100 128 77
99 127 76
95 122 73
99 127 76
98 125 75
97 124 74
95 122 73
99 126 75
98 126 75
96 123 73
208 217 226
202 211 218
207 217 225
208 217 225
209 218 227
214 223 233
213 221 230
208 218 226
202 211 218
208 218 229
205 214 220
204 213 221
207 217 226
213 222 232
208 217 225
212 221 229
210 218 225
208 217 224
212 220 228
208 217 225
207 216 226
210 218 227
209 217 224
206 216 224
208 217 226
201 211 218
205 215 224
209 217 224
209 218 226
97 124 74
100 127 76
99 126 75
101 128 76
99 126 75
96 123 73
102 129 77
95 122 72
96 123 74
101 128 77
96 123 73
96 123 73
99 126 75
100 127 76
99 126 75
95 122 73
97 125 75
94 121 71
97 125 75
97 125 75
98 126 75
97 124 74
99 127 76
94 120 71
97 124 74
99 127 76
96 123 73
98 125 75
208 216 223
212 220 228
202 211 216
211 219 227
200 210 218
205 215 222
210 218 225
207 216 224
206 215 222
209 218 227
208 217 225
208 217 226
209 217 225
203 212 220
207 216 225
211 220 231
212 221 230
197 207 213
209 217 226
208 218 227
214 222 229
213 222 230
209 217 225
212 220 228
207 215 223
201 210 215
207 216 223
99 126 75
99 126 76
98 125 75
99 126 76
101 128 77
98 125 75
99 126 75
99 126 75
97 124 74
96 123 73
98 125 74
96 123 73
98 125 74
100 127 76
98 125 75
98 125 74
100 127 76
95 122 73
100 127 76
101 128 77
97 124 74
97 124 74
98 125 75
99 126 75
99 126 75
98 125 75
211 219 228
201 211 217
211 219 227
210 218 226
210 219 228
209 218 228
209 217 224
212 221 230
206 215 224
209 217 225
208 217 224
204 213 220
210 218 226
206 215 223
213 222 233
206 216 224
209 217 225
204 212 218
211 220 229
213 221 230
209 218 225
208 217 224
212 220 229
203 213 222
117 139 106
99 126 76
99 126 76
98 125 75
98 125 75
100 127 76
96 123 73
98 125 76
98 124 74
96 123 74
97 125 75
100 127 76
98 125 74
97 124 74
97 125 75
96 123 73
98 125 74
100 127 76
95 122 73
97 124 74
95 122 73
97 124 74
123 143 111
204 212 217
207 215 221
203 213 221
211 220 228
204 212 218
208 217 225
206 215 223
211 218 225
205 214 222
208 216 225
207 216 223
210 218 227
206 215 222
209 218 225
211 220 229
213 220 228
204 212 219
211 220 228
210 219 227
207 216 223
114 138 98
99 126 75
99 126 76
95 122 73
97 124 74
99 126 76
94 122 73
96 123 73
97 125 75
99 126 76
94 121 72
98 125 75
100 128 77
97 124 74
101 128 77
112 136 97
203 214 225
212 221 231
208 217 225
210 219 226
210 219 228
206 215 224
204 213 221
204 214 221
211 220 229
203 213 219
211 219 228
200 211 220
208 217 226
203 213 220
212 221 229
208 217 225
207 216 225
211 219 228
205 214 222
203 212 220
176 188 184
98 126 75
97 124 75
97 124 73
98 126 75
96 123 73
96 123 73
96 124 75
98 125 76
97 124 74
97 125 75
99 127 76
96 123 74
98 126 75
96 123 73
97 124 74
97 125 75
96 123 74
98 125 75
100 128 78
98 126 75
98 125 75
95 122 73
198 208 210
209 217 225
208 217 226
205 214 223
208 216 223
208 217 224
210 219 227
202 212 219
205 214 221
199 209 215
208 217 226
214 222 230
205 214 222
209 218 227
208 216 223
209 218 227
212 221 230
206 215 222
204 214 224
197 208 217
208 217 226
200 210 218
212 220 228
202 212 221
198 209 215
97 124 75
99 126 75
98 125 75
98 126 76
97 125 75
98 125 75
96 122 73
98 126 76
98 126 75
95 122 72
96 123 74
98 125 75
94 122 73
95 122 72
97 124 74
98 125 75
99 126 76
95 123 73
99 127 76
100 127 76
96 123 73
97 125 74
94 121 72
94 121 72
100 127 76
101 127 79
206 215 221
207 217 226
211 220 230
209 219 229
208 217 225
205 214 220
200 209 214
204 213 220
211 219 228
208 217 226
205 215 224
203 213 221
208 216 225
211 220 227
205 215 223
198 209 217
200 210 217
208 217 227
208 216 223
204 214 223
209 217 226
206 215 223
213 221 230
208 218 228
207 216 225
205 214 222
205 215 222
98 125 75
99 126 75
98 125 75
101 128 77
96 122 72
101 128 77
95 122 73
95 122 72
96 123 73
94 121 72
95 122 73
100 127 76
95 121 72
99 126 75
97 124 74
99 126 75
99 127 76
96 122 72
98 124 74
99 126 75
99 127 76
92 120 72
98 126 75
99 127 76
94 121 72
99 126 75
97 124 74
95 122 73
196 207 216
209 217 225
207 217 229
204 213 219
207 216 224
205 214 223
210 218 225
208 217 226
205 214 223
200 210 219
203 212 218
205 215 223
206 215 222
209 217 225
213 222 232
205 215 223
209 218 226
205 214 223
214 222 229
204 212 219
210 219 227
210 218 226
211 220 230
215 223 232
205 214 220
210 219 227
209 218 228
204 214 223
204 213 221
98 125 74
96 123 74
98 125 75
99 126 76
98 125 75
98 125 75
95 122 73
98 125 75
94 121 72
98 126 76
98 125 75
100 127 76
97 124 75
99 126 76
98 125 75
97 124 74
97 124 74
95 122 72
96 123 73
95 122 73
95 122 73
99 127 75
98 125 76
97 124 75
100 128 77
99 126 76
96 123 74
94 121 72
97 124 74
206 214 220
206 215 222
199 208 215
209 218 227
200 210 218
198 208 213
199 209 216
202 212 220
208 217 225
208 217 225
209 217 225
208 217 225
210 220 231
207 216 224
209 218 226
206 215 223
211 220 228
207 216 226
209 218 227
211 220 228
214 222 231
215 223 233
207 216 224
208 217 225
204 214 221
205 214 221
210 218 226
209 218 225
157 172 162
101 128 77
97 124 74
96 124 75
97 124 74
98 125 74
97 125 75
100 127 76
98 125 75
97 124 74
99 126 76
97 125 75
97 124 74
95 122 72
96 123 74
98 125 74
96 123 73
96 124 74
97 124 74
99 127 76
100 128 77
101 129 77
98 125 74
100 127 76
95 122 72
96 124 74
99 126 75
100 127 76
157 173 163
213 222 233
204 214 222
209 217 225
214 222 231
211 220 229
214 222 230
207 216 225
210 219 227
210 219 227
202 212 219
210 219 227
209 217 225
208 216 223
209 218 226
213 221 230
213 221 230
211 219 227
211 219 228
214 222 231
203 212 219
206 215 225
210 218 226
204 213 220
204 213 218
202 212 219
207 216 223
175 188 184
98 125 75
98 125 75
100 127 76
97 124 74
96 123 73
95 122 72
97 124 75
99 126 75
98 125 75
97 124 74
99 127 76
99 126 75
97 123 73
99 126 75
94 121 72
97 125 75
97 124 74
99 126 75
96 123 73
95 122 73
99 126 75
101 128 77
101 128 76
97 124 74
98 125 75
204 213 219
213 221 228
213 220 228
209 218 227
213 221 228
209 217 226
205 214 221
205 215 222
199 209 217
207 216 223
210 219 228
205 215 222
207 216 225
211 220 228
213 221 228
206 216 224
213 221 230
207 216 224
206 216 225
215 224 234
211 219 229
211 219 228
207 215 223
207 216 223
125 147 117
100 127 76
95 122 73
99 126 75
97 123 73
99 126 75
97 124 75
101 128 77
99 126 75
96 123 73
99 126 76
99 126 76
97 124 74
100 127 76
95 122 73
99 127 76
98 125 75
98 126 75
97 124 74
97 124 75
102 130 78
96 123 73
129 149 123
204 213 219
205 214 221
202 211 219
210 219 229
202 211 218
204 213 219
212 220 228
211 219 225
213 221 230
204 213 219
209 218 228
213 221 229
211 220 230
205 214 222
210 218 228
212 220 228
210 218 226
204 213 220
206 215 222
209 217 223
97 124 74
100 128 76
97 123 73
101 128 76
98 125 74
93 119 70
101 128 76
98 125 75
97 124 74
96 124 74
98 125 74
96 123 73
99 127 76
98 125 75
95 123 74
101 128 77
95 122 73
98 125 75
204 214 222
209 217 226
207 216 225
202 211 217
206 215 222
198 209 217
206 216 225
200 210 217
203 213 219
206 215 224
201 210 216
210 219 228
203 213 221
206 215 223
205 214 221
208 217 225
207 216 223
198 208 215
206 214 221
208 217 226
182 194 194
96 124 74
97 125 74
96 124 74
98 125 75
94 121 72
97 124 74
98 125 75
95 123 73
97 124 74
99 126 75
98 125 75
97 125 75
94 121 72
98 125 75
98 125 75
97 125 75
97 125 74
99 126 76
96 123 73
96 123 73
98 125 74
97 124 74
207 216 224
209 218 227
202 213 222
208 217 223
204 213 220
200 210 216
207 215 222
204 214 221
205 214 222
199 209 217
206 215 223
199 209 217
210 219 228
206 215 223
208 216 223
201 210 218
204 213 220
202 212 219
209 217 225
209 218 227
200 209 215
207 216 225
203 212 219
205 215 222
169 183 176
96 123 74
96 123 73
94 121 71
97 123 73
96 123 74
96 123 73
97 124 74
94 121 72
99 127 76
95 122 73
100 127 77
98 125 75
96 124 74
97 125 75
96 123 73
94 121 72
99 126 76
96 123 74
97 124 74
97 124 74
94 121 72
97 125 75
99 127 76
94 121 72
99 126 75
183 196 196
207 216 223
211 219 228
207 216 222
208 217 227
210 219 228
198 208 216
202 212 221
213 222 232
205 214 221
206 216 226
200 209 216
204 213 221
215 223 233
207 216 223
204 214 223
207 216 224
206 216 225
209 218 228
211 219 227
215 223 231
205 215 223
210 219 228
202 211 219
206 214 220
207 215 223
201 211 219
156 171 158
100 127 77
99 126 75
96 124 74
95 122 73
95 122 73
94 121 72
97 124 74
97 124 75
96 123 74
97 124 74
94 121 72
95 122 73
97 124 74
99 126 75
96 123 73
99 126 76
99 127 76
99 126 75
97 124 74
95 123 73
94 121 72
97 124 74
98 125 75
96 123 74
99 126 76
97 123 73
97 124 74
171 184 178
209 218 226
208 218 227
206 215 223
208 216 224
213 221 230
206 215 223
212 221 231
205 214 221
210 219 228
213 221 231
202 211 217
207 216 225
201 211 219
209 218 226
206 215 224
210 219 227
209 218 226
212 220 226
204 214 221
207 216 224
203 213 222
207 216 225
209 218 226
209 217 224
206 215 223
212 221 230
206 214 222
208 217 225
97 124 74
99 127 77
98 125 75
98 126 75
100 127 75
99 126 76
96 123 73
95 122 72
97 124 74
100 127 76
97 124 74
98 125 74
97 124 74
97 123 73
93 120 72
98 125 75
98 126 75
99 126 75
98 125 76
95 122 73
96 123 73
98 125 75
97 124 74
101 128 77
96 123 73
97 124 74
96 123 74
99 126 75
98 125 74
205 215 222
207 216 225
211 220 227
209 217 225
205 214 222
206 215 223
200 210 218
210 218 227
210 219 227
205 214 223
203 213 220
215 222 228
208 217 226
208 217 224
205 214 222
214 222 230
211 219 226
210 220 230
208 217 226
200 210 218
209 217 226
211 220 228
209 218 227
199 208 214
205 215 223
203 212 218
209 218 227
202 211 218
101 129 77
99 126 75
97 124 74
95 122 73
99 126 76
98 125 74
93 120 71
98 126 76
97 125 75
93 120 71
100 127 75
98 125 75
99 126 76
98 125 75
98 125 75
97 123 73
98 125 76
96 123 74
96 123 73
99 126 75
98 125 75
99 126 75
98 125 75
100 127 76
95 122 73
96 123 74
99 126 75
95 121 72
210 219 229
210 219 227
205 215 223
208 217 226
209 218 227
208 217 227
211 219 227
208 218 229
209 218 226
205 215 224
208 218 227
208 218 227
208 217 226
206 215 223
204 213 222
205 215 223
207 215 223
209 217 224
212 220 228
209 218 225
206 215 222
204 214 223
209 218 224
211 220 229
212 220 228
211 220 229
205 215 223
98 125 75
94 121 73
97 124 74
98 126 75
99 126 76
96 123 73
98 125 75
95 121 71
99 126 75
100 127 76
98 126 75
99 126 76
97 124 74
97 124 75
96 124 74
98 125 75
100 128 77
97 125 74
98 126 75
97 123 73
99 127 76
98 126 75
99 126 75
97 124 74
98 125 75
170 183 177
209 218 227
212 220 230
202 212 219
211 220 230
205 214 221
209 218 226
207 215 223
204 214 223
203 212 220
201 211 218
219 226 235
204 213 221
209 218 226
209 217 225
210 218 226
203 213 222
206 216 226
205 214 222
207 216 223
216 224 234
204 213 221
209 218 227
209 218 227
145 162 146
97 125 74
93 120 72
100 127 76
96 123 73
97 124 74
101 128 77
98 125 74
101 128 77
99 127 76
97 124 75
96 123 73
99 127 76
96 123 73
96 122 72
101 128 76
99 126 76
98 124 74
97 124 74
99 126 74
99 126 76
97 124 74
156 173 159
212 220 229
213 221 229
209 218 227
211 219 227
209 217 225
207 217 226
210 220 231
211 219 226
208 217 224
208 217 225
200 210 218
207 216 224
212 220 227
212 220 227
212 220 228
209 219 229
207 216 225
209 218 225
202 211 219
189 201 205
96 123 73
94 122 73
99 126 76
96 123 73
96 122 72
98 126 75
99 126 75
98 125 75
97 124 74
94 121 73
93 120 71
96 122 73
94 121 73
94 121 72
96 124 74
98 125 75
95 122 73
96 123 73
94 121 72
98 125 75
202 211 217
205 215 224
207 216 223
203 212 219
200 211 220
196 206 212
203 212 219
208 217 225
202 213 221
202 212 221
206 215 222
213 221 232
202 212 221
207 216 223
203 213 221
204 214 222
205 215 224
206 215 223
211 219 228
208 217 225
182 194 192
98 125 75
96 124 74
98 125 75
97 124 75
97 124 73
97 125 75
97 125 75
99 126 76
92 119 71
97 125 75
98 125 75
95 122 73
97 125 75
96 123 73
95 122 72
101 128 77
98 125 75
97 125 75
98 125 75
97 124 74
100 127 76
97 124 74
204 214 222
202 211 218
211 220 229
207 216 224
204 213 220
202 212 222
199 209 215
205 215 224
202 212 221
206 215 223
209 218 226
198 208 214
197 208 215
205 215 223
212 220 228
203 212 219
200 210 217
203 213 222
213 221 229
206 215 224
202 211 219
208 216 224
202 211 219
215 223 231
120 143 108
96 123 73
98 125 75
96 123 74
94 121 72
94 121 72
94 121 72
97 124 74
100 127 76
94 121 72
97 124 74
94 121 72
97 124 74
99 127 76
95 122 73
94 121 72
100 127 76
100 128 76
98 125 75
101 128 76
98 126 76
97 124 74
95 122 72
99 126 75
100 127 77
97 124 73
205 214 224
210 219 229
202 212 219
207 216 223
212 221 229
209 219 229
209 218 228
206 215 225
210 218 226
217 224 232
205 214 221
204 214 223
201 210 217
212 221 231
208 217 227
206 214 222
203 212 219
200 210 218
208 218 228
210 219 227
213 221 232
205 214 222
205 214 221
206 215 223
215 223 232
213 221 231
205 215 224
96 123 74
99 126 75
99 127 76
94 121 72
96 123 74
99 126 75
93 120 71
95 121 72
98 126 76
100 128 77
96 123 73
96 123 73
96 123 74
100 127 77
95 122 73
93 120 71
99 126 76
97 124 74
95 122 73
99 126 75
99 126 75
99 126 75
95 122 72
97 125 74
95 122 73
99 127 76
98 125 74
100 127 78
215 224 235
206 215 223
208 217 225
212 220 229
207 216 225
201 210 217
210 219 228
207 216 225
212 220 228
212 221 231
212 221 232
203 212 221
213 221 230
207 217 226
211 219 228
210 218 225
212 220 229
210 219 228
204 214 223
207 216 224
209 217 226
208 216 224
202 211 219
209 219 229
208 216 223
201 210 216
203 212 220
207 216 224
96 123 74
98 125 75
94 121 73
96 122 72
95 123 74
100 127 77
98 126 75
97 124 74
95 122 74
99 126 75
95 122 73
92 119 71
99 127 76
98 125 75
98 125 74
99 126 76
97 124 73
96 123 73
99 126 75
97 124 74
96 123 74
98 125 75
97 125 75
96 123 74
97 124 75
97 124 74
99 126 75
100 127 76
139 157 136
206 216 223
208 218 228
200 209 215
207 215 221
205 215 223
207 216 225
209 218 225
213 221 228
209 217 224
206 216 225
209 218 226
204 213 221
209 218 227
206 215 222
208 217 227
210 218 228
209 218 226
207 215 222
208 216 224
205 215 223
207 216 223
210 219 228
209 218 224
202 211 216
206 215 223
202 211 217
207 216 225
213 222 233
94 121 72
98 125 75
99 126 76
95 122 72
95 122 73
96 124 74
98 125 75
97 124 74
101 128 76
98 125 75
97 124 75
98 125 75
99 126 76
96 123 74
99 126 76
97 124 75
99 126 75
99 126 76
97 125 74
99 127 76
98 125 75
98 126 75
95 122 72
100 127 76
97 124 73
95 123 73
102 129 77
136 155 138
204 214 222
213 221 228
202 211 216
209 217 225
203 212 217
203 212 218
207 217 225
210 219 227
206 215 222
208 217 225
208 217 225
206 215 224
208 217 226
205 215 223
203 213 222
212 219 226
206 215 222
207 216 223
205 215 223
208 218 228
206 215 221
208 217 223
211 220 231
210 219 229
209 218 227
200 211 220
117 140 104
99 126 75
95 122 73
99 126 75
98 125 75
98 125 75
96 123 73
94 121 73
99 127 76
98 125 74
102 130 78
97 124 74
94 121 72
94 121 72
99 126 75
99 126 75
98 125 76
98 126 76
96 124 74
100 127 77
98 125 74
97 124 74
99 126 76
95 123 74
98 126 75
131 150 124
205 214 222
206 216 224
212 219 227
206 215 222
209 218 227
211 220 229
202 212 221
207 216 221
214 222 232
208 217 226
209 217 224
208 217 226
209 218 225
207 217 226
208 217 225
212 220 228
213 221 229
205 214 221
207 216 222
204 213 219
205 213 218
210 218 227
207 216 222
159 173 161
97 124 74
98 125 74
96 123 73
100 127 76
99 125 74
97 124 73
99 126 75
98 125 74
96 123 74
97 125 75
99 125 75
101 129 78
98 126 75
97 124 74
100 127 75
97 124 74
97 123 73
100 128 77
97 124 74
100 127 76
96 123 72
158 173 161
204 213 221
211 220 228
209 218 227
209 218 227
206 215 222
203 212 218
205 213 219
207 216 223
202 211 217
206 215 225
209 218 226
202 211 219
209 218 227
208 216 224
203 212 220
211 219 227
213 221 229
199 209 215
205 214 222
170 183 173
100 127 76
100 127 76
94 122 73
96 123 73
98 126 75
97 124 73
100 127 76
99 127 76
96 123 74
99 126 75
96 123 74
97 125 75
98 125 74
100 127 75
96 123 73
96 122 73
98 125 75
94 122 73
100 128 77
96 123 73
98 125 75
97 124 74
189 199 201
209 218 228
204 213 221
209 218 226
207 217 227
210 219 228
202 212 222
209 217 225
205 214 222
206 215 223
206 215 224
202 212 221
202 212 221
208 216 224
206 215 223
208 217 225
196 206 211
202 212 220
209 217 223
206 216 226
187 198 200
94 122 73
96 124 74
97 124 74
96 123 73
97 124 74
100 128 77
98 124 74
101 129 77
98 125 75
98 125 75
98 125 75
97 125 75
100 127 76
94 121 72
99 126 76
98 125 75
96 124 74
96 123 73
97 125 75
94 121 72
97 124 73
98 125 75
203 212 219
210 218 227
205 215 222
212 221 231
199 207 213
198 208 216
205 214 222
205 214 221
202 212 222
206 215 223
208 217 227
200 210 219
213 221 231
205 215 225
203 212 219
209 218 228
210 219 229
204 213 222
203 212 220
209 218 226
202 212 219
200 211 220
208 218 228
207 216 224
98 126 75
99 126 76
97 125 75
98 126 76
97 124 74
93 120 72
100 127 76
98 125 75
98 125 74
99 126 75
99 127 76
99 126 75
99 127 76
98 125 75
97 124 74
97 124 74
92 119 71
95 123 73
96 123 73
96 123 73
96 123 74
96 123 73
96 124 74
97 124 74
97 124 73
141 158 140
197 208 215
209 219 229
203 213 222
198 209 217
207 216 222
209 218 227
203 213 220
211 220 229
210 219 230
204 213 221
208 216 223
206 215 223
208 217 225
203 212 222
209 218 227
206 215 223
199 209 216
200 209 215
211 220 230
207 216 226
209 217 225
203 211 217
208 217 225
207 217 228
209 218 227
204 213 219
116 138 107
97 124 74
99 126 76
100 127 76
98 125 75
94 120 71
96 122 72
98 125 75
99 126 76
99 126 75
100 128 76
98 126 76
98 125 75
96 123 74
96 123 73
97 124 74
97 124 74
96 123 74
97 123 73
100 127 76
98 125 74
99 127 76
97 124 74
100 128 77
96 123 74
94 121 72
96 123 74
97 124 74
206 215 224
204 213 218
206 215 224
204 214 222
197 207 214
211 219 227
208 218 227
205 215 224
210 219 227
204 213 220
201 211 220
209 218 225
200 210 216
206 214 223
207 216 224
210 218 225
207 216 222
202 212 221
206 214 221
209 217 225
213 222 232
212 220 227
209 218 226
207 217 227
208 218 228
205 215 224
209 217 223
205 214 222
99 126 76
94 121 72
99 126 75
99 127 76
98 126 76
99 126 74
92 119 71
98 125 75
99 126 75
100 127 76
96 123 74
96 123 74
95 122 73
97 125 75
95 122 73
95 122 73
99 126 76
95 122 73
94 121 72
99 126 75
97 124 74
100 128 76
99 126 76
96 123 74
96 123 73
99 126 76
99 127 76
97 124 74
157 173 161
209 218 225
208 216 222
208 217 224
206 216 225
206 215 223
211 219 226
205 215 224
203 212 217
206 215 222
206 216 223
202 212 221
211 220 230
209 217 226
214 223 232
201 212 221
210 219 228
202 212 220
208 216 221
207 216 224
207 217 226
212 221 230
204 213 221
212 220 228
202 212 218
213 222 231
199 210 218
203 212 220
184 196 195
98 125 75
99 127 76
98 126 75
98 125 75
100 127 76
96 123 74
98 125 74
100 127 76
99 127 76
96 123 73
97 125 74
97 124 74
98 125 75
97 124 74
99 126 75
98 125 74
98 125 74
96 123 73
96 122 73
98 125 75
97 124 74
96 124 74
98 125 74
95 122 73
96 123 73
96 123 74
100 127 76
204 214 222
211 219 228
205 213 220
204 214 222
203 213 220
210 219 229
201 211 217
205 215 225
208 216 224
200 211 218
205 214 222
203 213 222
203 212 219
203 212 220
206 216 226
206 215 223
206 214 220
209 218 227
202 212 219
209 218 226
209 218 225
212 220 229
210 218 225
209 218 226
213 221 228
208 217 226
193 203 204
96 123 74
97 124 74
100 127 75
98 125 75
96 123 73
98 125 75
99 126 76
99 126 76
101 128 77
96 122 73
98 125 75
95 122 72
97 124 74
97 124 73
97 124 73
101 128 76
95 121 72
101 128 76
93 120 72
98 125 75
98 125 75
95 121 72
97 124 74
98 126 76
99 125 77
196 207 214
203 212 217
214 222 229
208 217 227
201 211 219
204 213 220
206 216 224
208 217 226
210 219 228
205 214 221
209 217 225
214 222 230
206 214 220
206 215 223
213 221 230
208 217 226
205 214 222
211 219 226
205 214 221
207 216 224
204 213 220
207 215 222
208 218 227
173 185 178
98 125 74
96 124 74
98 125 75
98 125 75
96 124 74
96 122 73
95 122 72
95 122 73
97 124 74
97 125 75
96 123 73
97 124 74
99 126 75
100 128 76
98 126 76
97 124 74
99 126 75
96 123 74
98 126 75
93 120 71
97 124 73
177 189 185
210 218 226
205 215 223
208 215 221
207 215 223
210 219 227
214 222 230
214 222 229
205 214 222
206 215 223
201 211 219
209 218 227
212 220 230
208 216 224
211 219 226
213 222 233
203 213 220
210 219 226
210 219 227
208 216 223
123 143 119
99 126 76
100 128 77
99 127 76
97 124 74
98 125 75
99 126 75
99 125 75
98 125 75
97 124 74
97 125 75
96 123 74
97 125 75
98 125 75
97 125 75
96 123 73
98 125 74
98 125 74
98 126 76
96 123 74
95 123 73
96 123 74
99 126 76
98 125 75
95 123 73
158 172 161
206 215 223
204 214 226
207 216 224
204 213 220
206 216 224
205 214 223
205 214 221
207 216 225
202 212 222
202 211 219
206 215 224
201 211 220
214 222 229
206 216 225
205 214 220
205 215 223
211 220 228
206 216 225
196 207 215
199 209 215
98 125 75
97 125 75
97 124 74
95 122 73
95 122 73
99 126 76
96 123 74
94 121 72
97 124 74
96 124 74
100 128 76
99 126 75
97 125 75
97 124 74
99 127 76
95 123 74
98 126 75
97 125 75
96 123 74
96 123 73
96 124 74
97 124 74
202 212 221
211 219 228
206 215 222
207 216 224
203 212 218
200 210 218
211 220 229
206 215 222
199 210 218
209 217 225
208 217 225
205 214 220
205 215 226
211 219 227
204 213 221
210 219 229
207 216 224
210 220 229
208 217 224
201 211 218
214 223 233
208 216 224
216 224 232
205 215 223
92 118 70
97 124 74
97 125 75
97 125 75
98 125 74
98 125 74
100 127 76
96 123 73
97 124 74
98 125 74
99 126 76
98 125 75
98 126 75
96 123 73
93 119 70
98 126 76
97 124 74
94 121 73
97 124 74
93 120 72
98 125 74
99 127 76
95 122 73
98 125 75
97 124 74
208 217 225
212 220 229
205 214 222
207 216 226
213 221 229
209 217 225
203 213 220
207 216 225
210 219 228
201 211 218
210 219 229
206 214 222
209 217 224
203 213 221
210 219 228
206 215 223
206 216 226
206 216 226
207 216 224
206 216 225
207 216 226
204 213 220
204 213 220
206 215 222
204 214 224
197 208 216
207 217 226
99 126 75
96 123 73
101 129 77
99 126 75
99 127 76
96 122 73
97 124 74
97 124 74
99 126 75
96 122 73
98 126 76
97 124 75
97 124 75
98 125 75
99 126 75
97 124 75
97 124 75
95 122 73
97 124 74
96 123 74
97 124 75
98 125 75
98 125 74
97 125 75
98 125 75
97 124 74
94 121 71
209 217 226
213 221 229
209 217 225
208 217 224
199 209 216
202 211 217
211 220 229
207 216 225
211 220 229
210 219 227
204 214 223
203 213 219
202 211 216
210 218 226
203 213 220
206 215 224
201 211 218
205 214 223
214 222 231
204 214 222
210 219 231
208 217 225
213 222 231
206 215 224
207 216 224
200 209 216
210 219 227
209 217 225
97 125 76
102 130 78
97 124 74
101 129 77
95 123 73
98 126 76
97 125 75
96 123 73
95 122 73
97 124 74
96 123 73
97 124 74
99 126 75
99 126 75
95 122 72
96 123 74
97 125 75
94 120 71
98 125 74
99 126 74
99 126 75
99 126 75
97 125 74
98 125 74
96 123 73
97 124 74
98 125 75
93 120 72
181 193 193
204 213 221
204 213 222
202 213 221
204 214 223
210 218 226
202 212 220
211 220 227
204 214 223
204 214 223
205 214 219
205 214 223
206 214 221
207 217 226
211 220 229
207 216 225
209 217 226
209 219 229
214 222 231
210 219 227
205 215 223
206 215 222
211 219 227
207 217 226
210 218 226
200 211 220
203 212 218
207 216 223
125 146 114
99 126 75
95 122 72
98 125 75
100 128 78
97 124 74
101 128 77
100 128 76
99 127 76
100 127 76
96 123 73
97 125 75
95 122 72
99 126 75
97 124 74
95 121 72
98 124 74
94 121 72
100 127 76
99 126 75
98 125 74
98 125 75
97 124 74
99 127 76
94 121 72
98 126 76
99 126 76
121 143 111
205 214 223
206 214 221
207 216 224
214 222 230
213 222 232
205 214 221
206 216 224
208 218 227
199 208 215
205 214 221
203 212 220
202 211 218
206 215 222
206 215 223
210 219 228
206 215 224
213 220 228
202 212 220
205 215 224
209 217 223
205 215 225
199 209 217
208 217 224
205 214 222
208 217 224
207 216 222
97 125 75
100 127 76
94 121 72
98 125 75
99 126 76
97 123 73
97 124 74
95 122 72
96 123 73
96 123 73
96 123 73
96 123 73
100 128 77
97 124 74
98 125 75
98 125 76
97 124 74
99 127 75
98 125 74
97 124 74
99 126 76
98 126 76
99 127 76
97 123 73
98 125 75
205 214 223
213 222 232
201 211 220
204 213 220
207 216 224
209 217 225
206 215 223
210 219 228
207 216 224
204 213 221
208 217 225
212 220 228
204 213 218
206 215 221
199 208 213
208 217 224
202 210 217
211 219 226
212 220 230
205 214 221
208 216 223
205 213 219
202 211 218
168 181 174
98 126 76
95 122 73
99 127 76
95 121 72
98 125 75
97 124 74
97 124 74
100 127 76
99 126 75
100 127 75
94 121 73
100 127 76
99 127 76
96 123 73
98 125 75
97 124 73
96 123 73
98 125 75
102 129 77
93 120 72
97 124 74
190 201 202
204 213 221
212 220 228
211 219 228
206 214 221
210 218 227
207 215 224
207 215 222
205 214 222
208 217 227
205 214 221
210 219 230
212 220 229
208 217 225
210 219 226
209 218 226
206 215 224
207 216 223
196 206 213
203 212 219
97 123 76
98 125 75
99 127 76
100 127 76
94 121 72
96 123 73
101 128 76
98 124 74
96 123 74
100 127 76
98 125 74
98 126 75
95 122 73
96 123 74
97 124 75
99 127 77
96 123 74
94 121 72
99 127 76
99 126 75
97 124 74
98 126 75
93 121 72
97 124 74
97 124 74
98 125 74
96 123 74
135 153 130
199 210 218
198 207 215
207 216 224
210 219 228
205 215 224
207 216 225
203 212 219
205 214 220
203 212 217
203 212 220
205 215 224
202 212 220
207 216 225
210 219 228
203 213 222
205 214 224
201 211 220
212 220 229
211 220 231
195 206 216
97 125 76
98 125 75
99 126 75
97 124 74
95 122 73
96 123 74
98 125 76
96 123 74
94 121 72
94 121 72
97 125 75
98 125 74
92 119 71
95 123 74
94 121 72
96 124 74
98 126 75
96 123 73
98 125 75
95 122 73
96 122 72
107 132 88
205 214 223
211 220 228
209 217 225
208 217 226
203 213 221
209 219 228
208 217 226
195 206 212
205 214 221
204 214 222
206 216 226
207 217 227
199 210 219
210 219 227
206 216 225
210 218 225
209 218 226
207 215 221
201 211 219
204 213 222
206 216 223
199 209 217
211 220 230
171 184 181
95 123 73
100 127 76
96 123 74
96 124 74
100 127 77
97 125 74
97 124 75
95 122 73
93 119 71
99 126 76
98 125 75
94 120 71
97 124 74
97 124 74
99 126 75
97 124 73
97 124 74
98 126 75
100 127 76
96 123 73
97 124 74
99 126 75
94 121 72
97 124 74
110 135 96
207 215 224
206 215 223
207 216 225
213 221 230
211 219 228
205 214 224
203 212 220
212 220 228
202 211 219
205 214 222
206 215 223
204 213 221
212 220 228
203 213 218
205 215 223
207 216 223
205 214 222
212 221 231
203 213 220
200 211 219
203 213 222
203 212 218
206 216 225
210 219 227
203 212 220
209 218 226
102 128 82
95 123 73
97 124 75
97 124 74
98 126 75
95 122 73
98 125 75
99 126 75
97 125 75
99 126 75
95 122 73
97 124 74
98 125 75
96 123 73
97 125 74
99 126 75
99 126 75
97 124 74
96 123 73
96 123 74
99 127 76
96 122 72
99 126 75
96 122 73
97 124 74
93 120 71
97 125 74
170 182 177
209 218 226
207 217 226
216 224 234
205 215 225
203 213 219
203 214 222
203 212 220
206 215 224
209 218 226
212 221 230
209 218 226
205 215 222
208 217 225
207 217 226
204 214 222
202 211 219
202 212 221
206 216 226
206 216 225
203 212 218
208 216 224
210 218 227
208 217 227
202 211 217
208 217 225
211 219 229
212 220 228
111 134 99
98 125 75
98 126 76
94 121 72
98 126 75
98 125 75
98 125 75
95 122 73
99 126 75
97 125 75
97 124 73
97 124 74
97 124 74
98 125 75
99 126 75
97 124 74
95 122 73
96 123 74
96 123 74
97 124 74
96 123 74
96 124 74
95 122 73
95 122 73
96 123 73
95 122 73
98 125 75
101 128 77
196 206 210
202 211 220
213 221 231
202 211 219
212 221 230
205 215 223
207 217 226
202 213 221
209 217 226
204 214 222
207 217 225
213 222 232
208 216 224
212 220 229
207 215 222
204 214 225
212 220 229
207 217 225
210 218 226
202 212 219
204 214 224
213 220 228
201 210 216
203 213 222
208 216 225
206 215 223
208 216 225
209 217 225
99 126 75
96 123 73
100 127 76
96 122 72
98 125 74
100 127 76
97 124 74
100 127 76
96 122 73
97 124 74
95 123 74
99 126 75
100 128 76
98 125 75
94 121 72
97 124 74
96 123 74
97 124 74
95 123 73
99 126 75
96 123 74
100 126 75
97 124 74
98 125 74
97 125 74
99 127 76
101 128 76
199 209 216
205 214 220
207 216 224
204 213 219
202 210 217
212 220 229
199 209 215
206 215 223
211 220 228
208 216 223
209 218 227
217 224 234
204 214 224
206 215 223
204 214 223
197 208 215
202 211 219
213 220 229
208 217 225
205 213 219
215 222 231
198 207 213
208 217 224
202 212 220
206 215 221
204 214 223
135 155 131
99 126 75
93 120 71
101 128 77
97 124 74
100 127 76
101 128 77
96 123 73
99 126 75
98 125 75
97 124 73
96 123 73
95 122 73
97 124 75
99 126 75
100 127 76
97 124 74
99 126 75
96 123 74
98 125 74
99 127 76
100 128 77
98 125 75
99 127 76
96 124 74
197 208 216
203 212 220
208 216 224
209 217 225
213 222 231
208 216 225
206 215 225
208 216 223
204 213 222
214 222 232
207 216 224
209 218 226
205 214 223
210 219 227
208 217 227
206 214 220
213 221 228
204 214 222
204 212 219
208 217 225
212 220 228
203 212 219
213 221 231
186 197 196
98 125 74
99 127 76
97 124 74
97 124 74
96 123 73
97 124 74
98 126 76
98 125 74
97 125 74
97 124 74
97 124 74
101 128 76
99 126 75
96 123 73
96 123 73
97 124 74
94 121 72
94 121 72
99 127 76
100 127 76
98 125 74
203 212 218
202 211 216
209 217 225
216 224 233
204 213 221
204 212 217
209 217 224
211 219 228
212 219 225
204 213 221
201 210 218
206 215 222
205 213 218
205 214 222
209 218 226
209 218 227
214 222 231
204 212 218
210 218 226
205 214 221
96 123 73
96 123 73
98 125 75
95 123 73
99 126 75
97 124 74
94 121 72
96 123 73
96 122 72
98 125 75
96 123 74
98 125 74
107 132 86
96 124 75
96 124 74
94 120 71
96 122 73
94 122 74
93 120 72
99 126 76
97 124 75
93 120 71
93 120 71
96 123 73
99 127 76
95 121 72
97 124 74
94 121 72
96 122 73
98 125 77
206 216 225
202 212 219
207 217 228
205 215 224
204 212 220
211 220 230
214 221 229
210 218 226
202 212 221
208 217 226
213 221 231
207 216 225
206 216 225
202 212 221
203 213 223
206 215 222
194 205 212
204 214 223
200 210 218
203 212 220
97 125 75
97 125 75
96 123 73
99 126 76
96 124 74
96 123 74
94 121 73
97 125 75
99 126 76
95 122 73
97 124 74
99 126 76
95 122 73
97 124 74
95 122 73
97 124 74
98 125 75
95 121 72
98 125 74
98 126 75
93 120 71
107 131 92
204 214 222
204 213 220
202 212 218
208 217 225
216 223 231
214 222 231
209 218 226
206 215 222
211 220 231
209 219 231
201 211 218
206 214 222
204 214 223
207 216 226
202 212 221
208 217 226
206 216 225
208 217 227
202 212 221
207 216 225
211 220 228
201 211 218
199 209 216
122 144 117
97 124 74
96 124 74
97 124 74
98 125 75
94 122 73
96 123 73
97 125 74
100 128 77
95 122 73
98 126 75
98 125 75
98 125 75
98 125 75
97 124 74
93 120 71
93 120 71
99 126 75
96 123 73
99 126 76
96 123 73
100 127 76
97 124 74
96 124 74
96 123 74
187 198 201
206 215 223
207 216 225
210 218 225
207 215 222
198 208 214
212 220 229
205 214 220
202 212 220
209 218 227
203 213 220
203 213 221
203 213 220
199 209 217
202 211 220
213 221 232
207 216 224
208 216 224
205 215 222
212 221 232
199 209 215
206 215 223
209 218 226
202 212 217
201 211 218
203 212 218
180 192 188
97 125 75
95 122 73
97 124 75
97 124 75
99 127 76
99 127 76
96 122 73
94 122 73
96 123 73
95 123 73
98 125 75
96 123 73
99 126 75
94 121 72
95 122 74
98 126 75
98 125 74
100 127 77
97 125 75
100 128 77
98 125 75
97 124 73
96 123 73
97 124 74
94 121 71
93 120 71
97 123 75
207 215 221
208 217 224
196 206 213
209 218 227
201 210 217
206 215 223
203 213 221
207 216 225
211 220 229
204 214 222
211 219 229
203 213 221
208 217 226
204 214 222
207 216 224
208 217 226
211 220 229
210 219 228
208 216 223
204 213 221
203 212 218
212 221 230
209 217 224
209 218 228
205 214 222
207 215 221
205 214 222
136 155 135
99 126 75
96 123 73
98 125 74
95 122 73
99 125 75
95 122 73
99 127 76
98 125 74
97 125 75
99 126 75
100 128 77
95 122 73
98 125 75
98 125 74
93 120 71
99 126 75
96 123 73
93 120 71
98 126 75
97 125 74
93 120 71
98 125 74
97 124 74
92 119 69
96 123 73
97 124 74
98 125 75
211 219 228
209 217 225
207 216 223
209 217 224
208 217 225
205 215 223
209 218 226
210 218 225
205 215 222
210 218 226
200 210 218
205 214 221
204 213 222
207 216 226
208 217 226
209 218 225
209 218 227
203 212 220
216 224 234
213 222 233
210 219 228
204 213 220
200 209 215
205 214 222
210 218 227
208 217 226
202 213 224
202 212 220
95 122 73
100 128 77
96 123 73
95 122 73
94 121 73
95 122 73
102 130 78
97 124 75
98 125 74
94 121 72
100 127 77
96 123 73
98 126 75
97 124 75
99 126 76
93 120 72
98 126 76
99 126 76
100 128 77
99 127 76
96 124 74
97 124 74
97 124 74
96 123 74
96 124 74
98 125 75
116 138 107
206 215 222
209 218 226
205 214 223
206 214 221
206 215 223
204 213 221
211 220 231
204 213 220
205 213 220
197 206 213
204 213 220
206 215 224
208 217 225
200 210 217
202 211 218
209 217 225
201 211 219
213 221 230
204 214 221
210 218 224
213 221 229
206 215 222
213 221 228
210 218 227
204 213 221
203 212 220
100 127 76
98 126 76
98 125 75
99 127 76
100 127 76
98 125 74
97 124 75
99 126 76
96 123 74
100 127 75
98 125 75
99 127 76
96 123 73
97 124 74
95 122 73
101 128 77
96 123 73
99 126 76
96 123 73
96 124 74
99 126 76
97 124 73
98 125 75
95 121 72
172 185 179
206 216 225
210 218 227
207 215 224
204 213 223
207 215 223
212 220 229
212 221 230
201 210 217
207 216 223
204 214 222
206 216 225
210 219 227
211 220 228
207 216 224
211 219 228
200 209 216
204 214 223
208 218 228
208 217 224
201 211 220
201 211 218
206 215 224
187 198 202
99 126 76
96 123 73
99 126 76
98 125 74
98 125 75
98 125 74
102 130 78
97 124 73
97 123 74
100 128 76
97 124 74
98 125 75
96 123 73
97 124 74
100 127 76
98 125 75
95 122 73
98 125 75
95 122 73
96 124 74
97 124 74
203 213 219
209 218 226
208 216 225
206 214 221
201 211 217
211 219 227
210 219 229
207 216 224
196 206 212
206 214 223
219 226 233
213 221 229
208 217 225
210 219 229
212 219 226
212 220 229
210 218 225
207 216 225
204 213 221
179 191 188
99 126 75
95 122 72
95 121 72
96 123 73
98 125 74
97 124 74
96 123 72
95 122 73
94 121 71
97 124 74
96 123 73
97 124 74
99 127 76
207 214 220
136 155 132
99 126 75
94 121 73
98 125 75
96 123 74
99 126 75
96 123 74
98 125 74
93 120 72
97 124 74
97 125 74
98 125 75
92 119 71
98 125 74
94 121 72
96 123 73
98 125 74
98 125 75
189 201 204
205 214 223
205 214 223
204 213 220
201 210 216
203 212 219
197 207 214
201 210 218
200 210 217
203 213 221
200 209 214
203 213 221
202 211 218
209 218 226
200 211 220
201 210 217
205 214 220
214 222 232
205 214 222
201 211 218
96 123 74
97 124 74
96 123 74
99 126 76
96 123 73
98 125 75
97 124 74
97 124 74
96 123 74
96 123 73
100 127 76
92 119 71
97 124 73
97 124 74
99 126 75
96 123 74
97 124 74
98 125 75
98 125 74
97 124 74
96 124 74
120 141 112
201 211 219
206 215 223
209 218 228
199 209 215
208 218 227
203 213 219
194 205 213
200 210 215
202 212 221
204 215 227
208 217 225
202 212 221
203 213 222
209 218 226
214 222 231
203 213 220
205 214 221
207 216 223
205 214 221
203 213 222
206 215 225
204 213 220
209 218 227
97 124 74
95 122 73
97 124 74
96 123 74
96 123 74
98 125 75
98 125 75
97 125 74
94 121 72
98 125 75
96 123 73
94 121 72
96 124 74
101 129 77
99 126 76
96 124 74
96 123 73
97 124 74
95 122 72
96 123 74
96 124 74
95 122 73
95 122 73
100 128 77
98 125 75
209 218 227
204 213 219
208 217 226
202 212 220
205 214 223
207 216 222
205 215 225
210 219 228
204 213 221
208 217 224
205 214 222
207 216 225
205 214 221
198 207 214
206 214 222
207 217 225
211 219 228
210 218 227
207 216 224
201 211 219
204 214 222
207 217 226
200 210 217
206 215 224
208 217 225
206 214 221
97 124 75
95 122 73
98 125 75
98 126 75
97 124 75
96 123 74
97 125 75
95 122 73
94 120 71
96 123 72
96 123 73
96 123 73
95 123 73
98 125 74
96 123 73
96 123 73
98 125 75
98 125 74
97 125 75
98 125 75
96 123 73
94 121 72
100 128 77
95 122 73
96 123 74
99 126 75
98 125 74
212 221 231
207 216 224
205 215 223
211 220 229
207 216 225
206 216 224
203 212 218
203 213 221
204 213 218
207 217 226
207 215 223
209 218 226
203 212 219
204 213 219
210 219 227
211 219 226
211 218 225
205 214 223
202 212 222
213 221 230
205 214 221
202 213 222
207 216 225
204 213 220
207 215 222
204 213 220
207 215 220
147 165 147
97 124 74
98 125 75
98 125 74
98 125 75
98 125 74
98 125 75
95 122 73
97 125 75
99 126 75
98 125 74
98 125 75
96 123 74
95 122 73
98 125 75
99 126 76
98 125 75
96 123 74
99 126 75
97 124 74
94 122 73
95 122 73
101 128 77
98 125 75
98 125 75
95 122 73
94 121 72
94 121 72
205 215 225
205 214 224
208 217 226
204 212 219
210 219 227
203 212 219
205 214 222
207 216 223
202 213 223
206 215 223
212 220 229
208 218 227
203 213 222
208 217 226
208 216 224
216 224 233
208 217 226
211 221 232
210 219 227
209 218 227
205 214 222
208 217 223
209 217 226
207 216 225
202 212 219
213 221 230
210 219 227
150 167 151
96 123 74
98 126 75
97 124 73
98 125 75
98 126 76
98 125 74
98 125 74
95 122 73
97 124 75
98 125 74
96 123 73
100 127 76
99 126 76
95 121 72
99 126 75
98 124 74
100 127 75
101 128 77
99 126 75
97 125 75
97 124 74
97 124 74
97 124 74
97 125 75
97 124 74
99 127 76
204 214 222
209 217 225
200 210 216
211 219 228
204 213 219
206 215 222
209 217 224
213 219 225
210 218 226
199 208 214
197 207 213
205 214 221
210 218 225
208 218 228
206 215 222
210 218 225
209 218 227
208 217 224
205 215 223
209 218 226
203 212 218
209 217 223
206 215 223
207 215 223
208 217 225
212 220 228
96 123 73
99 126 75
96 123 73
93 120 71
96 123 74
95 122 72
96 123 73
93 120 71
98 125 75
98 126 76
94 121 72
97 124 73
96 123 73
98 124 74
96 123 74
97 124 75
95 121 72
100 127 77
99 126 75
95 122 73
98 125 74
97 124 73
97 125 75
101 128 76
124 146 116
209 218 226
198 208 214
208 217 225
212 220 228
210 219 227
204 213 219
215 223 231
205 214 222
205 215 224
207 215 222
207 216 224
205 214 223
206 216 225
206 215 223
209 218 227
214 222 230
194 205 211
206 215 222
210 219 229
201 210 217
214 222 231
200 210 216
202 212 216
95 122 72
98 125 74
99 126 75
98 125 75
97 124 74
98 124 74
98 125 75
98 126 75
97 124 74
96 123 73
98 125 74
99 126 75
96 123 73
98 125 75
98 124 74
97 124 75
95 121 72
96 123 74
96 122 73
100 127 76
99 126 75
212 220 229
202 211 218
209 218 226
210 218 226
203 211 216
211 219 226
200 210 216
206 215 226
213 222 231
207 216 223
210 218 227
206 215 223
208 217 224
212 220 229
205 214 223
208 216 224
211 219 228
215 223 231
204 213 220
142 160 140
97 124 74
100 127 76
96 123 73
95 122 72
98 125 75
95 122 73
99 126 76
94 121 72
94 121 72
97 124 74
100 127 76
98 125 74
97 124 74
96 123 73
94 121 72
97 125 75
122 143 113
216 224 233
203 212 221
200 209 216
200 210 218
208 217 225
200 210 217
195 205 209
196 205 208
191 202 206
179 191 190
171 185 181
171 184 179
162 177 170
167 181 171
149 165 151
141 159 141
124 145 117
190 201 202
193 203 207
200 210 217
203 212 220
208 217 224
202 212 221
204 213 221
200 210 218
199 209 216
203 212 219
200 210 218
201 211 217
207 216 226
202 211 220
202 212 219
206 216 225
204 213 218
208 216 224
213 222 232
203 212 221
103 129 85
96 124 74
96 123 73
98 125 75
98 126 76
98 125 74
94 121 72
96 123 73
96 124 74
97 124 74
98 126 75
96 123 74
96 123 74
98 124 74
97 124 74
95 121 72
93 120 72
91 118 70
99 126 76
95 122 73
97 125 75
126 146 121
209 218 228
205 215 224
206 216 225
207 215 223
204 214 223
209 218 226
203 213 222
207 215 222
201 210 217
205 215 225
214 222 230
200 210 218
210 219 227
208 217 226
202 211 219
206 215 224
199 209 216
208 217 223
202 212 220
210 218 226
207 216 224
205 215 225
202 212 218
99 127 76
97 124 74
95 122 73
95 122 73
96 123 73
99 126 75
94 120 71
96 123 73
99 126 75
99 126 75
102 130 78
96 123 74
97 125 75
96 124 75
98 125 75
97 125 75
100 127 76
97 124 74
94 121 71
93 120 72
99 127 76
95 122 73
99 127 76
99 126 75
150 168 154
206 215 222
207 216 224
204 214 222
203 213 223
200 210 219
206 215 222
210 219 228
211 220 228
202 211 217
206 215 222
205 213 220
203 213 223
203 213 221
195 206 213
204 213 220
204 214 223
206 215 223
206 215 222
208 217 225
203 213 223
206 216 226
204 214 222
206 215 223
204 213 220
212 221 231
164 178 168
96 124 74
98 125 74
96 124 74
98 125 75
98 125 75
98 125 75
97 124 75
99 126 76
98 125 75
98 125 74
97 124 74
97 124 74
97 124 75
94 121 73
98 126 75
95 122 73
96 123 74
101 128 77
97 125 75
92 119 71
100 127 76
95 122 73
95 122 73
99 126 75
94 120 71
96 122 73
200 210 218
202 212 220
203 213 221
208 217 225
213 221 229
206 215 221
214 222 231
205 215 224
207 216 223
210 219 229
206 214 220
199 209 216
206 216 225
213 222 232
206 216 226
206 215 223
208 217 227
207 216 223
204 214 221
201 211 219
207 216 224
202 212 220
206 214 222
201 210 216
206 215 224
208 216 224
202 211 217
174 187 182
97 124 74
98 125 75
96 123 73
96 123 74
94 122 73
97 124 74
97 124 75
100 127 76
97 124 74
92 119 70
97 124 74
97 124 75
99 126 76
98 125 75
98 125 74
97 124 74
98 125 75
96 123 73
98 125 75
99 126 75
95 122 73
96 124 74
97 124 75
96 123 73
97 124 74
98 125 75
99 126 75
201 212 221
210 219 229
203 213 221
207 215 223
205 214 221
201 211 219
215 223 232
201 210 215
199 209 215
205 213 219
200 209 218
211 218 225
213 221 231
208 216 224
209 218 226
206 215 222
203 212 218
209 218 226
209 218 227
207 216 224
204 213 222
207 216 225
207 216 225
210 219 227
207 215 224
204 214 224
208 217 225
101 128 76
95 122 73
98 125 74
99 126 75
98 125 75
98 125 75
95 122 73
97 124 74
96 123 74
97 124 74
98 126 75
98 125 74
95 122 72
95 121 72
92 118 70
95 122 73
98 125 74
97 124 74
99 127 76
97 124 74
99 126 75
99 126 75
97 124 74
97 124 74
98 126 75
98 126 75
100 126 80
214 223 232
212 220 229
206 214 222
202 212 219
203 211 218
211 219 226
213 221 231
200 209 214
215 223 232
207 215 223
210 219 228
198 208 212
209 219 228
205 215 223
199 208 215
202 211 216
205 215 224
203 212 219
208 217 226
205 215 223
206 215 222
203 213 220
210 219 227
212 220 229
201 211 221
147 165 148
94 121 72
101 128 76
95 122 72
96 123 73
98 125 75
96 123 74
98 125 74
99 126 74
95 122 74
96 123 74
99 126 75
97 125 75
96 124 74
96 123 73
95 121 72
96 123 73
95 123 73
94 121 73
94 122 73
97 124 73
98 125 74
98 125 75
97 124 73
106 131 87
209 218 228
198 207 213
207 216 225
201 211 218
209 218 227
207 215 223
202 211 218
211 220 230
216 224 234
209 218 226
211 219 228
207 216 224
207 217 226
215 223 232
208 216 224
213 221 228
208 217 226
207 216 225
208 216 222
199 209 214
216 224 233
206 216 226
186 198 201
96 123 73
97 124 74
97 124 74
97 124 74
99 126 75
99 126 75
95 122 73
99 126 75
96 123 74
97 124 74
98 125 75
99 127 76
95 121 72
96 123 73
99 126 75
101 128 76
98 125 75
101 128 77
99 126 75
99 126 75
103 129 85
206 215 223
212 220 227
210 218 226
209 217 224
208 218 227
199 208 214
206 214 219
207 217 225
205 214 219
209 218 226
207 215 223
212 220 230
205 214 219
203 213 220
185 196 197
196 206 210
195 205 206
174 187 182
161 176 166
164 178 171
161 175 166
162 176 171
174 187 183
173 187 185
195 204 207
202 211 216
205 214 221
206 214 220
208 216 224
207 217 227
206 215 221
209 217 225
201 211 218
204 212 218
210 218 225
96 123 73
97 124 74
89 115 68
99 126 76
207 216 225
202 212 221
209 218 226
208 217 226
205 214 223
207 217 227
204 214 222
207 216 223
208 217 226
204 214 221
202 210 216
200 210 217
204 214 223
203 212 218
210 218 226
205 214 221
214 222 233
182 194 193
94 120 72
99 126 75
97 124 74
98 125 75
94 121 72
99 126 76
97 124 74
96 124 74
96 123 73
95 122 72
99 126 74
89 115 68
93 120 71
96 123 73
100 127 76
98 125 75
95 122 72
99 126 75
97 125 75
195 206 210
205 215 224
189 200 204
197 207 211
188 198 200
183 194 194
178 191 190
178 190 189
179 191 190
176 189 184
159 174 164
157 172 164
158 173 165
157 172 159
145 162 145
144 160 144
123 144 117
140 158 139
133 153 127
114 137 106
120 142 111
147 164 152
202 211 218
210 218 227
204 214 222
205 215 225
202 213 221
204 214 224
209 218 227
199 209 216
206 215 223
212 220 228
201 210 216
209 218 227
211 220 228
207 216 225
199 209 215
206 216 227
205 215 224
205 214 223
210 219 230
208 218 227
197 207 213
204 214 221
184 196 197
91 117 69
99 126 76
94 120 71
97 124 75
96 123 74
98 125 74
96 123 74
95 122 72
95 122 72
95 122 74
95 122 72
97 125 75
98 125 75
97 124 74
94 121 72
96 123 74
98 126 75
95 122 73
96 123 73
97 124 74
95 122 72
97 124 74
96 123 73
95 122 73
207 216 223
210 218 225
199 210 219
208 217 228
208 217 225
207 215 223
207 217 226
212 219 227
212 221 232
204 214 223
200 209 216
203 212 219
201 210 216
207 217 227
209 218 227
207 216 224
211 219 228
206 215 225
206 215 222
204 214 222
199 209 217
212 221 231
201 210 215
206 215 223
204 213 219
208 217 226
96 123 73
99 127 76
96 123 74
96 123 74
94 121 71
98 126 76
96 123 74
96 124 74
96 123 73
97 125 75
95 122 73
97 124 74
95 121 72
93 120 72
97 124 74
99 126 75
95 121 72
96 123 74
98 125 75
95 122 72
98 126 75
97 124 74
96 123 73
99 126 76
98 125 75
94 121 72
156 170 160
208 217 226
201 210 216
210 219 227
208 217 227
207 216 223
209 217 225
206 215 223
212 220 230
210 218 225
210 218 226
208 217 226
207 217 225
204 213 220
207 216 224
205 215 224
207 215 221
200 210 216
210 218 225
204 213 222
199 210 219
203 213 222
206 214 222
206 215 223
208 216 224
214 222 231
209 218 226
180 192 192
96 123 73
93 120 71
99 126 75
98 125 75
97 125 74
97 124 75
95 122 73
95 122 73
98 125 75
100 127 76
96 123 73
97 125 75
98 125 75
91 118 69
95 122 73
97 124 74
93 120 71
98 125 75
97 124 74
97 124 74
99 126 75
96 123 74
97 124 74
94 121 72
100 128 77
100 127 76
98 125 74
207 216 225
214 222 232
201 212 220
206 216 225
207 216 226
205 214 222
205 214 222
210 219 227
209 218 226
204 214 223
197 208 215
211 220 228
197 208 216
206 215 223
207 215 222
206 215 222
204 214 221
212 220 228
211 220 229
210 218 227
207 215 223
207 216 224
205 214 224
199 209 215
208 216 222
208 217 226
206 216 225
97 125 75
98 125 74
96 123 74
95 122 73
99 127 76
97 124 75
97 123 73
97 124 74
96 122 73
98 125 75
97 124 74
97 124 74
95 121 72
96 122 72
97 124 74
95 122 73
96 123 73
95 122 73
97 124 74
96 123 73
98 125 74
98 125 74
98 125 75
97 124 74
95 123 74
99 126 75
193 204 207
200 209 214
205 213 219
203 212 221
206 215 224
209 218 227
203 213 222
208 216 224
207 216 224
207 216 225
205 213 219
200 209 216
200 210 217
208 216 225
210 218 226
209 218 226
211 220 229
210 218 226
203 212 218
206 216 224
205 214 222
195 205 211
208 217 225
211 220 228
206 215 225
201 210 217
97 124 73
98 125 74
97 125 75
97 124 75
95 122 73
98 126 76
96 123 74
98 125 75
95 122 73
96 123 74
94 120 71
97 124 74
99 127 76
99 127 76
100 128 77
97 123 73
95 123 74
101 128 77
99 127 76
98 125 75
96 123 73
96 123 74
99 127 76
93 120 71
202 212 219
207 216 224
204 213 221
209 217 225
209 218 226
210 219 227
208 216 223
207 216 224
213 221 231
212 220 230
197 206 211
212 220 228
209 218 226
205 214 223
209 217 224
205 214 221
204 213 221
197 207 212
205 214 220
191 201 204
188 199 200
192 203 206
193 203 204
135 153 130
160 174 163
148 164 148
153 168 155
157 171 157
176 188 184
175 188 184
173 185 180
190 200 201
178 190 188
194 206 211
193 203 206
195 205 211
199 208 213
211 218 225
204 213 220
207 215 222
206 215 222
202 211 218
198 208 212
193 203 207
97 123 73
99 127 76
97 124 74
97 124 74
95 122 73
95 122 73
98 125 75
97 124 74
97 124 73
95 122 73
98 125 74
94 121 72
97 124 74
99 126 75
94 121 72
97 124 75
97 124 73
95 122 73
106 130 89
203 212 219
207 216 224
212 220 227
207 216 225
205 215 224
204 213 221
210 218 227
209 217 225
204 212 218
202 212 219
203 212 218
207 215 223
204 213 219
207 216 224
204 213 222
200 210 217
198 207 214
94 121 72
94 121 73
97 124 74
98 125 74
99 127 76
173 186 181
204 213 220
204 213 221
205 213 221
205 214 223
206 215 224
205 214 222
200 210 219
201 210 216
201 210 217
206 215 224
210 219 229
198 208 216
198 208 215
200 211 218
202 212 219
210 218 226
197 207 214
96 123 74
98 125 74
94 121 72
95 122 74
96 123 74
94 120 72
97 124 74
96 123 74
96 123 74
98 125 75
91 117 69
96 123 73
95 121 72
96 124 74
97 124 75
94 121 72
97 125 75
97 124 75
94 121 72
198 208 214
205 214 222
207 216 224
203 212 218
203 213 222
208 217 225
197 207 213
206 216 227
207 216 224
197 206 211
196 206 211
206 214 221
206 216 224
206 215 222
203 211 217
202 212 219
202 213 220
204 213 220
199 209 217
206 215 224
203 212 219
158 173 164
93 119 71
92 118 70
96 123 74
97 124 74
99 126 76
97 124 74
94 121 72
95 122 73
96 123 74
96 123 74
99 127 77
98 125 75
97 124 75
97 125 75
96 123 74
96 124 74
98 125 74
92 119 70
99 126 75
98 126 76
93 120 72
95 122 73
172 186 181
205 214 222
210 218 227
205 215 222
213 221 231
203 211 218
204 213 220
202 212 219
201 211 219
195 205 210
199 208 212
198 208 212
190 201 205
197 207 211
188 199 200
186 198 199
177 190 189
183 194 193
178 190 188
174 187 184
172 184 180
165 179 171
165 179 173
157 172 160
165 179 170
176 189 185
150 167 155
172 184 180
174 187 182
172 185 180
171 185 183
176 188 186
183 195 195
179 191 189
174 187 186
180 192 191
192 202 203
180 192 191
186 197 197
193 204 208
194 205 210
196 206 211
183 194 196
195 205 211
191 202 209
211 219 225
203 213 221
200 209 213
203 212 220
210 219 228
115 137 103
99 127 77
96 124 74
98 125 75
98 125 75
95 122 73
99 127 76
97 124 74
96 123 74
99 126 76
98 125 74
95 122 73
97 125 75
92 119 71
99 127 76
99 126 76
96 123 74
95 122 73
97 124 75
95 122 73
96 123 73
97 125 74
97 124 74
94 121 72
96 124 74
95 122 73
98 125 75
204 213 220
210 219 227
201 211 218
203 212 219
206 216 225
202 212 220
204 214 222
205 214 222
204 214 220
199 208 215
208 217 226
206 215 224
205 214 222
200 210 218
208 217 225
210 219 226
201 211 220
201 211 217
202 212 219
205 214 222
201 211 217
204 213 219
210 218 226
208 217 225
205 215 224
210 219 227
186 197 201
94 121 72
96 123 74
98 126 75
98 125 75
98 125 75
96 123 73
99 127 76
97 125 75
91 118 70
95 122 72
97 124 74
98 125 74
97 124 75
97 124 75
98 125 75
98 125 75
95 122 73
95 122 73
98 125 75
93 120 72
94 121 72
95 122 73
95 121 73
98 126 75
98 126 75
96 124 74
97 123 76
205 214 221
200 210 217
209 218 226
202 211 216
203 212 220
204 213 219
200 210 216
201 211 218
210 218 224
200 210 216
207 216 224
203 212 220
200 211 219
203 213 220
205 213 220
203 212 219
205 215 223
209 217 224
205 214 222
205 213 221
211 220 230
209 218 227
208 218 228
201 211 220
202 212 221
207 215 221
186 197 196
99 126 76
95 123 74
96 123 74
99 127 76
92 119 71
97 124 74
96 124 74
97 124 74
99 127 76
99 126 74
98 125 75
96 124 74
98 125 75
97 124 74
97 124 74
95 122 73
97 125 75
95 122 73
101 128 76
95 122 73
98 125 75
96 122 72
102 129 82
99 125 77
104 129 86
117 140 103
203 213 219
194 205 208
205 213 218
197 207 210
185 197 200
181 193 192
191 202 204
174 186 184
177 190 189
174 187 184
182 193 192
184 195 194
172 185 182
167 181 173
171 185 181
174 188 184
170 184 181
165 179 172
163 178 170
150 167 153
161 177 164
158 173 162
151 167 155
148 165 147
145 161 144
186 198 197
180 192 190
185 197 195
182 193 194
190 201 201
176 188 187
186 197 198
191 201 201
196 207 212
200 210 215
206 215 221
204 213 219
210 218 226
211 220 228
203 212 219
206 214 221
206 214 222
200 210 215
209 217 225
209 217 224
207 216 224
203 212 218
203 213 222
203 213 223
105 130 87
98 124 74
96 123 73
96 123 74
95 122 73
97 124 75
97 124 74
100 127 77
95 122 73
96 123 73
97 123 73
98 126 75
94 120 71
97 124 75
95 122 72
96 123 73
100 128 76
98 125 74
97 124 74
96 123 74
97 124 74
97 124 75
110 135 94
209 217 225
206 215 225
205 214 221
202 212 218
205 213 219
207 216 224
205 215 223
208 217 224
207 216 223
202 211 218
211 219 228
212 219 226
208 217 224
202 211 216
206 215 223
208 217 226
213 220 228
210 218 225
209 216 221
211 219 226
183 194 195
99 126 75
98 125 74
94 120 71
96 123 74
97 124 74
99 126 75
96 123 73
100 127 76
99 126 75
94 120 72
97 124 74
96 123 73
93 120 71
96 124 74
97 124 74
98 125 75
93 120 72
97 124 74
138 156 136
205 215 225
206 215 224
214 222 230
211 219 228
203 211 218
204 214 222
203 212 218
202 210 215
206 215 222
204 213 220
205 213 219
208 216 223
203 212 217
206 215 222
217 224 231
203 212 218
185 195 193
97 123 73
94 121 72
96 124 75
98 125 75
96 123 74
96 123 73
96 124 74
113 137 101
205 215 224
202 212 221
199 209 215
205 214 222
209 217 223
200 210 219
203 213 220
202 211 219
204 213 220
205 214 222
208 217 225
203 212 220
202 211 218
205 214 223
204 213 219
212 221 230
206 216 225
103 129 88
96 124 74
96 123 73
96 123 73
98 125 75
96 123 74
95 123 73
97 124 74
95 122 73
95 122 73
94 121 72
96 123 73
100 127 76
94 120 72
93 120 72
94 122 73
99 126 75
98 126 76
95 122 72
183 195 197
207 216 225
209 217 226
204 213 221
206 214 222
203 212 219
201 212 221
206 214 221
201 210 217
208 217 225
206 215 223
207 216 223
207 216 222
207 216 222
207 216 226
203 211 218
206 215 222
205 214 222
210 218 226
207 216 225
208 217 226
152 168 155
98 125 75
94 122 73
96 123 73
89 116 68
96 123 74
95 122 73
98 125 75
94 122 74
97 124 73
95 123 73
95 122 73
98 125 75
96 124 74
95 122 73
95 122 73
96 123 73
93 120 72
92 119 71
96 123 74
94 121 72
95 122 73
96 123 73
191 202 207
207 216 224
199 208 215
203 213 221
204 213 222
207 217 226
206 215 222
210 219 228
209 218 227
209 218 225
210 218 226
205 214 221
201 211 219
202 212 220
203 212 220
205 214 221
197 207 213
209 218 227
200 210 216
209 218 228
202 212 221
205 214 220
202 212 219
208 216 222
148 164 149
99 127 76
98 125 75
95 122 73
95 122 73
91 118 70
98 125 75
97 124 74
94 120 72
94 121 71
101 129 78
97 124 75
95 121 72
98 126 75
95 122 73
95 122 73
96 124 74
94 121 72
97 124 75
98 125 74
101 128 77
95 122 73
98 125 74
95 122 72
98 125 74
98 123 79
202 212 219
204 213 219
207 216 225
208 217 225
206 215 223
210 218 227
211 219 227
206 215 223
213 221 230
204 213 221
204 213 221
200 209 218
204 214 221
210 219 228
207 216 225
209 218 225
205 214 222
206 214 221
210 219 229
201 211 219
209 217 226
206 216 227
207 216 225
206 215 222
205 214 220
212 221 231
95 123 74
93 119 70
96 123 74
95 122 73
97 124 74
95 122 73
98 125 75
97 124 74
93 119 71
97 124 74
96 123 73
97 124 73
97 124 74
92 119 71
95 121 71
97 124 74
97 124 74
99 126 76
96 123 73
96 123 73
95 122 73
96 123 73
99 126 76
95 122 72
96 122 72
97 124 73
97 124 74
205 215 225
210 219 228
205 215 223
202 212 220
209 219 229
206 215 221
200 209 216
207 216 225
213 221 229
201 211 219
209 217 226
202 211 217
193 204 209
211 219 225
203 213 221
208 217 226
211 219 225
210 219 229
205 214 221
202 211 218
211 219 227
204 213 220
203 212 219
208 217 227
204 213 221
205 213 219
187 199 203
95 122 72
95 122 73
98 126 75
98 125 75
97 124 74
99 126 76
99 127 76
96 123 74
97 124 74
98 124 74
95 122 73
94 121 72
93 120 71
97 124 74
95 123 73
96 123 74
94 121 72
98 125 74
96 123 73
93 120 72
99 127 77
99 125 75
91 117 69
96 123 74
95 122 72
99 126 75
201 211 217
208 216 224
204 213 222
205 214 221
207 216 224
208 217 225
210 218 226
207 215 222
202 211 218
196 206 212
201 211 217
205 214 222
205 214 220
204 213 220
203 213 221
213 222 232
208 217 226
213 221 229
210 219 228
204 214 225
205 214 221
205 214 223
204 213 221
209 218 227
207 216 221
210 219 229
109 133 95
96 123 74
99 126 76
97 124 74
100 127 76
94 120 71
97 124 74
93 120 71
96 123 73
97 124 74
97 125 75
98 126 75
96 123 74
96 123 73
97 124 74
97 124 74
95 122 73
99 126 75
93 120 71
96 122 72
96 123 74
98 124 73
96 123 73
99 126 76
101 129 77
167 181 176
203 213 220
203 213 219
204 213 220
208 216 223
204 213 221
207 216 225
202 212 220
210 218 224
200 210 219
213 220 226
205 214 223
210 219 228
213 221 229
202 212 219
207 215 222
211 220 229
211 219 225
214 222 232
210 219 227
202 211 219
206 215 225
214 222 229
205 213 220
134 153 131
95 122 72
95 122 73
97 124 74
98 125 75
98 124 73
96 123 73
98 126 75
96 123 73
96 123 74
97 124 74
94 121 73
94 121 72
97 124 74
98 125 74
98 125 75
95 121 71
97 123 73
101 128 77
97 123 73
95 122 73
96 123 73
110 134 96
198 207 213
212 221 229
214 222 231
210 218 225
208 217 226
204 212 219
199 208 216
208 217 227
206 215 223
206 216 225
213 221 230
207 215 222
212 221 229
205 215 225
208 217 224
203 212 218
198 208 216
212 220 228
199 208 214
202 212 220
172 185 180
94 121 72
96 123 74
94 121 72
96 122 73
96 123 73
98 124 74
96 123 73
95 121 72
96 122 73
97 124 74
96 123 73
98 126 75
95 122 73
99 125 74
98 125 75
94 121 72
96 123 73
96 123 73
186 197 197
209 218 226
208 216 224
194 204 209
209 218 226
209 218 225
205 214 220
206 215 223
207 216 225
201 210 215
212 220 229
206 215 222
201 210 217
201 210 218
209 217 224
203 212 218
207 217 225
120 141 110
100 127 75
97 124 74
95 122 73
95 122 72
95 121 72
96 123 74
97 124 74
96 123 74
96 123 73
100 127 76
187 199 201
210 219 228
206 215 222
201 211 219
203 212 219
206 216 223
197 208 215
200 210 217
199 209 216
200 210 218
191 202 209
213 221 231
203 213 221
207 215 222
209 218 226
208 217 225
205 214 223
130 149 127
96 123 74
95 122 73
94 121 73
98 126 75
96 123 74
95 122 73
93 120 71
96 123 74
98 126 75
93 120 71
94 121 72
98 126 75
94 121 72
97 125 76
96 123 73
97 125 75
95 122 73
96 124 74
154 169 156
203 213 223
204 213 221
206 215 223
208 218 228
198 208 214
204 213 220
205 214 223
210 219 228
204 213 220
213 221 231
204 214 222
202 213 221
203 212 219
211 219 225
204 213 222
205 214 222
202 211 219
205 214 222
202 212 219
204 214 222
146 163 148
98 125 75
98 125 74
96 123 74
96 123 73
95 122 73
94 121 72
99 126 75
91 118 69
92 119 71
100 127 76
96 123 73
95 122 72
96 123 73
94 121 73
98 125 75
99 127 76
95 121 72
96 122 72
96 123 73
94 121 73
95 122 73
96 123 73
200 210 217
206 216 226
206 215 222
204 213 220
210 218 227
209 218 226
201 210 217
205 214 222
201 211 217
201 211 217
206 215 224
191 203 209
203 212 220
203 212 221
203 213 223
200 209 215
208 218 228
202 211 219
203 213 222
203 213 222
206 216 225
206 216 225
206 214 221
209 217 225
97 125 76
94 121 72
98 125 74
95 122 72
94 120 72
98 125 74
98 125 75
95 122 73
93 120 71
97 124 74
99 126 75
95 122 72
99 126 75
95 123 73
97 124 74
97 124 74
97 125 74
96 123 73
96 123 73
97 124 74
96 124 74
96 123 74
97 124 74
95 122 73
97 124 74
203 212 218
203 213 221
205 215 224
212 220 228
204 213 221
202 212 220
201 211 221
207 216 223
201 211 218
203 212 219
209 218 228
205 214 223
192 203 210
200 210 217
198 209 217
207 216 224
203 213 221
203 211 217
209 218 227
207 215 224
210 220 229
208 217 226
196 207 214
196 206 212
205 215 223
203 212 218
109 134 93
94 120 72
96 123 74
94 121 72
100 127 76
96 123 74
96 123 73
94 120 71
95 122 72
94 122 73
97 124 74
93 119 71
97 124 75
98 125 75
99 126 75
97 124 74
97 124 74
95 122 72
97 124 74
95 122 73
98 124 74
97 124 74
95 122 73
99 126 75
98 125 74
96 124 74
97 124 75
212 220 229
209 218 228
201 210 216
203 213 222
206 216 226
201 211 220
199 209 217
207 216 223
204 213 220
212 219 225
215 224 234
209 218 228
209 218 226
207 217 226
209 217 225
205 214 223
209 219 228
202 212 222
209 218 226
206 215 223
203 212 220
209 217 226
212 220 229
209 217 225
207 215 223
194 205 210
154 169 155
97 124 74
96 123 74
95 122 73
98 125 74
94 120 72
99 127 76
96 123 73
92 119 70
95 122 73
97 124 74
93 120 71
96 123 74
98 125 75
98 126 75
100 127 76
97 123 74
99 126 75
99 126 75
97 125 75
98 125 75
100 127 76
98 125 75
94 120 71
102 129 77
93 119 71
101 128 77
202 212 220
206 215 224
209 217 226
205 214 224
206 215 222
194 205 212
203 211 217
207 216 226
207 216 225
206 215 222
211 219 228
207 216 226
202 212 220
205 214 221
207 216 225
200 210 217
200 210 219
203 212 219
215 223 234
205 214 221
211 219 228
210 218 226
207 216 225
206 215 223
204 214 223
206 215 223
93 120 71
99 126 75
95 122 73
98 125 75
97 124 75
96 123 73
99 127 76
97 124 74
98 125 75
96 122 72
98 125 75
94 121 71
96 123 74
94 120 72
94 121 72
95 123 74
95 122 73
96 123 73
99 126 75
97 124 74
94 121 72
95 122 73
98 125 75
96 124 74
103 127 83
205 214 222
205 214 222
199 209 218
205 214 223
206 216 224
204 213 219
210 219 228
199 209 215
213 221 229
202 212 221
200 210 216
203 212 218
211 219 226
205 215 224
208 217 225
204 213 220
202 212 221
204 214 222
203 212 217
209 217 224
213 221 230
204 213 220
211 220 230
180 192 191
95 122 73
97 124 74
96 123 73
97 124 73
97 124 74
98 125 75
99 126 76
95 121 72
99 126 76
96 123 74
95 122 72
97 125 74
97 124 73
99 127 76
96 123 73
96 123 73
98 125 74
98 125 74
95 121 72
98 126 75
99 126 76
101 127 83
207 216 225
200 209 216
209 217 225
202 212 220
208 217 224
209 217 225
203 212 220
214 222 230
207 215 223
201 211 219
205 214 223
209 217 227
206 215 222
208 216 224
208 216 223
200 210 216
209 217 225
207 217 226
198 208 215
202 210 215
138 156 135
97 124 74
99 126 75
96 123 74
97 124 73
97 124 74
96 122 72
98 125 75
100 127 76
97 125 75
94 121 73
99 126 75
96 123 73
98 125 74
97 124 74
98 125 74
98 125 75
93 120 71
99 126 76
202 211 216
211 219 227
211 219 227
200 209 216
211 219 229
205 214 223
203 212 219
200 211 218
207 216 224
207 216 226
201 210 216
203 212 220
208 216 223
200 209 214
217 224 231
210 218 225
188 200 202
99 126 75
98 125 74
99 126 75
98 125 75
93 120 71
93 121 72
97 125 74
98 125 75
95 122 73
97 124 74
96 123 73
98 125 75
94 121 72
156 171 161
208 216 224
203 212 218
208 216 221
196 206 212
195 206 212
207 215 223
207 215 224
206 215 223
202 212 218
200 210 218
203 212 218
206 216 225
201 211 217
204 213 220
208 217 228
205 214 221
175 187 182
96 124 73
97 124 74
96 122 73
96 123 73
99 127 76
96 123 75
97 125 75
97 124 75
93 120 71
95 122 73
97 124 74
94 121 72
96 123 74
98 125 74
98 125 74
93 120 72
94 121 72
95 121 72
144 160 145
207 216 225
205 215 222
206 216 225
206 215 225
202 212 221
208 217 227
212 220 230
208 217 226
206 215 224
201 211 220
197 207 215
206 216 224
206 215 222
192 203 208
201 211 218
206 214 220
194 204 211
200 209 217
201 211 221
200 210 217
129 148 126
99 126 75
95 122 72
98 125 75
97 124 74
96 123 74
96 123 73
94 121 72
96 123 73
99 126 76
95 122 73
93 120 71
98 125 75
96 124 74
97 124 75
95 122 72
98 126 75
96 123 73
95 122 72
98 125 74
95 122 72
96 123 74
108 131 92
197 207 214
206 215 222
200 211 220
197 207 213
204 214 221
202 212 220
207 216 224
211 219 225
208 217 226
204 213 219
209 218 225
209 218 227
202 212 219
211 220 228
209 218 227
202 211 218
208 216 223
200 210 215
200 209 216
206 216 225
207 217 226
207 216 224
207 217 226
182 195 196
99 126 76
97 125 75
96 123 74
95 122 73
95 122 73
99 127 76
93 120 72
96 123 73
96 123 73
97 123 74
96 123 74
97 124 74
97 124 74
99 126 75
97 124 74
97 124 74
95 122 73
98 125 75
94 121 72
98 125 75
96 123 74
93 120 71
95 122 73
95 122 73
119 140 110
206 215 223
207 216 225
205 214 222
206 215 225
212 220 230
203 212 219
206 215 225
206 216 225
196 206 214
206 214 222
204 213 222
201 211 219
202 211 218
204 213 222
216 224 233
206 215 223
204 214 221
204 213 222
200 209 217
200 210 217
209 218 227
204 213 222
205 215 223
208 216 223
213 222 231
173 185 180
96 123 73
95 122 73
99 126 75
99 126 75
91 118 70
100 128 77
97 125 74
97 125 74
97 124 74
97 124 74
92 118 69
96 124 74
97 124 74
95 123 74
95 122 73
97 124 75
97 124 74
96 123 73
97 124 74
96 123 72
96 123 73
95 122 72
94 121 73
96 123 73
96 123 73
99 126 75
203 212 221
198 207 213
213 221 231
210 218 224
201 210 216
200 210 215
205 214 223
207 216 224
212 220 227
206 215 223
206 215 223
212 220 228
213 222 233
205 215 223
205 214 223
204 213 219
206 215 223
205 214 220
202 211 220
203 212 219
207 216 224
201 210 218
197 207 214
206 215 224
198 209 218
204 214 222
136 155 134
95 122 72
98 125 75
99 126 76
99 127 76
98 125 75
97 124 74
96 123 73
98 125 75
95 122 73
91 118 70
97 124 74
97 124 74
95 122 72
97 125 75
98 125 75
97 124 74
95 121 72
100 128 77
94 122 73
98 125 75
100 128 77
92 119 70
94 121 72
99 126 75
91 118 71
130 150 123
208 217 226
205 214 223
205 215 224
205 214 220
211 220 230
208 216 223
209 218 228
202 211 217
202 211 218
211 220 229
210 218 227
208 217 225
205 214 223
209 217 226
211 219 226
209 218 226
201 210 217
206 215 224
209 218 227
201 211 220
194 205 212
206 215 223
208 216 223
205 215 224
209 217 223
134 153 128
97 124 74
97 123 73
98 126 75
98 125 75
95 123 74
99 126 75
96 123 74
98 125 74
97 124 74
98 125 74
97 124 73
96 122 72
98 125 74
97 124 73
94 121 72
96 123 74
95 122 73
96 123 73
94 121 72
98 125 75
99 127 76
101 128 76
96 123 73
93 120 71
200 210 219
199 208 213
200 209 216
211 219 227
204 213 220
204 213 219
205 214 221
208 217 225
211 219 225
210 219 227
204 214 224
202 211 219
205 215 224
202 212 220
207 215 222
209 218 226
205 214 220
211 219 227
204 214 220
204 213 220
206 215 223
203 212 218
205 214 223
197 207 210
97 124 74
98 125 75
97 124 74
97 124 74
97 124 74
97 124 75
96 124 74
95 121 72
96 122 73
96 122 73
98 125 75
95 122 73
98 125 75
99 127 75
94 121 72
98 125 75
96 123 73
97 124 75
92 119 71
99 127 77
95 122 73
99 125 80
202 212 219
202 211 219
205 214 222
205 214 221
207 216 224
207 216 223
206 215 222
212 220 227
203 211 218
207 215 222
208 217 224
210 218 227
206 214 221
205 213 219
204 212 220
206 214 221
207 216 225
207 216 223
207 216 223
206 215 223
114 136 102
98 125 74
98 125 74
98 126 75
99 126 75
96 123 73
95 122 72
97 125 75
98 126 75
98 125 74
101 128 77
95 122 72
99 127 76
96 124 74
96 122 73
97 124 74
97 125 74
93 120 71
109 132 92
209 216 224
204 213 222
211 219 227
209 217 225
201 209 215
203 212 219
197 207 214
209 218 226
204 213 219
204 212 218
206 214 221
207 216 225
210 217 224
207 215 222
199 209 214
205 214 223
145 161 143
97 124 74
95 121 72
100 127 76
95 122 73
99 126 75
92 119 70
93 121 72
96 123 73
94 121 73
96 123 73
95 122 73
95 122 73
97 125 75
96 123 74
97 124 73
96 123 74
201 211 220
211 219 227
206 215 222
208 218 227
205 214 223
190 201 205
194 205 212
199 210 220
209 218 227
205 214 220
201 210 218
205 214 221
210 219 227
199 209 215
208 216 224
199 209 216
197 206 211
97 124 74
97 124 74
94 121 72
95 122 73
94 120 71
98 125 75
98 125 75
96 123 74
96 123 74
98 125 75
97 124 74
95 122 73
97 124 74
95 122 73
99 126 76
95 122 73
94 121 72
97 124 74
118 141 111
203 212 221
206 215 224
204 214 222
213 222 233
202 211 217
204 213 221
199 208 214
207 216 223
202 212 220
198 208 216
205 214 222
199 209 217
197 208 215
205 215 223
201 210 218
203 212 218
209 217 225
206 215 224
211 220 229
203 213 221
131 149 126
96 124 74
97 124 74
95 122 73
93 119 71
94 121 72
97 125 76
96 123 73
95 122 73
95 122 73
92 119 71
96 123 73
97 124 74
93 120 71
95 122 73
95 122 73
94 121 72
96 123 74
97 124 74
95 122 73
97 124 73
94 121 72
120 142 111
201 211 218
207 216 224
202 212 220
202 211 220
192 201 205
203 213 221
212 221 231
207 215 222
204 213 221
201 211 221
206 216 227
205 214 222
203 213 221
205 214 222
194 204 211
201 210 218
206 214 221
205 214 222
206 215 223
207 217 226
202 211 220
201 211 220
206 215 222
124 145 115
96 123 73
94 120 71
96 122 73
97 125 75
97 124 74
95 123 73
94 121 72
97 124 74
96 123 73
96 123 74
95 122 73
95 121 72
97 124 74
94 121 72
93 120 72
91 118 71
99 126 76
97 124 75
97 124 75
96 123 73
97 124 75
95 122 73
97 124 74
92 119 71
209 218 226
200 210 215
209 217 225
207 217 227
208 217 224
205 215 224
201 210 219
203 212 219
199 209 216
211 219 227
205 214 222
207 216 225
213 222 232
207 215 222
207 216 224
206 215 224
209 218 226
206 216 226
204 213 219
208 216 224
209 218 229
210 218 226
197 206 212
215 223 232
206 215 222
209 217 227
98 126 76
95 122 73
97 125 75
95 122 72
98 125 74
92 119 70
95 122 73
99 126 75
97 124 74
93 119 71
98 126 76
95 122 73
97 124 75
98 126 75
96 123 73
98 125 75
95 122 72
98 125 75
96 124 75
99 126 75
95 123 74
94 121 72
95 121 71
95 122 73
97 125 75
95 122 73
200 210 216
201 210 218
205 214 223
202 213 222
205 215 224
211 219 228
211 220 229
201 211 220
209 219 227
198 207 213
208 217 224
204 214 221
206 215 223
200 209 215
210 219 229
203 212 219
201 210 218
209 217 224
205 214 222
204 213 219
205 215 224
199 208 215
202 211 220
206 214 220
201 211 219
204 214 223
105 130 89
94 121 72
96 123 73
97 124 74
98 125 74
93 120 72
98 126 75
96 123 74
97 124 74
99 126 76
99 126 76
100 127 76
95 122 72
97 125 74
99 126 76
96 123 73
96 123 74
97 123 74
98 125 74
92 118 70
98 126 76
94 121 73
97 125 75
95 122 72
95 122 73
96 124 74
185 196 198
207 215 223
204 213 219
211 219 228
203 212 220
203 212 219
204 213 221
205 214 221
200 210 219
208 217 224
205 215 222
213 221 230
201 211 218
204 213 219
205 214 221
208 217 224
208 217 225
209 218 226
208 216 226
208 216 224
203 212 219
199 209 216
202 211 217
197 208 218
204 213 221
199 208 216
94 120 71
97 124 74
99 126 76
95 122 72
99 126 75
94 121 72
98 125 75
98 125 75
95 122 73
97 124 74
98 125 75
97 124 74
96 123 74
94 122 73
95 122 73
99 126 75
100 127 76
97 125 75
95 121 72
99 126 75
97 123 74
94 121 72
94 121 72
93 121 73
174 186 180
203 212 217
208 218 227
203 212 220
202 212 219
209 217 224
201 210 216
210 218 226
207 216 224
215 223 231
211 219 227
217 224 233
208 217 225
203 211 218
210 219 228
204 214 223
212 221 231
207 216 222
203 212 222
206 216 223
207 216 224
197 207 213
205 214 221
202 211 218
99 126 75
99 126 75
98 125 75
95 122 73
99 126 75
99 126 76
97 124 74
98 125 75
90 117 69
99 125 74
93 120 71
95 123 73
98 125 75
93 119 71
99 126 75
96 123 74
97 124 74
94 121 72
95 122 73
101 128 76
94 121 72
107 131 92
204 213 219
204 213 220
209 217 222
206 215 222
213 220 228
203 212 220
207 216 225
210 219 228
213 220 227
203 212 219
209 218 226
207 216 226
208 217 225
199 208 212
201 210 215
202 211 217
201 212 221
209 217 224
206 216 224
205 214 221
98 124 77
92 119 71
96 123 73
98 125 75
97 124 73
97 123 73
97 125 75
97 124 74
94 120 71
96 123 74
97 124 74
98 125 75
95 122 73
97 124 74
101 128 76
97 124 74
99 126 75
94 120 72
158 172 162
208 216 223
201 210 217
209 218 228
201 210 216
201 210 217
211 219 226
202 212 221
210 218 226
206 214 220
211 219 227
205 214 221
213 221 229
204 214 223
203 211 218
205 214 223
195 204 209
95 122 73
97 124 74
97 125 75
96 123 74
93 120 71
98 125 74
97 124 74
95 122 73
90 117 70
96 124 75
95 122 73
94 122 73
96 123 74
96 123 73
94 122 73
99 126 75
94 121 72
98 125 75
94 120 71
177 190 187
201 210 217
210 218 227
202 212 219
202 211 218
203 213 223
206 215 222
201 211 218
207 216 224
197 207 214
201 210 216
198 208 213
199 209 216
206 216 226
202 211 219
199 209 216
208 217 225
99 124 81
97 124 75
98 126 75
96 124 74
95 122 72
95 122 73
91 118 70
94 121 71
97 124 74
97 125 75
96 123 73
97 124 74
95 122 73
96 123 74
92 118 70
95 122 73
94 120 72
98 126 75
112 135 100
209 218 227
210 219 227
204 213 220
201 210 217
200 209 214
206 214 222
214 222 231
211 219 227
210 218 227
210 219 229
202 211 218
210 218 227
199 209 216
200 209 215
211 220 229
198 207 214
204 213 219
200 210 218
207 216 223
204 214 221
123 144 117
95 122 73
92 119 71
94 121 72
96 123 73
97 124 74
93 120 71
95 121 72
98 125 74
95 122 72
95 121 73
98 125 75
91 118 70
95 122 73
95 122 72
96 123 73
96 123 74
95 122 72
98 125 75
95 122 72
97 124 74
98 126 75
176 189 185
208 216 224
205 214 223
205 215 225
200 209 217
202 212 220
200 209 217
207 216 223
210 218 226
204 213 219
198 207 212
200 210 217
205 214 223
200 210 216
203 213 221
198 207 215
205 214 220
203 212 223
198 208 216
206 216 226
204 215 226
200 210 215
208 216 225
207 216 226
97 124 74
98 125 75
97 124 74
98 125 75
96 123 74
99 126 75
99 126 76
96 123 74
96 123 73
96 123 73
95 122 73
97 124 74
100 127 76
98 125 75
95 123 74
97 124 74
92 119 70
99 126 76
99 126 75
98 125 75
97 125 75
93 120 72
95 122 73
99 126 75
136 154 132
202 211 218
213 222 233
201 210 218
202 212 220
207 216 224
206 215 223
208 217 225
207 216 223
209 217 226
207 216 225
199 208 213
205 214 223
201 210 217
204 213 222
201 211 219
209 217 224
205 214 221
201 211 219
202 212 219
202 212 218
209 218 227
203 213 221
205 215 224
206 215 225
207 215 223
95 122 73
99 127 76
95 123 73
98 125 75
96 122 73
96 124 74
96 123 73
94 120 72
96 124 74
96 124 74
96 123 73
98 126 75
96 124 74
95 122 73
98 125 75
92 119 70
94 120 72
96 122 73
95 122 73
93 119 70
94 121 72
96 122 72
98 126 75
95 122 73
96 123 74
96 123 73
199 208 215
206 215 222
210 219 227
207 216 224
205 215 223
207 216 225
206 215 224
211 219 228
198 208 216
202 211 218
200 210 217
203 212 221
203 212 219
213 222 231
203 212 219
205 214 222
208 218 229
208 217 224
203 213 220
204 214 222
207 216 224
211 220 230
196 206 212
196 206 212
203 212 219
199 209 216
96 123 73
100 128 76
97 124 74
97 124 74
98 125 75
95 122 73
94 121 73
95 122 73
98 125 75
98 125 74
95 122 73
94 122 72
97 124 74
97 124 75
94 121 72
97 125 75
97 124 74
96 123 73
97 124 75
98 125 75
95 122 73
99 127 77
96 124 74
98 125 75
95 122 72
97 124 74
203 213 221
197 207 215
211 220 228
207 216 225
207 215 222
207 215 222
207 216 225
210 218 225
205 213 219
206 215 223
205 213 220
205 214 222
209 218 227
211 219 228
214 222 229
205 214 223
210 219 228
210 218 224
211 219 227
207 216 224
205 214 221
203 213 221
202 211 217
211 219 227
203 212 219
133 151 130
95 122 73
99 127 77
99 126 75
96 123 74
98 126 76
99 126 75
97 124 74
98 125 75
97 124 74
101 129 77
97 124 73
97 124 74
94 121 71
99 126 76
98 126 75
96 123 74
98 125 74
96 123 74
96 123 73
95 122 73
95 122 72
95 122 73
97 124 73
101 125 84
203 212 219
208 217 225
202 211 217
203 213 222
197 206 212
208 216 223
205 214 221
208 217 225
203 212 220
204 213 221
203 212 220
206 214 220
204 213 220
205 214 222
207 217 225
198 208 215
204 213 219
203 213 221
210 218 226
203 213 221
206 215 221
206 215 222
206 214 221
94 121 72
98 125 75
96 123 73
97 125 75
96 123 74
98 125 75
96 123 73
99 127 76
94 121 72
98 125 75
98 124 74
94 121 72
96 123 73
97 124 73
95 121 71
98 125 75
98 125 74
95 122 73
99 126 75
99 126 76
97 124 74
113 137 98
211 219 227
207 216 224
205 214 221
210 219 227
202 212 219
198 208 212
207 216 223
208 217 225
204 213 219
207 215 223
198 208 214
206 215 222
203 213 221
204 213 223
208 216 222
204 214 223
204 213 222
205 214 221
209 217 225
201 211 218
95 122 73
98 125 75
97 124 74
97 124 74
96 123 73
98 124 74
97 123 72
97 124 74
96 123 73
98 126 75
97 124 74
96 124 74
97 124 74
96 123 73
97 124 74
91 118 69
97 124 74
94 120 71
194 204 209
203 212 220
205 214 222
196 206 211
201 211 218
210 218 226
204 212 217
208 217 226
211 219 227
202 211 218
206 215 221
204 214 222
203 212 220
204 212 220
207 215 221
206 216 223
172 185 177
101 128 77
95 121 72
100 127 76
95 122 73
98 125 75
97 125 75
94 120 71
98 125 74
94 121 72
95 122 73
96 123 74
95 122 73
95 122 73
95 122 73
94 120 71
95 123 74
94 121 72
93 121 72
92 119 71
94 121 72
97 125 75
111 134 97
195 205 213
203 212 219
208 218 228
197 207 213
207 216 224
211 219 226
202 211 217
202 211 218
190 201 206
203 213 220
201 211 219
205 214 221
203 212 218
199 209 218
200 210 217
205 214 220
161 174 165
93 120 72
93 120 71
95 121 71
94 121 72
97 124 74
96 123 73
94 121 71
92 119 71
92 119 71
97 124 74
96 123 74
93 120 71
90 116 69
96 123 74
96 123 73
95 121 73
97 123 73
99 125 77
200 210 216
204 214 223
207 215 223
204 213 221
198 208 216
199 210 217
205 214 222
198 208 214
212 220 227
202 212 220
199 209 218
202 211 217
197 207 216
197 206 212
210 219 228
201 210 218
204 212 219
203 213 220
205 214 222
208 216 222
124 144 119
98 125 74
95 122 72
90 116 68
97 125 75
96 123 73
95 122 73
96 124 75
98 125 75
98 124 74
94 121 72
94 121 71
99 126 76
94 121 72
97 124 74
99 126 76
96 124 75
93 120 72
94 121 73
98 125 75
96 123 73
96 122 73
190 201 204
202 212 221
203 212 218
207 216 223
193 204 210
202 211 217
206 215 224
208 217 224
196 207 215
202 212 222
193 203 209
204 213 220
209 217 226
203 212 219
203 213 222
205 213 221
204 214 223
205 213 222
196 207 214
205 213 219
207 216 225
196 207 214
204 213 220
174 188 185
91 118 70
96 123 74
94 121 72
100 127 76
96 124 74
97 124 75
95 122 73
97 124 74
98 125 74
93 120 71
99 126 75
95 122 72
92 119 71
95 122 74
95 122 72
95 121 72
96 123 74
100 127 76
94 122 72
94 121 72
94 120 71
96 123 74
94 121 72
99 126 76
202 212 219
205 214 222
203 212 219
200 209 217
202 212 220
201 211 219
201 211 217
203 212 219
206 216 224
198 208 216
207 216 226
198 208 214
213 221 231
209 218 227
199 208 214
208 217 226
206 216 225
205 215 224
200 210 217
202 212 217
199 209 215
201 211 220
204 213 223
203 213 221
215 224 233
125 146 117
93 119 71
95 122 73
93 120 71
99 126 76
95 122 73
95 122 73
93 119 71
95 122 73
96 123 73
96 123 73
97 124 74
97 124 74
100 127 76
97 124 74
97 124 74
94 121 72
96 123 73
94 121 72
98 125 75
92 119 71
96 123 73
97 125 75
99 126 75
98 124 74
93 119 71
203 212 217
205 215 224
205 215 224
204 213 220
213 222 231
204 213 222
206 215 225
204 213 221
208 217 224
205 214 220
203 212 220
203 213 223
209 219 228
206 215 223
198 207 212
206 214 221
200 210 217
204 214 222
204 213 219
208 217 227
203 212 219
204 213 222
200 210 216
202 211 218
206 215 222
206 216 224
95 122 73
98 125 76
96 124 74
94 120 71
97 125 75
92 119 71
97 123 74
99 127 76
98 125 75
95 122 73
95 122 73
99 126 75
96 123 73
95 121 72
94 121 72
96 124 74
96 123 73
95 122 73
96 123 74
95 122 73
95 122 72
94 121 72
91 118 70
98 125 75
98 125 75
100 127 79
203 212 219
207 216 224
208 217 224
207 216 225
205 214 221
203 213 222
204 213 222
210 218 224
211 220 229
207 215 222
205 215 224
199 209 217
210 218 225
207 216 223
206 215 222
214 221 230
208 218 226
194 204 210
207 216 225
206 215 223
206 216 225
199 209 214
205 214 222
207 216 223
205 215 222
94 121 72
98 125 75
96 123 73
95 122 73
97 124 73
99 126 76
96 123 74
93 120 71
96 123 73
96 123 73
95 123 74
97 124 74
98 125 75
98 126 75
99 126 75
97 125 75
98 125 75
95 122 72
95 122 72
96 124 74
95 122 73
98 125 75
95 121 72
96 124 74
212 221 229
213 221 228
209 218 227
205 215 223
199 208 214
202 210 215
202 211 218
207 216 222
195 205 210
201 211 220
209 217 223
203 212 220
206 215 222
206 214 221
210 218 226
203 213 222
203 212 219
212 220 228
210 218 226
206 215 223
204 213 221
207 216 224
203 212 219
111 135 98
97 124 74
96 123 73
95 122 73
95 121 72
97 124 74
96 124 74
97 124 75
97 125 75
100 128 76
93 120 72
97 124 74
97 124 74
98 126 75
95 122 72
95 122 72
98 126 75
96 123 74
96 123 74
97 124 74
94 121 73
111 135 98
207 215 224
202 211 218
207 216 225
202 211 217
202 211 219
206 215 223
197 206 212
206 214 221
211 219 228
203 213 221
213 221 229
198 207 210
208 217 226
200 210 217
211 219 227
203 213 222
204 213 221
207 215 221
206 216 224
187 197 201
94 121 72
98 125 75
97 124 73
98 125 76
96 123 73
98 125 75
94 121 72
93 120 71
100 127 75
99 126 76
99 126 75
96 122 73
99 126 75
96 123 74
98 125 74
96 123 73
96 122 73
109 132 96
210 219 228
205 214 222
200 209 216
204 214 221
200 209 215
205 214 221
204 212 218
215 222 228
205 214 219
201 211 218
209 217 225
203 212 219
205 213 221
202 211 217
206 214 220
202 211 217
104 128 88
97 124 73
94 120 71
98 126 75
97 123 73
96 123 73
97 124 74
97 124 74
98 125 74
100 127 75
179 192 193
96 123 73
95 122 73
91 118 70
92 119 71
95 122 73
96 123 74
97 124 74
94 120 71
92 119 71
96 123 74
97 124 74
94 121 72
95 121 72
96 123 73
193 204 210
202 211 218
199 209 215
206 215 223
204 214 222
199 210 216
201 210 217
200 209 215
208 216 223
203 212 218
194 205 213
202 212 218
206 215 223
204 212 219
196 207 213
203 214 222
191 201 203
93 120 71
92 118 70
92 119 71
98 126 76
98 125 75
92 118 70
96 123 73
93 120 72
94 121 72
92 118 71
97 124 74
96 124 74
94 121 72
97 124 74
96 124 74
93 120 71
93 120 72
96 123 73
197 208 218
205 214 222
208 217 227
201 211 218
206 215 222
205 215 224
199 210 218
209 218 226
198 208 215
208 216 225
197 207 216
198 208 214
209 218 226
203 212 219
206 216 224
201 211 220
200 211 219
207 215 223
201 209 215
207 215 220
123 144 115
96 123 74
89 115 68
97 124 74
96 123 74
95 121 72
97 125 75
94 121 72
96 123 74
96 122 73
98 125 74
92 119 71
96 123 73
94 121 72
98 126 76
96 123 74
97 124 73
92 119 71
95 122 73
97 125 75
99 126 75
95 122 73
205 214 223
200 210 218
203 212 218
210 219 228
204 214 223
208 217 225
198 208 216
205 214 220
204 213 222
201 211 219
199 209 217
203 212 218
201 212 220
207 216 225
204 213 221
201 210 216
197 207 214
208 217 224
204 213 219
204 214 221
205 214 221
203 212 220
204 213 220
104 128 88
97 124 75
96 123 73
100 127 76
93 121 72
95 122 72
95 122 72
97 124 74
98 125 75
97 124 74
95 122 72
93 120 71
95 122 72
95 122 73
96 123 74
97 124 75
97 124 74
97 124 74
97 125 74
97 124 74
96 123 74
99 126 75
94 121 71
98 125 75
147 163 149
203 213 222
205 214 222
202 211 218
206 216 224
206 216 225
194 204 208
210 219 227
211 220 229
208 216 223
201 211 219
198 208 214
198 208 214
206 215 224
202 212 220
201 210 217
209 218 226
211 219 229
208 217 225
202 212 221
208 216 224
210 218 226
202 211 219
203 212 218
197 206 212
183 194 195
96 123 73
92 119 71
95 122 73
94 121 72
96 123 74
98 124 74
98 125 75
98 125 75
97 125 74
97 124 74
97 125 75
96 124 74
99 126 76
98 125 75
94 121 72
93 120 71
99 127 76
95 122 72
95 122 72
97 125 75
99 126 76
97 124 74
95 123 74
96 124 74
94 121 72
201 211 219
209 218 227
206 215 223
211 219 228
200 209 215
202 212 221
201 211 219
205 213 220
208 217 224
213 221 230
201 212 221
203 213 222
198 207 212
203 213 224
207 216 225
210 219 228
200 209 216
204 213 220
202 211 218
204 214 223
206 214 220
207 216 225
202 212 221
208 216 224
202 211 218
198 208 215
98 125 76
98 125 74
96 123 74
94 121 72
94 120 71
97 124 73
91 118 70
97 124 74
97 125 75
100 127 76
96 124 74
100 127 77
96 123 74
101 129 77
96 123 73
91 118 70
94 120 72
96 123 73
96 122 72
98 125 74
96 123 73
97 124 74
98 125 75
96 123 73
96 124 74
171 185 180
216 224 233
208 216 226
205 214 221
198 208 214
207 217 227
201 211 219
201 211 220
207 216 223
203 212 218
206 214 221
205 215 224
209 218 226
205 215 223
200 209 216
209 218 228
206 216 227
204 213 222
199 209 216
200 210 217
202 212 222
210 218 226
209 218 227
203 212 220
208 217 227
131 150 128
95 122 73
93 120 71
94 121 73
95 121 72
96 122 72
94 121 72
98 125 75
94 120 71
95 122 72
94 121 72
99 126 76
93 120 71
97 125 75
99 126 76
98 125 74
95 122 73
97 124 74
95 122 72
97 124 74
94 120 71
96 123 73
97 124 74
98 126 75
166 179 170
201 211 219
203 212 219
204 214 223
201 210 216
199 209 215
196 207 212
204 213 218
209 217 225
208 217 225
205 214 223
210 219 228
200 209 217
209 217 224
207 216 224
198 208 214
206 214 222
211 220 230
206 215 223
201 211 220
204 213 219
202 212 219
199 210 219
131 150 127
95 121 72
97 124 74
93 120 71
95 121 72
98 125 75
98 125 75
96 123 74
99 126 75
95 122 72
96 123 73
94 121 73
94 120 71
97 124 73
98 126 76
96 123 73
99 126 74
99 126 75
94 120 71
99 125 75
95 122 73
121 143 113
208 216 224
205 215 224
212 219 227
208 217 226
197 207 213
207 216 225
213 220 229
204 213 221
202 211 218
205 214 221
201 210 217
205 213 221
206 214 222
208 217 225
204 214 224
199 208 214
213 220 229
205 214 223
206 215 223
162 176 168
97 124 74
97 124 74
97 124 74
98 125 75
95 122 73
100 127 76
98 125 75
99 126 75
95 121 72
95 121 72
97 124 74
93 120 71
96 123 74
94 120 71
98 125 75
95 122 73
95 122 73
150 165 150
201 210 218
205 214 223
199 207 214
206 215 223
206 215 222
208 217 226
203 212 219
194 204 210
202 212 221
210 219 228
204 214 222
197 206 212
212 220 228
203 212 217
203 212 218
179 190 187
96 123 73
97 123 73
94 120 71
96 122 73
95 121 71
96 122 73
93 119 71
94 120 72
95 122 72
95 122 72
97 124 74
96 123 74
98 125 75
185 195 196
199 209 216
186 197 199
186 198 199
170 184 180
162 177 168
155 170 160
136 154 132
136 154 133
115 137 105
98 125 77
97 124 74
96 122 72
100 127 76
139 157 136
202 211 219
209 218 225
204 213 221
204 213 221
203 213 220
204 213 221
204 213 220
200 209 217
203 211 218
204 214 222
206 215 222
207 216 224
204 213 221
201 211 220
203 213 221
208 216 223
101 127 81
94 120 71
96 123 74
95 121 72
95 122 72
97 124 74
94 121 72
97 124 75
96 123 73
95 122 73
94 121 72
96 123 74
94 121 73
96 123 73
94 121 72
96 122 73
95 122 73
96 123 74
183 194 196
201 211 218
193 203 210
208 217 224
208 217 226
208 216 225
204 214 224
197 207 213
202 212 221
209 218 227
197 207 212
206 215 223
201 211 219
200 210 218
201 210 216
196 207 215
204 214 224
198 208 215
199 209 216
197 208 216
118 139 109
99 126 75
99 126 76
97 124 74
99 127 77
93 120 71
97 125 75
96 123 74
96 123 73
96 124 74
94 121 72
97 124 74
92 119 71
95 123 73
98 125 74
96 123 74
95 122 72
97 125 74
97 124 74
96 123 74
97 124 74
97 123 73
200 211 220
199 209 217
205 214 222
211 219 228
207 216 224
195 205 211
200 211 219
203 213 221
203 213 222
198 207 213
201 211 218
198 208 217
203 213 222
205 215 225
199 208 214
200 210 219
207 216 225
202 212 219
201 210 215
205 215 224
201 211 220
200 209 214
206 215 222
95 122 72
91 117 69
96 123 74
96 123 74
95 122 73
96 124 74
96 123 74
93 120 72
92 119 71
97 125 74
95 121 72
94 121 72
96 124 74
98 126 76
95 122 73
92 118 69
98 125 75
98 125 75
95 123 73
96 123 73
95 122 73
93 121 72
96 123 74
97 124 74
194 204 211
209 218 228
208 217 225
203 212 218
205 214 222
208 218 228
205 213 219
194 204 210
204 213 222
204 214 221
195 205 210
205 214 219
210 218 227
195 206 214
205 214 222
198 208 213
203 211 218
199 208 215
207 216 226
207 215 222
203 212 218
207 216 225
204 213 221
206 215 221
195 205 210
91 118 70
97 124 75
96 122 73
94 121 73
95 122 72
95 123 74
96 123 74
95 122 73
95 122 73
96 123 73
97 124 74
95 123 74
97 124 75
98 125 75
95 122 73
95 122 73
96 123 74
92 118 70
98 126 75
100 127 77
95 122 73
96 123 73
99 127 76
94 121 73
99 126 76
199 208 214
206 216 225
210 219 228
203 213 221
204 214 222
200 210 218
208 217 225
203 212 220
206 215 223
204 213 221
197 206 211
203 213 222
211 220 229
208 215 222
207 215 223
202 210 215
200 210 219
205 214 222
208 217 225
203 212 219
203 213 220
204 213 219
201 210 216
193 203 208
206 215 224
209 217 224
98 125 74
95 122 73
98 125 74
95 122 73
97 124 74
95 122 73
96 123 73
94 121 72
95 122 73
94 120 71
97 124 74
99 126 75
94 120 72
97 124 74
96 123 74
95 122 73
96 122 73
100 127 76
92 118 69
97 124 74
97 125 75
96 123 74
98 125 75
97 123 73
97 124 74
206 216 226
201 210 217
199 209 216
200 210 216
202 211 218
206 215 223
199 209 216
203 213 219
207 216 224
208 217 224
207 216 226
206 215 223
211 219 228
204 212 219
203 213 223
203 213 222
209 217 224
203 212 220
207 216 225
206 215 222
198 208 214
210 218 225
209 218 227
203 212 219
215 223 231
97 125 74
97 125 75
97 124 74
96 123 73
99 126 75
97 124 74
96 123 73
97 124 74
96 124 74
98 126 75
97 124 75
95 122 73
96 123 73
101 128 76
94 120 71
99 126 75
94 122 73
96 122 73
98 125 75
96 122 73
95 122 72
99 127 77
97 124 74
103 128 86
204 213 218
216 223 231
207 216 226
202 212 221
207 216 223
204 213 223
202 212 221
202 211 219
205 214 220
202 212 223
205 214 221
211 220 229
205 214 222
208 216 223
200 210 217
202 211 217
205 214 222
211 220 228
206 214 221
211 219 228
206 216 223
211 220 228
157 172 161
95 122 72
97 124 74
95 122 73
95 121 72
95 121 72
96 123 74
94 120 72
98 125 75
95 122 73
95 122 72
95 122 72
100 127 76
95 122 73
96 123 73
99 126 75
97 124 74
97 124 74
99 127 77
95 122 73
94 120 71
106 130 91
203 211 216
208 217 225
206 215 222
217 223 231
200 210 217
209 216 223
212 220 229
210 218 226
207 216 225
203 212 221
206 215 224
206 214 220
203 212 218
204 212 219
204 213 219
197 207 213
197 208 214
209 217 226
209 218 226
139 157 136
97 124 75
95 122 73
98 126 75
94 121 72
95 122 73
94 120 70
97 124 74
97 124 74
97 124 74
93 119 71
97 124 74
96 123 73
93 120 71
95 121 72
99 126 75
101 128 77
94 121 72
191 200 203
198 207 214
207 216 223
202 211 216
203 212 219
210 219 227
206 214 220
201 210 218
202 212 218
203 211 218
204 213 220
205 214 222
201 210 216
207 215 222
209 216 222
203 211 217
105 129 93
110 134 93
122 143 110
146 163 145
148 164 147
164 179 170
170 184 179
180 191 188
197 206 210
207 216 222
203 212 219
210 219 228
213 221 231
93 120 72
97 124 74
95 122 72
115 136 104
200 210 216
204 214 223
200 211 219
203 213 221
207 216 225
206 214 222
205 214 223
209 217 226
205 214 222
203 213 221
202 210 216
206 215 222
194 204 211
207 216 223
106 131 87
93 120 72
97 124 74
97 125 75
94 121 72
97 123 76
108 132 93
119 139 110
130 148 127
137 155 138
151 167 156
163 177 170
169 183 178
168 181 176
186 198 200
184 196 198
118 139 109
99 126 76
97 125 74
97 124 74
98 125 74
99 126 75
95 122 72
93 120 72
97 124 74
94 121 72
91 118 70
96 124 74
96 123 74
97 125 74
94 121 73
95 122 73
95 122 72
95 122 73
156 172 160
203 212 219
202 212 221
195 205 211
203 213 222
205 215 223
200 210 217
205 214 221
200 210 218
201 211 219
204 214 223
197 206 213
202 212 218
204 213 222
201 211 218
204 213 220
196 207 216
202 211 218
205 214 222
205 214 220
123 143 116
91 118 70
97 124 75
94 121 73
96 123 73
95 121 72
96 123 74
95 122 73
94 121 72
93 120 71
93 120 71
99 126 75
97 124 75
94 121 71
97 124 74
95 122 73
95 123 73
97 124 74
95 122 73
96 123 74
96 123 73
113 137 104
197 207 214
206 215 223
200 210 217
206 216 225
202 212 219
210 219 229
207 215 223
205 215 223
202 211 216
202 212 220
201 209 214
205 215 223
202 212 221
204 213 221
202 213 223
199 208 212
209 218 226
207 215 222
206 214 221
205 214 221
200 210 218
199 209 217
164 179 174
94 122 73
97 124 74
97 124 74
93 120 71
99 126 75
93 120 71
95 123 74
97 123 74
94 120 71
95 122 73
94 120 71
98 125 74
94 120 72
95 122 73
95 123 73
98 125 75
99 127 77
94 121 72
96 123 74
97 125 75
97 124 75
96 123 73
97 125 75
160 174 166
206 216 224
205 215 224
203 212 219
206 216 225
202 211 218
206 214 221
203 212 220
200 210 218
199 209 214
202 210 215
201 210 218
201 211 219
212 220 228
203 213 222
195 205 210
202 212 220
197 207 215
200 210 218
198 207 212
204 212 217
202 212 219
203 211 218
205 214 221
201 211 219
94 120 72
98 125 75
97 124 74
98 126 75
98 125 74
96 123 74
93 120 71
95 122 73
95 122 73
94 121 72
96 123 74
98 125 75
97 124 74
96 123 73
96 123 73
97 123 74
94 121 72
94 121 71
95 123 74
98 125 75
95 122 73
94 120 71
94 121 71
93 119 71
92 119 71
186 197 199
205 214 223
204 212 220
209 217 225
204 213 222
203 212 219
205 214 223
204 213 222
201 211 219
203 212 219
204 213 220
203 213 222
204 213 221
206 215 223
209 217 224
210 219 227
198 209 217
206 215 222
209 218 226
207 216 225
199 209 216
205 214 222
207 216 224
203 212 220
212 220 227
206 214 220
99 126 75
94 121 72
92 119 70
98 126 75
97 124 74
97 124 74
98 125 74
96 123 74
95 122 72
94 120 71
97 124 74
94 121 72
98 124 74
96 123 73
96 123 73
99 127 76
95 121 72
96 123 74
92 119 71
95 121 72
98 125 75
98 125 75
94 121 72
98 126 75
96 123 74
203 213 222
199 210 217
208 217 225
212 220 229
202 211 216
196 206 211
197 207 215
203 213 220
200 209 215
203 212 220
205 215 223
208 217 225
209 218 229
200 210 219
205 214 221
199 209 216
206 215 224
205 214 222
202 212 221
206 215 223
205 215 222
208 216 220
197 206 213
207 216 225
140 158 138
96 123 74
94 121 72
94 121 72
95 122 72
97 123 74
98 125 75
97 124 74
92 118 70
96 123 74
100 127 76
98 126 75
97 123 73
96 122 73
97 124 74
93 120 71
95 122 73
94 121 72
96 123 74
97 123 73
95 122 73
96 123 74
97 124 74
98 125 75
207 216 223
199 209 217
201 210 216
197 207 212
202 211 218
206 216 225
206 215 222
204 213 222
209 218 224
203 213 221
203 212 220
205 214 221
202 211 217
206 215 224
210 219 227
200 210 217
204 212 218
204 213 222
206 215 223
206 214 220
204 213 221
204 214 221
178 191 188
95 122 73
97 124 74
95 121 72
100 127 76
96 123 73
95 122 73
93 121 72
94 120 71
97 124 74
97 124 74
93 120 71
93 120 72
98 125 75
100 127 77
96 123 73
97 123 73
98 124 74
94 121 72
99 126 75
93 119 71
122 142 113
205 213 221
203 211 216
205 214 219
201 211 218
200 210 218
203 212 219
210 219 226
208 217 226
196 206 213
203 212 219
208 217 224
208 217 225
208 217 226
208 216 224
208 217 225
206 215 222
204 213 221
200 210 216
212 221 230
112 135 100
98 125 75
95 122 73
96 123 73
97 124 73
95 122 73
99 126 76
96 122 73
93 119 71
96 123 73
92 118 70
90 117 70
99 126 76
103 128 85
106 130 91
131 151 124
124 144 121
132 150 130
163 178 168
161 175 165
160 174 165
148 165 150
138 155 133
118 140 107
103 129 84
94 121 72
96 123 73
99 126 75
94 121 72
96 123 74
98 125 75
95 122 72
96 123 74
144 161 142
202 211 217
207 215 223
205 213 219
207 216 224
205 215 224
208 217 226
204 213 220
209 218 227
211 219 226
200 209 215
205 213 219
204 213 221
207 214 220
162 176 169
95 123 73
94 121 72
96 123 73
91 118 71
92 118 71
167 180 177
205 214 223
206 215 225
208 217 224
203 212 219
210 219 228
208 217 224
206 215 224
200 210 216
202 211 218
196 206 213
202 211 218
199 210 217
204 213 220
174 187 184
94 120 72
93 119 70
93 121 72
96 124 74
93 120 72
94 121 72
94 121 72
96 124 74
91 117 69
94 120 71
95 122 73
95 121 72
98 125 75
93 120 70
94 121 72
120 141 111
206 215 222
199 210 217
203 212 218
203 212 218
197 207 216
201 211 218
199 209 215
202 211 219
205 214 220
197 207 213
203 213 221
204 213 220
205 214 224
196 206 211
190 201 205
199 209 215
184 196 196
184 194 193
142 159 143
159 174 162
169 183 179
156 171 163
178 190 186
174 187 184
179 191 190
189 199 200
196 206 210
188 199 202
197 207 215
195 205 213
194 204 212
210 219 228
193 204 210
204 214 222
195 206 212
201 211 218
206 215 223
124 143 120
96 123 73
97 124 74
95 121 72
95 122 72
97 124 75
96 123 74
98 125 75
96 123 73
95 122 73
94 121 72
97 124 74
96 123 73
93 120 72
96 123 74
95 122 73
95 122 73
96 124 75
99 126 75
94 121 71
96 123 73
148 164 150
206 215 222
203 213 222
201 211 220
203 213 222
197 207 213
206 215 222
201 211 219
207 216 224
210 219 228
198 207 213
206 215 224
199 208 215
207 216 225
206 215 222
207 216 223
197 207 215
201 210 218
204 213 220
201 210 216
196 206 213
203 212 219
210 218 227
100 126 77
95 122 73
91 118 70
95 122 73
99 126 75
96 123 74
93 120 71
95 122 73
96 123 73
92 119 71
93 120 71
91 117 70
96 123 74
96 123 73
95 122 73
97 124 74
97 124 74
96 123 73
96 123 73
96 123 74
94 121 72
95 122 73
97 124 75
90 116 69
205 214 220
201 211 219
200 209 217
204 213 221
203 213 222
198 208 216
205 214 219
210 218 226
204 214 222
201 211 220
202 211 218
209 218 227
203 212 219
208 216 223
208 217 225
202 211 219
201 211 217
200 210 217
211 219 227
205 214 222
196 207 215
207 216 223
203 213 220
197 206 210
145 161 146
94 121 72
96 123 74
98 124 74
95 122 73
95 122 72
95 121 72
97 124 73
98 125 75
97 124 73
97 124 74
96 123 72
97 124 74
95 122 73
95 122 72
93 120 71
98 126 76
95 122 73
95 122 73
96 123 73
96 123 74
96 123 73
99 126 76
92 119 71
99 126 76
168 182 178
205 214 221
206 216 225
200 209 215
200 210 220
199 208 214
205 213 220
210 218 227
203 213 222
209 217 225
208 216 223
205 214 222
202 211 216
205 215 223
207 217 228
206 215 224
204 213 221
199 209 219
210 219 228
205 214 221
203 212 218
210 219 228
202 211 217
209 217 225
208 217 225
167 181 173
102 129 77
94 120 71
97 124 74
96 123 74
93 119 71
96 124 75
98 125 75
95 121 71
94 121 72
94 121 72
93 120 71
94 121 71
92 119 71
95 122 73
94 120 72
96 124 74
96 123 72
94 121 71
91 118 70
95 122 73
93 120 71
95 122 72
94 120 72
96 123 74
160 174 165
210 217 224
207 216 226
203 213 221
205 214 221
204 213 220
211 219 228
207 216 224
204 213 220
206 215 222
205 214 221
202 211 219
204 213 221
208 216 223
210 218 227
199 209 216
212 220 228
193 204 210
206 214 220
204 214 221
200 210 218
200 210 218
204 213 220
204 213 221
199 209 218
94 121 72
93 120 71
96 122 73
96 122 73
100 127 76
98 124 74
96 123 73
96 123 74
96 123 74
97 124 74
97 124 73
94 121 72
95 122 73
95 122 73
98 125 74
98 126 75
96 123 73
95 121 72
95 122 73
98 125 75
96 123 73
95 122 72
99 126 75
184 195 193
204 213 220
207 217 226
211 219 225
209 218 228
209 217 226
203 213 222
212 220 229
210 219 227
205 214 221
205 213 220
196 206 212
203 212 220
203 213 223
206 214 222
205 215 223
206 214 221
204 213 220
205 214 221
195 206 214
202 210 215
201 211 218
196 206 209
95 122 72
98 125 75
99 126 75
99 126 75
96 123 73
94 121 73
94 122 73
96 123 73
96 123 73
97 125 75
95 122 73
97 124 75
96 122 72
96 123 73
98 125 74
101 128 77
95 121 72
98 125 75
97 124 74
93 119 71
135 153 130
202 211 217
207 216 225
205 214 224
203 212 219
205 214 221
204 212 218
186 196 196
179 191 190
190 201 203
174 186 183
167 181 173
164 177 170
168 182 174
158 173 161
133 152 128
125 145 115
128 148 118
110 132 94
108 132 93
201 210 216
201 210 216
202 210 217
207 216 226
204 212 217
212 220 229
209 217 224
202 211 217
201 210 218
201 209 215
205 214 222
207 214 220
209 217 226
204 213 220
201 210 216
202 211 216
209 217 226
164 178 172
97 125 74
97 123 74
96 123 73
92 118 70
96 122 73
97 124 74
94 120 72
96 122 73
95 122 72
93 120 71
95 122 73
94 120 70
96 122 73
99 126 75
93 120 71
193 203 207
194 204 211
203 212 219
202 211 219
200 210 218
202 210 216
200 209 216
206 215 220
196 206 213
205 213 219
199 209 216
202 210 217
204 212 220
198 207 211
97 124 73
94 121 71
90 117 70
90 117 70
92 119 71
89 116 69
91 117 69
89 116 68
94 120 77
192 203 209
196 206 215
192 203 209
196 206 213
204 214 224
208 217 225
202 210 216
206 214 222
205 214 221
203 212 219
198 208 215
198 209 216
195 205 209
205 215 224
104 129 87
93 120 71
95 121 72
92 119 71
98 125 75
95 122 73
91 117 70
92 119 71
93 120 72
95 122 73
97 124 74
93 120 71
94 121 72
97 124 74
94 121 73
97 123 78
202 212 218
207 216 225
206 215 223
201 211 218
194 204 208
201 209 213
198 208 216
203 212 220
206 215 223
204 214 223
202 212 221
204 212 218
206 214 221
207 216 224
207 216 223
206 214 221
205 214 222
187 198 200
95 122 72
97 124 74
98 125 75
94 121 72
98 126 75
94 120 71
99 126 76
95 122 72
94 121 72
98 125 75
92 118 70
96 123 74
96 124 74
98 125 75
92 119 71
95 122 73
96 123 74
91 118 70
94 121 72
183 195 197
206 213 220
204 214 222
201 212 221
203 213 219
207 215 222
196 206 213
206 215 224
204 213 222
202 212 220
194 205 209
194 204 208
188 199 202
185 196 199
179 191 193
181 193 191
165 179 173
169 183 178
171 184 177
165 179 175
149 165 152
176 189 187
161 176 172
174 186 184
174 187 186
181 193 194
194 204 206
194 204 208
190 201 205
193 203 206
198 208 214
206 215 223
206 215 223
205 213 219
209 218 227
198 208 216
204 213 219
207 215 223
204 213 221
206 215 221
209 218 227
207 215 223
201 211 219
198 208 215
95 122 73
96 123 73
94 121 72
97 124 74
100 127 76
92 119 70
94 121 71
97 124 74
91 117 70
92 118 70
95 122 73
92 118 69
92 118 70
88 115 69
96 123 73
93 120 72
93 120 72
95 122 73
93 120 71
98 125 74
99 125 75
96 123 73
94 121 72
180 192 191
206 215 225
204 213 221
202 211 217
199 209 216
201 212 221
198 208 215
203 213 221
201 211 219
202 211 218
206 215 224
194 204 210
202 210 216
207 216 224
200 209 216
206 214 222
206 214 221
210 220 230
203 212 221
207 216 224
206 215 224
202 212 220
202 211 218
203 212 221
200 210 218
97 124 74
94 121 71
98 125 75
95 122 73
97 124 75
95 121 72
94 121 72
94 121 72
96 123 74
96 123 73
95 122 72
100 127 75
96 123 73
97 124 75
97 125 75
97 124 74
96 123 74
97 124 74
97 124 74
95 122 72
96 123 73
95 121 72
96 123 74
94 121 72
153 169 155
197 207 212
204 214 224
203 213 221
197 207 214
200 209 216
201 210 216
197 207 213
202 211 218
205 214 222
202 211 218
198 208 215
202 211 217
198 208 214
200 210 219
198 208 213
208 216 224
202 211 217
202 211 219
207 216 225
209 217 224
211 219 228
195 205 211
200 211 219
199 208 214
143 161 143
97 124 74
96 123 73
93 119 70
94 121 72
96 123 74
99 126 76
95 121 72
96 123 73
98 125 74
99 126 75
93 120 71
96 123 73
95 122 73
95 122 72
91 118 70
94 120 71
96 123 73
96 124 74
93 119 71
97 124 74
97 124 74
94 121 73
95 122 72
97 124 74
198 208 214
204 213 219
208 217 227
204 212 219
206 215 224
203 212 221
202 212 221
212 220 228
209 218 225
205 213 220
206 215 222
200 211 219
205 214 222
206 215 222
208 216 224
205 214 223
201 211 220
207 216 224
197 207 213
214 223 231
203 212 220
206 216 226
205 214 220
211 218 225
139 157 137
97 124 74
95 122 73
94 120 71
95 122 72
94 120 71
95 122 73
97 124 74
93 119 71
94 121 72
97 124 74
99 126 75
96 122 73
96 123 73
96 122 72
94 120 71
96 122 72
98 125 75
96 124 74
99 127 76
99 126 75
99 126 75
96 123 74
128 147 123
207 215 222
204 214 220
204 213 221
203 212 220
209 217 226
206 215 224
206 215 223
197 207 211
200 209 213
201 211 216
177 190 189
193 205 210
183 195 194
180 192 191
181 193 191
173 185 182
166 180 173
161 176 169
146 162 149
155 170 159
150 166 149
153 167 156
178 190 187
176 189 186
184 195 195
185 197 199
192 202 204
202 210 215
198 208 213
202 211 219
204 214 222
206 215 223
196 206 213
201 210 216
212 220 228
203 212 218
200 210 217
206 215 223
206 215 223
202 211 218
207 215 223
200 209 215
174 187 184
96 123 73
95 122 73
98 125 75
95 122 73
94 120 71
98 125 75
94 121 72
96 123 73
96 122 73
95 122 74
94 121 72
93 119 71
99 127 76
96 123 74
96 124 74
97 125 75
95 122 73
91 117 69
111 133 99
196 206 211
203 212 219
198 207 213
199 209 216
211 219 228
206 215 221
202 212 219
204 213 220
210 218 225
208 216 223
200 209 217
197 207 212
205 214 220
200 210 218
204 213 221
205 213 219
190 201 204
114 136 100
95 121 72
96 123 73
94 120 72
97 123 73
96 123 72
96 123 72
97 123 74
95 121 72
99 126 75
96 123 73
95 122 73
98 125 74
97 124 73
95 122 72
132 151 125
205 213 218
208 216 223
213 221 229
196 206 213
204 213 219
199 209 218
202 211 220
197 207 212
207 216 225
205 215 222
192 204 212
196 208 219
198 209 219
137 155 139
87 113 66
87 114 67
86 113 67
91 118 70
91 118 70
91 118 70
85 112 65
91 118 70
85 111 65
88 115 68
89 116 69
138 157 143
187 197 202
188 199 205
196 206 214
186 197 201
197 207 214
197 207 215
192 203 212
190 201 207
188 200 205
192 203 211
192 203 211
197 208 218
191 203 212
160 175 166
91 119 71
91 117 70
91 118 70
93 120 72
94 121 73
94 120 71
94 121 72
92 119 70
95 122 73
97 124 74
97 124 74
98 125 75
94 121 72
95 123 74
96 122 72
174 186 184
207 216 224
202 212 219
203 212 218
209 218 227
203 212 220
206 214 222
197 206 213
203 211 217
201 210 218
205 215 224
209 217 224
205 214 223
200 210 217
200 210 218
204 213 221
195 205 209
205 214 223
91 117 69
97 123 73
94 121 72
95 121 72
96 123 73
97 124 74
97 125 75
91 118 69
95 122 72
93 120 71
94 121 72
92 119 71
95 122 73
96 123 73
92 119 70
97 124 74
96 123 73
98 125 74
95 122 72
176 188 188
200 209 216
205 214 222
205 215 223
207 216 226
202 212 220
203 212 220
205 214 222
203 212 219
202 212 219
205 214 220
195 205 212
196 206 212
201 210 215
208 217 224
206 215 225
203 212 220
203 212 219
199 210 220
197 207 213
207 216 222
108 131 94
97 124 74
95 122 73
92 118 70
97 125 75
94 122 73
96 122 72
95 123 73
93 120 71
97 124 75
94 121 73
94 121 71
96 123 72
94 121 72
91 117 68
95 122 73
94 120 72
92 119 71
98 125 75
95 122 73
93 119 70
92 119 71
155 170 159
208 217 226
203 212 218
199 209 217
207 216 225
200 210 217
200 210 219
206 215 223
209 218 226
200 210 217
198 207 214
204 214 222
204 214 222
210 218 226
205 214 221
198 208 216
203 212 220
204 213 221
206 215 222
203 213 221
209 218 227
198 208 214
199 209 215
198 208 213
111 135 96
112 134 102
122 142 114
121 142 113
121 142 117
133 152 129
130 151 128
128 148 125
124 145 116
132 151 127
128 146 124
134 153 133
132 150 128
135 153 134
144 163 143
150 166 152
159 173 163
148 164 150
136 154 136
151 167 156
154 169 157
164 178 169
157 172 158
158 173 163
164 177 168
133 151 131
155 170 158
152 167 153
162 177 168
143 160 141
147 164 147
141 159 137
136 154 138
135 152 134
145 161 146
144 161 142
148 164 151
127 147 124
134 153 131
139 157 137
152 167 154
139 156 138
142 160 142
140 157 140
139 157 139
137 155 139
144 162 145
128 147 125
151 166 154
177 190 191
181 192 191
181 193 191
178 190 190
184 195 197
174 188 186
183 195 195
187 197 196
170 184 181
175 187 185
187 198 197
189 199 202
180 191 189
189 201 204
177 190 187
177 189 189
179 192 194
190 201 202
180 192 190
178 191 190
166 180 172
174 187 186
168 181 176
170 185 183
147 164 150
133 152 131
144 160 144
145 162 145
151 168 157
143 160 143
153 169 157
149 167 155
141 157 140
149 165 151
149 165 151
148 164 151
158 173 162
145 161 146
146 163 149
144 162 148
154 170 159
165 179 171
156 171 160
158 173 164
162 176 170
169 182 172
158 173 163
163 177 168
171 183 177
156 171 156
142 159 142
136 154 135
155 170 157
151 167 152
139 156 135
152 169 155
134 153 131
137 155 134
128 146 123
129 149 122
128 147 119
120 141 115
126 146 121
122 142 112
127 147 118
103 128 85
108 132 94
107 132 90
102 127 86
101 127 83
97 124 74
97 124 74
97 124 74
207 216 224
206 215 222
205 215 224
200 210 215
204 213 221
207 216 223
198 208 216
207 216 224
198 208 213
205 214 222
202 211 218
204 212 217
205 214 221
203 213 221
204 213 219
203 212 220
193 204 210
202 211 216
208 216 223
199 209 214
200 209 216
208 216 224
209 218 227
98 126 76
96 122 73
96 123 74
94 121 72
95 121 72
94 121 72
95 122 73
95 121 72
96 123 73
97 124 74
95 122 73
96 123 73
95 122 73
94 121 72
92 119 70
94 121 72
96 123 73
96 123 73
96 123 74
95 122 73
97 123 74
98 125 74
199 208 216
202 212 221
204 213 221
194 204 211
197 206 214
208 216 223
199 209 217
199 209 216
204 213 220
207 216 224
208 216 222
206 216 225
201 211 218
206 215 226
208 217 225
210 219 228
206 216 225
201 210 219
211 219 228
204 212 218
155 169 159
95 122 72
96 123 73
97 124 74
100 128 76
95 123 73
97 124 74
97 123 74
98 125 75
93 119 70
93 120 72
99 127 76
95 122 72
94 121 72
97 124 74
97 124 74
92 118 70
97 124 74
94 121 71
163 178 168
207 215 223
203 211 216
200 210 219
196 206 211
209 218 227
208 217 226
201 211 220
206 215 223
200 209 217
202 212 221
199 208 214
205 214 223
206 214 221
202 211 219
210 219 227
206 215 220
188 198 201
89 115 68
97 125 74
98 125 74
98 126 75
92 119 71
93 119 70
95 123 74
95 122 73
95 122 72
99 126 75
92 119 71
93 120 72
86 112 67
86 113 66
87 113 67
188 200 205
196 206 215
178 191 195
173 186 190
189 200 206
186 198 205
180 194 200
186 198 203
188 200 207
193 203 209
181 192 194
195 206 215
184 196 201
162 176 174
85 111 64
87 113 67
87 114 67
80 105 61
88 115 67
93 120 72
87 114 68
94 121 73
90 118 71
92 119 72
93 121 72
91 118 71
90 118 71
93 121 72
93 120 72
173 186 186
194 205 214
193 205 211
190 202 211
193 206 215
193 205 214
193 204 213
188 201 210
197 207 217
196 208 219
196 208 217
196 208 217
187 200 206
187 199 207
91 117 72
91 118 71
89 115 68
90 117 70
90 117 70
91 118 71
88 115 68
92 119 72
91 118 71
96 123 74
92 119 72
89 116 69
91 118 70
89 116 69
90 116 69
121 141 116
190 201 207
193 205 213
199 211 222
194 205 213
203 213 223
192 203 210
201 211 222
204 213 220
202 212 222
194 204 209
199 209 217
198 208 214
194 204 210
196 207 216
198 208 213
202 212 220
205 215 226
109 133 99
98 125 74
95 122 73
95 122 73
95 122 72
96 123 74
93 119 71
96 123 73
96 123 74
97 124 74
94 121 72
95 122 72
93 120 72
93 120 71
97 124 74
95 122 73
96 123 73
98 126 76
99 126 75
167 181 176
205 215 224
195 206 212
201 210 217
206 215 223
206 216 226
197 207 214
199 209 217
204 213 218
207 216 224
203 212 219
208 216 224
201 211 220
205 214 223
209 218 225
196 206 213
199 209 215
205 215 223
206 215 224
206 215 223
202 211 219
100 126 80
98 125 74
97 124 74
96 123 74
94 120 72
99 126 75
95 122 73
94 121 72
91 118 70
90 117 69
97 124 74
96 123 74
94 121 72
99 127 76
97 124 74
94 121 72
98 125 74
90 117 69
95 122 73
93 120 72
95 122 72
98 125 75
208 216 223
194 204 212
197 207 213
207 216 226
196 207 215
200 208 213
197 207 214
205 214 222
210 219 228
196 208 216
197 206 212
204 214 222
202 211 217
205 214 223
212 221 232
207 216 225
206 215 224
202 212 221
203 212 220
208 217 225
201 210 217
208 217 226
195 205 209
111 133 101
93 120 71
92 119 70
94 121 72
95 122 73
97 124 74
96 122 72
96 123 74
93 120 72
95 122 72
95 122 73
98 126 75
97 124 73
97 124 74
97 124 74
98 126 75
97 124 74
97 124 74
94 120 71
92 119 71
96 123 73
94 120 71
91 118 69
98 124 75
191 201 204
203 213 219
201 210 217
199 209 218
203 211 218
202 212 220
199 209 216
203 213 222
202 211 218
206 214 222
199 210 219
207 216 224
207 216 225
204 213 221
198 209 216
200 209 215
197 208 214
205 215 225
204 214 220
197 207 214
206 214 222
203 211 218
203 213 220
196 207 214
193 203 206
94 121 72
98 125 75
95 121 72
94 121 72
92 119 70
93 120 72
97 124 74
96 123 73
97 124 74
95 122 73
93 120 72
96 123 73
96 122 72
95 121 72
98 125 75
97 124 74
99 127 76
96 123 73
91 118 70
92 118 70
95 122 73
97 125 74
94 121 72
97 125 75
200 210 216
196 206 212
206 215 224
202 210 215
208 216 224
204 214 222
206 215 222
202 210 217
201 211 219
212 220 229
203 213 222
202 212 221
202 211 217
200 209 215
203 213 220
198 207 213
199 209 215
203 212 221
208 217 225
205 213 221
203 213 220
207 216 226
201 211 218
203 213 221
169 183 177
95 122 73
97 124 74
95 122 73
95 122 72
92 119 70
96 123 74
94 121 72
98 125 74
94 121 72
93 120 71
94 120 71
98 125 75
98 125 75
94 121 71
96 123 73
94 121 73
92 119 71
94 121 72
97 124 73
96 123 73
93 120 71
94 121 72
97 123 73
194 204 211
201 210 217
199 209 217
213 221 230
206 215 221
205 214 223
202 212 220
201 210 218
207 216 224
200 210 217
207 216 224
201 211 217
204 213 222
206 215 224
205 214 220
202 212 219
202 212 221
203 213 221
208 216 224
200 209 216
189 200 203
207 216 224
207 216 225
115 138 104
97 123 74
99 127 76
95 122 73
99 126 75
96 123 73
97 124 73
96 124 74
97 123 73
101 128 77
97 124 73
94 121 72
99 126 75
98 125 74
93 120 71
94 120 72
95 121 72
98 125 75
99 126 76
95 121 72
95 122 73
97 124 74
199 208 215
202 212 222
213 221 232
199 209 216
201 211 219
207 215 221
208 217 226
211 219 228
203 212 217
209 218 227
200 210 215
204 213 221
209 217 226
209 217 226
200 209 217
200 210 218
201 210 216
202 212 220
206 215 224
207 215 221
157 172 163
92 119 71
93 120 71
95 121 72
96 123 74
97 124 74
94 120 71
96 123 73
99 125 75
95 121 72
99 126 75
93 120 71
98 125 74
95 123 73
96 122 73
95 122 73
96 123 73
96 123 73
100 127 76
187 198 199
191 201 208
196 206 212
191 202 208
203 213 220
198 207 213
195 206 213
196 207 215
199 209 218
198 208 217
192 204 215
189 201 208
195 206 214
180 193 201
197 209 219
193 204 213
187 200 208
121 142 121
90 117 70
90 117 70
87 114 68
89 117 71
89 116 70
92 119 72
89 116 70
90 117 70
86 112 67
87 114 67
90 117 69
90 116 69
91 119 71
82 108 62
120 138 118
199 209 219
200 210 220
201 212 222
201 212 223
190 201 209
183 196 204
182 195 200
185 198 206
185 196 201
188 200 205
181 194 198
187 199 204
179 192 195
100 125 90
91 119 73
89 116 69
90 117 71
92 120 72
90 117 71
88 115 68
106 130 92
90 118 70
91 117 70
89 116 69
88 114 67
86 112 65
85 112 66
86 113 67
89 115 68
88 114 68
90 117 70
104 127 95
195 206 216
195 206 214
193 205 215
186 198 206
184 196 201
190 201 208
187 200 207
193 204 210
186 198 205
189 200 205
185 197 202
189 201 206
189 201 207
144 161 149
93 120 73
94 121 73
90 118 71
90 117 70
91 118 71
93 120 72
93 120 72
93 120 71
91 118 70
86 112 66
88 114 67
87 113 67
88 115 68
89 115 67
85 111 66
200 211 222
199 209 218
192 202 208
201 212 223
200 211 221
203 213 224
193 205 214
190 202 211
189 201 208
188 200 205
189 200 207
191 202 209
190 202 209
189 201 208
186 199 205
194 205 214
188 200 205
142 158 146
92 120 72
91 118 71
88 115 69
92 119 71
93 121 72
89 115 68
90 116 69
96 123 73
91 119 71
92 119 70
92 119 71
90 116 69
94 122 73
92 119 71
93 120 72
92 119 71
91 117 70
93 120 72
169 182 176
194 204 210
194 205 211
200 209 215
206 215 223
198 208 214
205 214 222
191 202 209
203 212 217
197 207 213
200 209 215
197 207 215
198 208 215
200 210 218
201 211 219
202 212 221
204 214 224
200 210 219
203 212 218
202 212 219
195 205 212
94 121 73
91 117 69
93 120 72
96 123 75
97 123 73
91 118 70
99 127 76
96 124 74
97 124 74
94 121 72
93 120 72
96 123 74
98 125 75
96 123 74
93 120 71
94 121 72
95 123 73
95 122 73
99 127 76
93 119 71
91 117 69
95 121 75
198 209 217
202 212 220
205 215 223
196 207 214
201 210 216
207 216 225
201 210 218
197 207 213
202 212 220
202 211 218
208 217 226
206 215 224
212 220 229
207 215 222
211 219 228
203 212 219
195 205 211
209 218 228
200 209 215
205 213 221
203 212 219
204 213 220
201 210 216
94 120 72
93 120 72
95 123 74
93 120 72
94 121 72
93 119 70
94 120 72
95 122 72
89 116 70
94 121 73
94 121 72
96 123 73
94 121 73
96 124 75
95 122 73
97 123 73
95 122 73
93 120 72
94 121 72
94 121 72
92 119 70
96 123 73
95 122 73
163 176 167
206 215 224
204 213 220
199 209 217
205 214 222
209 218 225
203 212 220
204 213 221
202 212 221
204 213 219
201 211 219
201 211 219
208 217 225
203 212 219
197 206 211
197 207 213
202 212 218
203 212 221
196 206 211
204 212 218
199 210 218
198 208 215
205 214 221
208 216 223
197 207 214
93 120 70
96 123 73
96 122 73
96 123 73
99 126 75
93 120 72
94 122 74
98 125 75
96 124 74
98 125 75
96 123 74
95 122 73
95 122 73
96 123 74
95 122 73
97 124 74
97 123 73
97 123 74
93 119 71
95 122 73
91 118 70
97 124 74
98 125 75
95 122 73
201 210 217
203 212 219
201 211 217
206 213 219
204 214 225
208 217 225
199 208 214
205 214 221
199 208 215
203 212 218
202 210 217
203 213 221
204 213 221
200 210 218
204 213 220
203 212 219
208 216 223
207 216 225
199 209 217
204 213 220
207 215 221
205 214 222
199 209 219
208 217 225
92 119 71
95 122 73
98 125 75
97 123 73
98 125 74
96 123 74
98 126 75
95 122 72
92 119 71
99 126 75
97 124 74
91 118 71
95 122 73
94 121 72
95 123 74
93 119 70
94 121 72
96 123 74
94 120 72
96 123 74
97 123 73
97 124 74
94 120 71
97 125 74
205 213 220
204 213 221
206 216 224
197 206 212
201 210 216
205 214 221
205 213 220
205 215 224
207 216 224
205 214 221
204 213 219
210 219 229
203 213 220
204 213 220
195 206 211
204 213 222
194 204 212
206 215 224
201 210 216
203 212 219
210 218 227
205 213 221
174 186 182
98 125 75
95 121 72
93 120 71
96 123 73
96 123 74
96 122 72
99 126 75
98 125 74
98 125 75
96 123 73
94 121 72
96 122 73
94 120 71
98 125 75
94 121 72
94 121 72
95 122 73
96 123 73
98 125 75
97 124 74
96 122 73
201 210 214
197 207 214
209 217 225
204 213 221
207 215 223
202 212 220
208 217 226
208 216 222
204 213 222
204 213 220
204 213 220
192 202 206
200 210 217
207 216 226
200 210 217
199 209 219
194 205 214
189 200 205
199 210 217
202 212 220
132 150 129
90 117 70
93 120 72
88 115 68
85 111 66
90 116 69
89 116 68
91 118 71
87 114 68
90 117 69
86 112 67
87 113 67
93 120 73
90 117 71
89 116 70
91 118 71
89 116 70
97 125 76
89 116 70
182 195 201
182 195 199
187 198 202
187 198 204
187 199 206
188 200 208
188 200 207
191 202 209
192 204 213
193 204 213
192 204 213
199 210 220
197 208 218
189 200 207
205 215 225
192 204 215
194 206 215
90 115 74
90 117 69
90 117 70
87 113 67
85 111 66
86 113 67
91 118 71
93 121 73
87 114 68
90 117 70
91 119 73
91 118 71
91 118 71
92 119 72
92 120 73
180 192 195
181 193 196
183 194 197
180 193 197
178 191 194
191 203 210
179 192 198
190 202 210
190 202 209
183 196 202
192 204 213
193 205 214
184 197 205
135 153 140
86 112 65
83 110 65
89 116 68
90 117 70
84 110 64
84 110 64
86 112 66
87 113 67
200 210 218
170 183 184
96 124 76
91 119 72
90 117 71
93 121 73
94 121 73
91 118 70
91 118 71
94 121 73
90 117 70
90 117 71
92 119 72
131 150 134
190 201 207
200 211 220
197 207 217
201 212 222
194 205 213
193 205 214
197 209 220
193 206 217
197 208 216
196 207 218
192 204 212
199 210 221
200 211 220
99 122 91
88 115 69
88 114 67
89 116 68
92 119 70
91 118 70
92 118 70
86 113 66
90 117 70
83 109 65
90 117 70
93 120 71
90 117 70
91 118 71
91 119 72
166 180 175
185 197 201
190 201 206
194 204 211
191 202 210
188 199 202
190 201 207
189 200 207
199 210 220
194 205 211
194 205 210
197 208 218
191 203 211
194 205 213
197 208 217
192 204 213
194 206 215
176 189 192
88 114 67
90 116 69
87 113 66
89 116 69
86 112 66
88 115 69
87 113 67
85 111 65
89 116 68
87 113 66
91 118 70
85 112 66
88 115 68
86 114 68
93 120 72
89 116 69
89 116 70
92 119 71
158 173 169
185 197 201
189 201 207
189 202 208
191 202 207
190 201 209
188 200 205
184 197 202
181 194 197
184 195 199
189 201 206
188 200 208
192 202 208
186 198 203
201 212 222
192 204 212
196 206 213
191 202 210
196 206 212
193 205 215
190 202 210
94 120 72
92 119 71
91 118 71
90 117 69
92 119 71
87 114 67
91 118 70
88 115 68
88 115 68
91 118 71
87 114 67
88 116 70
89 115 68
90 117 71
91 119 71
92 119 70
92 119 71
90 117 70
91 118 71
90 117 70
95 122 73
144 161 147
193 203 208
200 209 216
197 207 211
206 215 223
200 210 217
201 210 216
201 211 221
197 207 214
197 207 214
201 210 216
198 209 219
197 207 215
205 213 219
204 213 221
204 213 221
206 216 225
208 216 225
203 213 221
204 213 219
202 211 216
201 211 220
202 213 222
116 139 103
92 119 71
95 121 72
98 126 76
94 122 73
95 122 73
98 126 75
99 127 76
93 120 71
94 120 72
96 123 73
98 125 75
94 120 71
96 124 74
98 125 75
97 124 74
97 123 74
95 122 73
98 125 75
94 121 72
95 121 72
91 117 70
96 123 74
94 121 71
196 207 212
208 217 226
206 216 225
203 213 221
204 213 220
202 211 219
203 212 220
194 204 209
195 207 216
204 212 217
207 216 224
200 210 216
200 210 218
208 216 224
208 217 227
197 207 213
201 210 217
196 207 215
203 213 220
205 214 220
204 213 217
209 217 224
197 207 214
201 210 218
98 125 74
93 121 72
94 121 72
95 122 72
97 124 74
94 121 72
96 123 73
96 123 73
95 122 73
97 124 74
95 122 73
98 126 75
96 123 72
92 119 70
94 121 72
94 121 72
94 120 71
92 119 71
98 125 75
95 121 72
95 121 73
96 123 73
98 125 75
100 127 76
208 216 225
206 214 220
189 201 208
202 211 217
204 214 224
205 214 222
204 213 220
204 213 221
203 212 220
207 215 223
204 213 222
201 210 218
194 205 214
198 208 216
201 211 219
194 205 213
208 217 225
203 212 220
198 208 216
198 208 217
204 213 219
197 207 214
201 210 217
206 215 224
95 121 72
98 125 74
97 124 74
91 117 68
97 124 74
96 124 75
96 123 73
99 125 74
96 123 73
97 125 75
98 125 74
96 123 74
98 125 74
95 122 72
97 124 75
96 123 74
96 124 74
98 125 75
94 121 72
93 120 70
97 124 74
97 123 72
95 122 72
192 202 205
202 212 219
204 213 220
207 215 223
202 211 219
199 209 217
197 206 212
198 207 215
201 211 218
187 199 204
202 211 216
185 196 202
194 205 212
192 203 212
189 200 206
196 206 211
185 196 201
200 209 215
197 207 215
196 207 214
194 205 211
183 195 199
195 206 215
91 118 71
91 118 71
89 116 69
93 119 71
87 113 67
90 117 69
91 118 71
87 114 67
90 117 69
90 117 70
88 115 68
89 115 68
87 113 68
86 113 66
87 114 67
87 113 67
86 112 67
84 110 66
89 115 68
90 117 70
91 118 70
174 188 191
184 196 202
185 197 201
175 188 189
190 201 207
192 203 210
193 204 210
188 200 205
187 198 204
185 197 203
185 197 201
186 198 203
186 199 205
188 200 206
190 202 207
184 197 204
194 205 211
190 202 210
187 199 207
196 206 213
118 138 116
87 114 68
90 117 70
90 116 69
85 111 65
89 115 67
92 118 70
90 117 69
87 113 67
82 108 64
87 114 68
85 112 65
83 109 65
89 115 68
89 116 70
89 116 69
89 116 69
87 114 67
102 126 89
192 203 210
185 197 201
185 198 205
190 200 205
192 203 209
193 203 208
190 202 208
183 195 198
186 197 201
191 202 207
186 198 204
181 193 196
194 205 211
190 201 208
185 197 202
182 193 196
150 165 154
89 115 69
93 121 73
89 116 69
89 116 69
92 120 72
86 112 66
86 112 66
93 120 72
88 114 67
87 114 67
82 108 63
85 111 65
81 107 62
85 111 65
157 172 170
197 208 219
198 209 220
193 203 212
189 202 211
195 206 216
196 207 216
191 203 210
194 206 215
182 194 202
185 198 205
187 198 203
189 200 206
159 173 167
88 115 69
88 114 68
90 118 71
90 118 71
94 122 74
92 119 71
86 113 67
90 117 71
93 120 73
89 115 69
160 175 167
160 175 172
187 198 201
167 181 181
89 116 69
89 116 68
92 119 71
89 116 68
90 117 69
88 114 67
92 118 70
92 119 71
90 116 69
90 117 70
94 121 73
172 185 186
187 199 206
197 208 215
188 200 206
192 203 210
179 192 195
191 202 209
193 205 212
183 195 200
183 195 199
188 200 205
196 206 212
193 204 209
165 179 176
91 118 71
90 117 70
90 116 70
87 114 69
87 113 67
92 120 72
87 113 67
91 118 70
86 112 67
92 118 70
83 109 63
92 119 71
85 111 65
90 117 70
109 131 103
190 202 211
203 213 223
190 202 211
188 200 207
193 204 213
186 198 206
193 204 215
186 199 207
189 201 209
193 204 212
197 208 217
193 204 212
181 194 202
197 208 216
195 205 211
188 199 205
178 190 193
93 120 72
91 118 71
89 116 69
92 120 73
93 120 72
89 117 70
92 119 72
93 120 73
97 125 75
94 121 73
92 119 72
92 120 72
91 119 72
88 115 69
90 118 71
92 119 71
94 122 74
92 119 72
132 150 133
198 208 217
192 204 213
194 205 211
182 194 198
195 205 211
187 199 204
190 201 208
198 208 215
190 201 206
198 209 218
187 199 205
194 205 213
196 207 217
203 213 223
198 209 220
191 203 210
193 204 213
198 208 217
196 207 217
179 192 195
91 118 70
88 115 68
90 117 69
87 113 66
87 113 66
89 116 69
87 114 68
92 119 71
88 115 68
89 116 69
88 114 67
93 121 72
92 119 71
88 115 68
89 117 70
88 115 68
92 119 71
89 116 69
89 116 69
91 118 70
91 118 70
186 198 203
185 196 202
190 202 208
188 199 203
196 206 212
187 198 204
190 202 207
192 203 209
187 199 205
182 195 202
184 195 196
183 196 202
192 204 211
184 196 200
192 204 210
192 203 209
176 189 192
188 200 206
195 206 216
180 192 197
178 190 192
190 201 206
182 194 198
95 122 73
92 120 72
91 118 71
92 119 72
88 114 68
90 116 69
90 116 69
91 119 72
84 111 66
91 118 70
90 116 69
88 114 68
91 119 71
91 118 71
88 115 69
89 116 69
91 117 70
93 120 72
89 116 70
89 116 69
86 112 67
93 120 71
91 117 70
194 205 213
186 198 205
193 205 215
197 208 216
195 206 214
195 207 217
191 204 214
198 208 217
195 207 216
201 212 223
202 213 222
202 212 222
198 209 218
196 206 214
193 203 209
189 201 208
186 198 207
193 204 212
194 206 217
201 212 222
193 204 211
195 206 217
194 205 213
198 208 218
88 115 69
92 119 70
90 117 69
87 114 68
90 116 69
88 115 68
93 120 71
91 118 70
90 117 70
88 114 68
89 116 68
87 114 67
91 118 70
91 118 70
90 117 70
87 114 67
90 117 69
88 115 68
89 116 69
92 119 70
89 115 68
90 116 69
88 114 68
89 116 69
194 206 214
187 199 207
207 217 227
195 206 216
193 205 215
196 207 216
194 205 213
198 209 218
195 206 213
190 202 210
189 200 208
189 200 209
197 207 214
189 201 209
188 199 204
190 201 206
183 195 202
190 202 210
195 206 214
190 202 211
187 199 207
191 202 210
200 211 220
164 179 175
91 118 71
90 118 71
90 117 70
90 117 69
89 116 69
90 118 71
94 121 73
91 117 69
92 119 72
90 117 70
91 118 70
88 115 69
91 118 71
88 115 69
93 121 72
91 118 71
91 118 70
91 118 71
90 117 70
95 122 74
90 117 71
90 117 71
111 133 101
183 195 198
187 199 204
185 196 199
188 200 206
189 200 204
194 204 209
186 198 204
186 198 203
183 195 200
184 197 201
196 207 214
192 204 210
191 202 207
186 197 202
188 200 206
193 204 211
196 207 216
187 200 207
196 206 213
191 202 211
188 200 207
197 207 215
86 114 68
88 114 67
85 111 66
89 116 68
93 120 72
89 116 68
89 115 69
88 115 68
90 117 70
90 117 69
87 113 67
87 114 68
88 115 68
85 111 65
88 115 67
87 113 67
87 113 67
87 113 66
86 113 67
88 114 68
88 114 68
190 201 210
199 210 220
194 206 217
198 209 220
192 204 214
198 209 219
196 207 214
192 203 210
195 206 213
195 206 213
194 204 212
197 207 214
188 200 207
188 201 210
188 200 207
193 204 212
192 203 209
184 196 199
183 195 201
193 204 212
99 124 82
90 118 71
91 118 70
85 111 66
92 119 72
89 116 70
91 118 71
94 121 72
94 121 73
92 118 71
90 118 72
91 119 72
90 117 70
92 119 72
90 116 70
91 117 70
90 117 70
90 117 70
157 172 168
189 200 206
184 197 204
192 203 211
198 209 220
197 208 216
193 204 212
192 203 212
193 204 213
193 204 215
196 207 218
194 205 215
197 208 219
189 202 214
193 205 215
197 209 219
192 204 214
94 117 85
89 115 68
84 110 64
83 109 63
86 112 66
87 113 67
83 110 65
86 113 67
92 119 72
90 117 70
83 110 66
90 118 71
90 117 71
87 114 69
94 120 78
184 197 202
189 200 205
195 206 213
187 198 204
182 194 200
177 189 192
192 202 205
183 195 200
186 197 202
183 194 198
183 196 201
188 199 203
179 192 197
86 111 71
88 115 69
87 114 67
83 109 64
85 111 65
89 116 68
82 109 64
83 109 63
89 115 68
99 122 89
118 139 115
155 171 164
88 115 69
90 116 69
87 113 67
91 118 70
85 111 66
167 180 178
197 208 217
195 206 213
194 205 213
186 198 204
184 196 202
162 177 174
161 176 171
146 164 153
131 149 133
121 140 119
112 134 108
197 209 220
193 204 213
202 212 222
198 208 216
200 210 219
190 202 212
197 208 217
195 205 212
191 203 210
183 196 205
192 203 209
184 197 202
181 194 200
112 136 102
89 116 70
90 117 70
93 120 72
91 118 71
89 116 70
89 116 70
89 115 69
89 116 70
93 120 73
91 118 71
93 121 74
88 115 69
96 123 75
92 119 72
183 195 196
187 198 203
190 202 208
187 199 206
192 203 209
192 203 211
192 203 209
196 207 215
199 210 220
194 205 214
192 204 214
194 206 215
190 201 208
201 211 220
195 207 214
194 205 214
191 203 211
101 122 91
90 116 69
86 113 66
89 116 69
95 122 73
89 115 68
85 112 66
86 113 67
90 117 69
90 116 69
85 112 66
87 113 67
86 113 67
90 117 70
89 116 69
87 113 66
84 111 65
90 116 69
132 150 136
191 203 212
200 210 220
193 203 210
193 204 211
188 200 208
187 199 205
189 201 208
191 203 211
186 198 203
189 201 208
190 201 206
194 205 212
186 198 203
191 203 209
192 203 209
182 194 197
181 193 197
182 195 199
179 191 195
159 174 170
93 120 73
89 116 69
91 118 72
96 124 75
93 120 73
89 116 70
92 120 73
91 118 71
91 118 71
96 123 74
92 119 71
96 124 75
90 117 70
93 120 73
89 116 70
93 120 72
92 119 72
90 117 70
92 120 72
92 119 71
89 116 69
188 200 204
193 204 209
189 200 206
188 200 206
200 210 217
188 200 208
184 196 203
187 200 208
187 198 204
192 203 211
191 202 209
202 212 221
198 209 218
188 202 214
194 205 211
190 202 209
185 198 206
189 201 208
195 207 217
190 202 211
192 203 210
194 207 217
100 123 86
88 115 69
90 117 69
85 112 66
87 113 67
91 118 70
93 120 72
90 117 69
85 111 65
86 112 66
87 114 68
91 118 71
89 116 69
85 111 65
85 111 65
90 117 69
89 116 68
89 116 68
87 114 67
84 110 64
92 119 71
92 119 71
90 116 69
171 185 183
190 201 209
194 206 216
190 202 210
193 205 215
192 203 211
193 205 214
201 211 222
198 209 220
189 202 210
201 212 222
197 209 219
183 196 204
196 207 217
197 209 220
196 207 215
198 209 217
191 203 213
196 207 218
198 208 216
203 214 225
188 201 209
199 210 220
194 206 214
91 119 71
87 114 67
92 119 71
90 117 70
89 115 68
88 115 68
95 123 74
87 113 67
90 116 69
90 117 69
88 115 68
87 113 67
85 112 66
87 114 67
90 117 68
86 113 67
87 113 67
89 115 68
91 118 71
91 118 70
88 115 68
87 113 67
87 113 66
105 129 99
194 206 216
197 208 218
192 203 211
195 207 218
203 212 221
192 204 212
192 204 214
203 213 224
202 212 222
190 202 210
188 200 208
197 208 218
198 209 220
195 206 214
195 206 214
196 208 217
189 201 211
189 201 209
197 209 220
197 207 218
194 205 215
197 208 218
200 210 220
87 113 69
88 115 67
90 116 68
92 119 71
87 113 66
81 106 61
90 117 69
88 115 68
89 116 69
93 120 71
88 114 67
90 117 70
87 114 67
89 115 68
88 115 68
91 117 70
90 118 71
86 113 66
91 118 70
87 114 67
87 113 67
92 120 72
88 115 68
194 204 211
188 200 206
193 204 213
190 201 208
190 203 211
194 204 212
190 202 211
188 200 209
195 206 215
193 205 215
193 204 211
193 204 212
193 204 212
191 202 211
186 198 205
181 194 199
200 210 220
184 197 202
188 199 206
172 184 185
187 199 205
186 198 202
110 133 103
93 120 72
92 120 72
94 122 74
92 119 72
92 119 72
95 122 73
89 116 69
92 119 72
93 120 73
92 118 71
94 121 73
89 116 70
90 117 70
91 119 71
93 121 74
92 120 73
91 118 71
89 116 70
91 118 71
88 115 69
160 175 170
184 195 198
181 194 197
190 202 207
182 194 198
187 199 204
190 201 209
187 200 208
188 200 208
191 203 211
191 202 210
193 204 215
194 205 214
191 203 213
188 200 210
187 200 209
183 195 202
194 206 215
197 208 217
194 206 216
89 117 69
89 116 69
85 111 64
85 111 65
87 114 67
88 115 68
83 110 64
85 111 65
86 112 66
85 112 65
88 115 67
86 112 66
81 106 61
86 112 66
88 114 68
84 110 65
88 115 68
94 121 71
183 194 198
190 202 211
194 205 213
188 200 208
186 198 204
192 203 210
184 197 204
184 196 201
184 196 201
178 190 191
179 192 197
175 188 190
191 202 207
188 198 201
190 201 206
184 196 202
163 178 176
93 120 72
86 113 68
90 117 70
94 121 73
94 122 74
92 120 72
90 117 70
90 118 71
90 118 72
91 119 73
90 118 72
89 116 69
89 116 68
93 120 72
164 178 175
187 199 208
185 198 205
188 200 207
190 203 213
193 206 217
185 198 208
192 204 213
191 203 213
187 199 208
198 208 216
177 189 190
165 180 180
160 174 171
152 166 158
164 177 175
153 169 165
173 185 186
181 193 199
185 197 204
191 203 211
180 191 194
195 206 215
192 203 213
123 141 124
88 115 67
81 106 61
91 118 70
92 119 71
87 113 67
89 115 68
86 113 66
87 114 68
91 118 70
164 178 177
191 203 213
196 208 220
192 203 210
193 203 211
199 210 220
193 205 216
195 206 216
194 205 214
191 202 210
188 200 208
154 169 162
91 117 70
92 119 71
86 113 67
92 119 71
92 119 72
92 119 71
108 131 96
122 143 122
133 151 133
146 163 152
158 174 169
166 180 180
152 167 160
93 118 80
86 112 66
85 111 65
89 116 69
90 117 70
87 114 67
87 113 67
86 112 66
86 113 67
86 112 66
92 119 71
84 111 65
89 117 70
90 117 70
125 144 127
180 193 198
182 195 202
189 200 206
181 193 198
183 194 198
193 205 212
185 196 199
180 193 197
186 198 201
188 200 205
184 196 201
178 190 193
195 205 211
195 205 211
196 206 214
191 202 207
115 136 112
94 121 73
92 119 72
91 118 72
91 118 71
95 123 74
95 122 74
94 121 73
92 119 71
89 116 69
91 118 71
89 116 69
92 119 72
89 115 68
91 119 71
90 117 70
86 113 68
86 113 67
119 140 114
189 201 208
190 202 210
190 203 212
193 204 212
194 206 217
195 206 216
189 202 210
194 206 215
192 203 212
192 204 212
192 204 213
191 203 211
198 209 217
196 207 217
194 205 216
193 204 212
196 207 215
204 215 227
196 207 216
146 163 155
91 118 70
91 118 71
87 113 67
92 120 72
89 116 69
85 111 66
92 118 70
87 114 67
89 116 69
92 120 72
83 109 64
89 116 68
92 119 71
87 113 66
88 115 68
87 114 67
93 121 72
92 118 70
85 111 66
90 116 69
121 140 121
197 208 217
194 204 212
200 210 220
186 199 207
188 200 207
195 207 215
191 202 208
184 196 201
187 199 205
191 203 210
199 209 216
189 200 206
192 203 210
195 205 212
189 200 208
185 197 201
191 202 208
194 205 212
188 200 208
186 198 204
186 197 200
182 194 200
93 120 73
93 120 72
95 123 74
94 122 74
92 119 71
92 120 72
91 118 71
93 120 72
91 119 72
93 121 74
92 120 72
94 121 73
89 116 69
90 117 71
92 119 72
92 119 72
87 114 68
92 119 71
94 121 73
92 119 71
96 123 74
92 120 73
99 125 88
177 189 190
180 192 197
192 203 210
184 196 200
183 195 197
191 202 207
193 203 211
188 200 204
186 198 205
187 199 204
190 201 207
191 202 208
189 202 210
186 198 202
183 195 199
193 203 208
186 198 203
188 199 204
181 193 198
183 195 201
188 200 207
176 190 193
186 197 201
95 123 75
91 119 72
93 120 73
94 122 73
91 118 71
93 121 73
93 121 74
93 121 73
92 119 73
95 123 74
93 120 72
96 123 74
96 123 75
86 113 68
94 121 73
92 119 71
95 123 74
93 121 73
93 121 73
88 115 70
92 119 72
93 120 72
91 119 72
131 151 129
188 199 204
188 199 203
186 197 200
186 197 202
191 203 209
197 207 213
194 205 213
189 201 209
178 190 195
189 200 205
192 202 208
179 192 194
192 202 206
197 207 214
183 196 200
183 195 200
180 192 193
185 196 198
187 198 203
179 192 196
184 197 203
189 201 207
191 202 207
90 117 71
94 122 75
92 120 73
90 116 70
90 117 69
90 117 70
93 119 72
92 119 73
93 121 73
90 117 71
95 123 74
92 120 73
92 119 72
89 115 69
90 117 71
90 117 70
89 116 69
96 123 74
93 120 72
91 118 70
92 119 72
91 117 70
126 146 125
195 205 211
192 203 209
191 203 210
183 196 203
194 205 212
189 201 206
194 205 213
194 206 217
186 199 208
196 207 215
180 193 200
186 199 205
195 206 215
189 201 208
196 208 218
194 206 218
191 203 212
196 207 215
192 204 214
193 204 213
198 210 221
171 185 183
89 116 69
87 114 67
83 109 64
85 111 65
85 111 65
88 114 67
89 115 69
90 116 69
89 115 69
90 117 70
85 111 64
88 115 67
90 117 69
80 106 61
83 108 63
85 112 65
86 112 65
83 109 64
87 113 66
90 117 70
165 179 175
191 203 211
190 201 210
193 205 213
186 198 205
194 205 214
191 203 212
199 210 220
190 201 209
192 204 214
187 200 210
189 202 212
192 204 212
191 203 211
200 210 221
190 202 211
186 198 203
192 203 207
187 199 205
185 197 203
92 119 71
92 119 73
94 122 74
90 117 70
93 121 73
94 122 75
88 115 69
93 120 72
92 119 72
93 120 72
92 119 71
87 114 68
90 117 71
91 118 72
89 117 71
88 115 69
86 113 68
98 124 79
183 195 199
176 189 192
176 189 192
172 186 188
187 199 204
182 194 197
183 195 199
175 189 193
185 198 203
192 203 210
187 198 202
178 190 195
198 208 217
182 195 202
198 209 218
184 196 202
114 134 108
90 117 70
82 108 63
83 109 64
84 110 64
84 110 64
85 111 65
88 115 68
85 110 64
86 113 66
83 109 67
104 127 95
126 144 122
127 145 129
136 154 141
147 164 153
128 149 130
102 127 88
97 123 83
87 114 69
93 120 72
90 117 70
88 115 69
88 114 68
85 112 67
86 112 66
87 114 67
132 150 139
194 205 214
196 207 216
187 199 209
192 205 216
187 199 205
192 205 218
191 204 215
192 204 214
196 207 217
180 194 203
141 158 150
87 113 66
87 114 67
85 111 64
82 109 64
89 116 69
88 114 68
93 120 73
90 117 70
91 118 70
89 116 70
90 117 70
91 118 71
94 121 75
179 191 193
182 194 197
187 199 204
183 195 202
192 203 208
188 201 211
196 207 217
186 198 204
199 209 218
191 202 211
186 198 207
128 147 130
93 120 72
89 116 69
83 109 64
89 116 69
92 119 71
87 113 67
83 109 65
87 114 67
85 111 65
86 112 66
84 110 65
86 112 66
176 190 192
193 204 210
194 204 212
194 205 211
191 203 211
196 208 218
179 192 196
189 201 207
188 200 204
184 196 200
181 194 198
156 171 166
169 182 182
155 170 165
143 160 148
155 170 167
163 177 174
176 189 192
187 199 207
188 200 207
183 196 203
199 210 220
194 206 216
191 204 214
195 206 213
200 210 220
185 198 207
195 206 215
192 203 213
190 202 211
191 203 213
174 188 191
88 114 68
88 115 68
91 117 70
90 118 71
93 120 72
90 117 70
88 115 69
88 115 68
93 120 72
91 118 71
94 121 73
91 118 71
86 113 68
91 118 71
91 118 71
91 118 71
93 121 73
110 133 100
184 196 199
186 197 202
193 205 213
188 199 205
189 201 208
182 195 198
189 200 206
192 203 210
186 198 205
192 203 210
186 197 202
188 199 203
179 192 199
190 202 208
183 195 201
178 190 192
174 187 187
187 199 205
195 205 210
123 143 120
93 121 73
88 114 68
90 116 70
94 122 74
88 115 69
93 121 72
93 120 73
87 113 66
86 113 68
91 119 71
93 120 72
92 119 71
87 115 68
93 119 71
87 113 67
88 115 68
91 119 71
90 117 69
89 116 70
86 112 66
174 187 190
192 203 210
187 199 206
196 207 216
190 202 210
194 205 215
200 211 221
188 201 210
195 206 215
200 211 222
194 204 213
195 207 216
196 207 216
195 205 214
194 207 216
195 207 216
200 211 222
198 209 221
197 208 218
201 212 222
190 203 211
190 201 209
98 122 84
92 119 71
88 115 68
84 110 64
87 114 67
87 114 68
91 119 71
88 115 69
90 116 69
89 115 68
91 117 69
92 119 71
84 111 65
90 117 69
90 116 68
90 116 69
88 115 68
90 118 71
87 113 66
83 109 63
90 117 69
86 112 66
88 115 69
190 202 213
187 199 208
195 206 217
201 212 224
198 208 218
194 206 216
193 205 215
192 203 211
198 209 217
203 214 226
201 211 221
193 204 214
197 207 216
199 210 219
189 201 210
198 209 218
191 203 213
197 208 219
194 206 216
193 204 212
198 208 217
197 209 219
197 208 217
85 112 65
89 115 68
89 116 69
86 113 66
89 115 68
88 114 67
86 113 66
84 110 64
85 112 66
89 115 68
82 108 63
89 116 69
90 117 70
87 114 68
89 115 68
87 113 67
88 114 67
88 115 68
93 120 72
88 114 68
88 115 68
89 115 68
89 115 68
166 180 180
199 210 219
202 212 222
194 205 216
190 201 208
197 207 213
198 209 220
188 200 209
197 208 217
191 203 213
198 209 219
194 206 217
195 208 219
194 206 218
193 204 214
196 208 219
202 213 223
194 207 220
199 210 220
200 211 223
195 206 215
198 208 216
190 202 210
160 175 175
90 117 69
82 108 62
89 116 69
87 113 66
91 117 70
85 112 66
85 111 65
85 111 65
90 116 69
88 115 68
89 116 69
86 112 65
89 116 68
88 114 67
89 116 69
84 111 66
91 117 70
87 113 67
87 113 67
85 111 65
90 116 68
91 118 70
191 203 213
192 203 212
194 205 215
195 206 216
199 210 221
203 213 222
189 202 212
196 207 217
185 198 206
196 207 218
190 202 209
192 203 209
199 209 217
202 211 219
190 201 207
187 199 204
190 202 211
199 210 220
172 186 191
189 201 208
198 209 218
190 201 206
90 117 70
87 114 68
90 117 69
91 117 70
92 118 70
87 113 68
90 117 70
93 121 73
90 117 70
94 122 74
92 119 71
94 122 74
90 117 70
91 118 71
94 122 74
90 118 71
95 122 73
94 121 73
88 116 70
88 115 69
137 154 138
179 193 197
193 204 211
182 193 196
183 196 202
186 197 202
186 197 201
177 190 191
189 200 206
172 185 187
175 188 190
184 196 200
185 197 202
191 201 207
187 200 209
184 196 200
188 199 205
194 204 210
191 202 210
177 190 192
92 119 72
96 123 74
93 121 73
90 117 71
89 116 70
91 119 71
90 117 70
84 111 66
87 113 67
89 115 68
90 117 69
87 113 67
87 114 68
87 113 67
86 112 66
84 111 65
84 110 65
122 141 120
186 199 210
192 204 214
183 195 203
196 208 218
199 210 221
193 204 211
193 204 214
188 201 210
183 195 201
184 197 202
172 187 189
163 178 176
134 151 138
136 154 143
137 154 139
140 157 142
183 195 199
169 183 182
175 188 192
188 200 206
184 195 200
183 195 198
175 189 194
186 198 205
187 199 208
191 202 210
191 203 212
187 199 208
196 207 217
192 205 217
110 131 106
87 113 67
86 112 66
88 115 67
81 107 62
87 113 66
86 113 66
84 110 64
90 117 70
89 115 68
86 112 65
79 104 59
117 136 112
189 202 214
191 204 216
196 208 220
188 200 208
198 209 218
179 192 197
177 189 192
178 190 191
179 192 195
169 182 184
136 153 139
90 117 71
89 115 70
91 118 72
86 113 68
89 116 71
87 115 69
194 206 215
167 182 185
89 115 68
88 115 69
88 115 68
89 116 70
89 116 69
92 119 72
91 119 72
92 119 71
95 120 80
182 194 201
178 190 194
188 200 206
190 200 206
185 197 203
184 196 200
181 193 196
180 193 198
185 197 202
190 201 207
178 191 193
100 125 84
92 119 71
90 117 71
87 114 68
92 119 71
87 113 68
89 116 70
93 120 71
86 112 66
92 118 70
82 108 64
83 109 63
97 121 82
188 199 204
190 202 210
193 205 214
202 212 221
195 207 217
192 204 212
194 207 220
194 206 218
191 202 212
202 212 221
196 208 217
186 199 207
191 203 212
195 207 217
159 173 170
84 111 65
88 114 68
87 113 67
87 114 69
84 111 65
88 116 69
90 118 72
87 114 67
91 119 72
85 111 66
92 120 72
94 122 74
91 118 72
88 115 69
90 118 71
101 126 85
179 192 194
167 180 179
158 174 167
161 176 173
147 163 154
126 145 127
149 164 153
137 154 140
132 150 133
97 121 84
98 122 85
89 115 71
89 115 68
88 114 67
91 117 69
88 114 67
91 118 70
102 126 87
197 209 220
195 207 216
198 209 220
183 195 201
185 197 203
196 207 218
200 211 222
193 205 215
191 203 212
191 203 212
189 201 210
193 205 213
185 197 202
200 211 221
197 208 216
190 201 206
180 192 195
188 200 208
183 196 203
123 144 121
91 117 70
96 123 74
92 119 71
90 117 69
91 118 71
89 116 69
92 120 73
92 119 71
94 122 73
93 121 73
93 120 72
92 120 72
90 117 71
86 113 67
88 115 70
88 115 69
91 118 70
93 121 74
92 120 72
91 118 71
187 198 202
187 200 206
181 193 196
181 193 197
191 202 208
191 203 210
191 202 208
186 197 202
189 200 205
180 192 195
185 196 201
185 197 201
181 193 197
186 197 201
190 201 206
191 202 208
190 202 209
185 196 200
192 202 207
189 200 205
187 198 204
183 195 199
92 120 73
92 120 72
93 120 72
88 114 69
89 116 70
89 117 71
90 117 70
92 119 71
89 115 69
92 119 71
93 121 72
90 117 70
92 119 72
92 120 72
93 121 74
90 118 71
87 114 68
93 120 73
91 118 71
96 124 75
93 121 73
93 121 73
183 195 197
190 201 206
200 210 218
190 201 206
195 206 213
186 198 204
190 202 207
187 200 205
195 206 214
198 208 214
194 205 213
192 204 211
187 199 203
173 185 185
187 198 202
178 190 194
185 197 202
187 198 204
192 203 212
192 203 211
178 191 193
187 199 203
181 193 197
88 114 68
92 119 72
93 121 73
93 121 74
90 117 70
94 121 73
92 120 72
92 119 71
93 120 72
89 116 70
89 117 71
92 119 72
93 121 72
92 119 72
89 116 69
93 120 72
92 119 72
88 115 70
89 116 69
89 115 68
92 120 72
94 121 74
89 117 70
179 192 193
183 196 201
187 199 203
193 203 209
189 202 210
194 206 213
179 191 195
192 203 210
191 202 209
194 204 210
184 196 201
191 202 209
189 200 205
190 202 208
194 204 211
190 201 205
188 199 205
181 193 197
186 198 203
180 193 198
193 204 210
185 196 201
192 203 208
90 117 71
88 115 69
90 117 71
92 120 72
88 115 70
91 118 71
90 117 71
93 121 73
93 120 72
92 119 72
91 118 71
91 118 71
92 119 72
94 122 73
96 124 75
94 121 73
94 121 73
92 120 72
89 117 70
92 119 71
88 114 69
91 118 72
131 149 132
192 204 211
181 193 196
186 197 202
188 200 205
186 199 205
190 201 206
191 202 208
186 198 201
188 200 206
187 199 206
183 194 200
190 201 205
185 198 203
183 195 199
192 202 208
186 198 203
188 200 205
190 201 207
184 196 201
187 198 203
181 194 199
90 117 70
91 117 70
94 122 73
88 115 69
90 117 70
93 120 72
92 120 72
91 119 72
95 122 73
93 120 72
89 116 69
92 119 72
91 118 71
88 115 68
91 118 70
88 115 69
91 119 71
92 120 72
88 115 69
88 114 68
144 161 149
193 204 212
191 202 211
191 203 210
193 205 215
192 204 213
194 204 212
184 197 205
190 202 212
201 211 223
184 195 202
202 214 228
195 206 215
195 206 216
199 210 219
194 206 216
193 205 216
199 211 223
188 200 209
178 191 195
88 115 68
93 120 71
100 123 87
113 134 106
112 133 108
118 137 113
131 149 131
135 152 139
159 173 165
153 168 159
155 170 165
160 174 171
158 171 166
178 191 196
178 191 194
178 190 193
188 199 203
121 142 116
93 120 72
85 112 68
89 116 69
88 115 69
87 114 68
88 114 68
85 112 66
91 118 71
81 108 63
86 112 65
83 110 64
89 116 69
86 112 66
81 107 62
85 112 66
173 186 189
198 209 220
191 203 212
188 200 209
197 208 219
188 201 211
195 208 220
191 203 212
192 204 213
188 201 211
189 202 211
199 210 222
197 209 219
190 203 213
170 184 188
88 115 69
86 112 66
88 114 67
89 116 69
87 114 67
88 115 68
88 115 68
91 118 71
91 118 71
88 115 69
89 117 70
91 118 74
180 192 191
183 195 200
174 187 189
177 190 194
190 201 208
168 181 181
178 191 192
184 196 202
178 191 192
178 190 192
160 175 172
90 117 71
88 116 70
88 115 68
83 110 66
87 114 68
87 114 67
84 110 64
85 111 65
191 202 211
197 207 216
191 204 214
168 181 181
83 109 63
85 111 65
83 109 64
86 112 66
84 111 65
86 112 66
89 116 69
88 115 69
97 121 86
191 204 213
192 203 212
185 198 207
185 197 205
180 191 196
187 198 204
181 194 199
187 198 203
190 202 209
175 188 191
169 182 185
90 117 71
92 119 72
90 117 70
92 119 72
92 119 71
88 115 70
91 118 71
89 115 69
88 115 69
92 118 71
88 115 70
90 118 72
155 171 164
187 199 203
187 199 205
190 201 209
180 191 196
197 208 217
191 202 211
189 202 211
190 201 209
198 209 220
189 201 208
195 206 215
185 197 205
191 204 214
184 196 201
90 117 70
85 112 66
91 118 70
87 113 66
86 112 67
87 113 66
87 114 67
85 111 65
88 115 68
86 112 66
90 117 70
85 111 65
84 111 65
88 114 68
86 113 68
89 116 69
180 193 198
185 197 204
192 203 211
199 210 220
192 204 213
194 206 215
191 203 211
196 208 219
191 202 210
189 201 212
194 205 213
196 208 218
179 191 195
202 212 222
193 204 213
188 200 207
190 203 211
188 199 206
89 116 70
94 121 72
88 115 69
88 114 67
91 119 71
91 118 71
89 116 70
94 121 73
89 116 70
101 126 87
104 127 92
115 136 111
118 140 114
134 152 136
143 161 147
144 161 152
144 161 150
151 166 159
163 177 172
126 145 123
138 154 139
128 146 129
123 143 125
129 148 128
113 134 106
99 123 87
103 125 91
89 116 69
83 109 63
88 114 67
89 116 69
89 116 69
87 114 68
92 119 71
88 114 67
85 112 66
86 113 67
84 110 64
91 118 71
104 128 93
192 204 213
196 207 217
192 204 217
198 209 219
193 204 213
200 211 223
194 206 215
196 207 217
196 207 217
194 206 216
198 209 220
194 206 215
202 212 224
186 197 203
195 207 218
194 205 214
195 205 213
198 209 218
192 204 211
187 200 210
194 206 215
112 133 107
90 117 70
87 114 68
86 113 66
89 115 68
91 118 71
88 114 67
89 115 68
90 117 70
90 117 70
93 121 72
90 117 70
87 114 67
89 116 69
88 115 68
85 112 67
90 117 70
87 114 68
89 115 68
91 118 70
92 119 71
92 120 72
137 154 139
188 200 208
190 202 208
190 202 209
185 196 200
192 204 211
191 202 208
178 191 195
188 200 208
189 201 206
185 196 202
189 201 208
187 199 205
191 202 208
186 197 201
194 205 212
187 199 204
193 204 211
189 201 207
193 204 210
194 205 211
185 197 202
191 203 210
113 135 105
94 122 73
91 119 72
92 119 72
93 120 72
94 121 72
90 117 71
91 118 71
89 116 70
87 113 67
90 117 70
92 119 71
91 119 71
92 119 72
90 117 70
95 122 73
90 116 70
92 120 72
90 117 71
94 122 74
93 121 73
90 118 71
91 118 71
184 196 200
178 191 194
173 185 187
192 203 210
181 193 199
183 194 198
188 199 204
192 204 211
186 197 203
189 202 210
195 206 213
187 200 206
187 199 206
189 200 207
186 198 203
195 206 214
192 204 211
189 200 204
190 201 209
192 202 208
194 205 210
190 201 210
189 200 205
91 118 71
90 117 69
90 116 69
87 114 67
92 119 71
91 118 70
89 116 69
89 116 69
89 116 69
90 117 70
92 119 72
85 111 66
88 115 69
90 116 69
87 113 66
87 113 67
88 115 68
90 117 70
88 114 68
92 119 71
84 111 64
84 110 65
199 210 221
196 208 217
198 209 219
193 204 212
189 201 209
200 211 224
196 207 217
198 209 218
196 208 219
192 204 213
198 210 223
195 206 218
204 213 222
190 203 214
197 208 218
192 204 213
200 212 224
195 207 217
194 206 216
191 203 213
194 205 214
117 137 110
88 114 68
86 112 66
90 117 70
86 113 66
89 115 68
84 110 64
87 113 67
90 115 73
105 129 94
106 128 94
101 123 93
119 138 114
121 140 118
127 146 129
133 150 134
142 158 144
150 165 157
147 163 151
147 162 153
131 151 130
116 138 112
122 142 121
124 145 124
114 136 109
98 123 87
91 119 72
94 121 73
92 120 73
95 123 75
91 119 73
91 118 71
96 124 75
92 119 71
84 110 65
86 112 66
89 115 69
88 115 69
86 113 68
149 166 162
186 197 205
199 210 220
192 203 211
188 200 207
192 204 213
197 208 218
196 207 216
188 200 211
194 206 216
187 201 211
187 199 208
193 205 212
190 201 208
193 204 212
188 200 210
195 208 222
191 203 215
87 114 67
86 111 65
83 108 63
86 112 66
83 109 63
88 115 68
90 117 70
88 114 67
84 109 64
81 106 62
82 108 63
81 107 62
83 108 63
84 110 64
85 111 65
99 122 87
187 199 207
192 204 214
189 201 212
180 193 202
195 206 217
188 200 208
194 204 211
183 195 201
188 200 206
180 192 194
175 188 191
183 194 197
179 190 192
172 184 184
91 118 71
91 118 71
88 115 70
91 118 72
89 116 70
86 112 67
93 120 73
89 116 70
91 119 72
88 115 70
89 116 69
91 118 71
161 176 173
180 192 196
178 190 191
177 189 191
189 201 208
182 194 203
186 199 206
185 198 206
188 201 211
198 209 221
173 187 191
82 108 63
86 112 65
85 111 65
87 113 66
84 110 65
82 108 63
79 105 60
85 112 67
138 155 147
189 201 211
178 191 195
189 201 208
187 198 203
177 190 192
177 189 192
160 174 170
88 115 68
89 116 70
88 115 68
88 114 67
86 113 67
94 121 73
90 117 70
86 112 66
125 143 124
187 199 208
191 203 214
190 201 209
189 201 208
183 196 203
187 199 206
197 208 218
187 199 206
199 211 223
190 203 213
144 160 148
90 116 69
91 118 70
92 119 72
86 113 67
86 113 67
93 120 73
92 120 72
91 118 71
90 117 70
94 121 73
90 117 71
91 118 70
180 192 195
189 200 207
179 191 196
184 195 202
190 201 208
185 197 203
184 196 201
182 194 199
176 188 190
189 200 207
188 200 205
191 203 211
193 204 212
194 204 210
145 161 152
93 120 73
91 119 72
93 121 73
88 116 70
91 118 71
88 115 68
90 117 71
90 117 70
89 116 69
88 115 69
92 119 71
90 116 70
88 114 67
87 113 67
90 117 70
155 170 164
200 211 222
192 203 214
194 206 217
199 210 221
190 202 210
193 204 213
194 205 215
190 202 210
196 207 215
184 196 203
189 202 211
189 201 209
186 199 208
196 207 218
194 204 210
194 205 214
186 199 204
90 116 72
92 118 70
87 114 68
86 112 66
90 116 69
89 115 68
90 117 70
84 111 64
87 113 67
83 109 64
87 113 66
89 116 69
91 118 70
88 115 68
88 115 68
87 113 66
84 110 65
89 115 68
93 119 71
187 199 207
189 200 206
199 209 221
185 197 203
189 200 207
187 199 208
179 192 197
187 201 212
194 206 215
190 202 210
197 208 216
197 208 215
195 206 215
189 201 208
197 208 219
187 200 210
183 194 199
192 203 212
200 211 221
180 193 198
150 166 156
91 118 71
94 122 73
89 116 69
86 112 67
90 117 70
92 120 73
93 121 73
90 117 71
94 121 73
90 117 71
93 121 73
94 121 73
92 119 75
96 122 79
106 130 92
109 132 98
113 135 106
106 129 95
114 136 107
121 142 116
119 141 114
153 167 161
146 163 152
166 180 176
153 169 162
140 157 145
139 156 144
155 169 163
148 163 155
145 161 149
152 167 160
153 168 162
134 151 135
147 163 156
147 163 151
142 158 144
146 161 152
136 154 138
134 153 136
137 154 138
126 144 123
118 139 112
126 144 127
167 181 182
174 187 187
172 186 187
177 190 193
174 187 189
177 190 196
182 195 200
171 184 186
180 193 197
182 194 196
188 200 205
185 197 203
177 191 197
184 196 202
191 203 212
192 203 210
193 204 213
181 195 201
186 198 205
179 193 200
192 202 208
184 196 201
123 143 125
98 122 83
91 116 76
92 118 75
94 121 74
100 123 87
88 115 69
91 117 72
97 120 86
87 114 70
95 120 79
98 123 83
95 120 79
99 123 85
93 119 76
96 119 80
101 124 88
98 123 83
94 119 83
95 120 79
103 125 91
95 119 82
102 124 90
188 200 208
194 205 213
188 200 206
184 197 205
192 203 210
189 201 209
176 189 195
189 201 209
184 196 202
186 198 202
177 191 195
180 193 196
176 190 195
173 187 193
172 187 188
167 181 178
163 178 175
170 184 186
170 184 188
162 177 178
156 171 168
178 190 192
163 177 173
138 155 142
147 164 150
144 160 149
143 160 147
137 154 142
142 159 147
148 163 154
145 160 153
137 154 142
158 173 168
149 164 154
147 163 152
164 177 174
157 171 165
156 170 164
160 174 171
171 183 182
166 180 177
169 181 178
169 182 181
170 182 180
131 149 136
94 119 82
95 121 77
102 127 88
92 119 72
93 120 73
92 119 71
91 118 71
91 119 72
93 120 72
91 119 71
87 114 69
89 116 70
93 120 72
89 115 69
90 118 71
89 116 70
93 120 72
93 120 72
86 113 68
87 114 69
134 152 134
186 198 205
189 201 207
197 209 219
188 200 208
191 203 212
188 200 207
186 198 206
186 199 208
200 211 220
185 198 206
196 208 217
191 202 210
197 208 218
192 203 211
197 208 219
203 214 227
197 209 222
188 200 208
193 205 216
171 184 183
89 115 68
87 114 67
86 113 66
90 117 70
86 112 66
87 113 66
84 110 64
85 112 66
83 109 64
88 115 67
85 111 66
83 109 63
90 116 69
86 112 66
84 110 64
86 112 66
85 111 65
83 109 64
169 183 181
195 207 218
195 207 216
188 200 210
195 207 218
199 210 221
188 201 210
193 205 216
187 199 207
192 204 214
190 202 212
193 204 214
187 200 209
186 199 207
185 197 205
199 211 222
196 208 221
170 183 185
90 116 69
85 111 66
89 116 69
89 116 69
92 119 71
92 120 72
89 117 70
85 111 67
88 115 70
88 114 68
92 118 71
89 116 70
92 119 72
92 120 74
87 115 70
159 173 171
175 187 187
188 201 209
186 198 203
181 193 200
183 195 200
179 192 195
179 191 193
169 183 184
175 187 189
174 187 190
167 181 180
176 188 191
175 188 193
124 143 123
88 116 70
90 117 71
87 114 68
84 110 65
92 119 71
87 114 69
88 115 69
81 107 62
85 111 66
88 115 67
87 113 67
139 156 146
192 203 214
190 202 212
198 209 219
190 202 215
192 204 216
192 203 212
188 200 210
188 199 207
183 194 200
176 189 194
89 114 72
84 111 65
80 105 60
80 106 61
82 108 63
90 116 69
86 113 67
80 106 63
144 160 150
179 191 196
175 187 190
180 191 196
131 149 136
93 118 78
130 147 130
148 164 159
163 177 175
180 192 196
186 198 205
158 172 167
90 117 70
90 117 71
92 119 72
87 114 69
90 116 69
88 115 70
94 121 74
93 120 73
129 148 133
182 195 200
186 198 204
186 198 207
197 208 216
199 209 218
185 197 206
195 207 217
194 204 212
191 203 212
185 198 207
131 149 134
88 115 69
88 114 67
91 117 70
85 112 66
88 115 68
88 115 68
86 112 66
88 115 68
86 113 67
85 111 65
88 114 67
113 134 107
185 199 209
188 200 210
188 199 208
183 195 200
185 198 205
187 199 206
183 195 200
178 190 195
189 201 208
187 199 206
187 199 203
171 184 188
180 192 197
183 195 198
92 120 73
90 117 71
93 121 73
91 119 71
91 118 71
88 116 70
90 116 70
89 115 69
90 118 71
89 116 71
91 117 70
90 117 71
88 115 69
91 117 70
92 119 72
102 126 90
191 201 207
184 197 202
182 194 199
189 200 204
190 200 203
190 201 210
187 200 205
195 205 213
187 198 203
196 207 213
198 208 215
185 197 203
183 195 198
184 196 201
191 202 208
188 200 207
194 205 213
96 120 84
86 112 66
91 119 71
88 114 68
85 112 66
87 113 67
90 117 69
89 116 69
91 118 70
84 110 65
90 116 69
89 115 67
83 110 64
88 114 67
86 112 65
90 117 70
85 112 66
89 116 69
89 115 67
185 197 203
196 208 218
197 208 218
198 208 217
195 207 216
194 205 214
197 208 219
192 204 213
192 203 211
194 205 214
199 209 220
195 205 214
196 207 218
191 203 212
196 207 214
194 205 214
195 206 216
189 201 209
191 202 210
197 208 218
102 125 92
87 113 67
85 111 65
89 115 68
89 115 68
90 116 69
87 115 68
83 109 64
83 109 64
87 113 66
91 118 70
89 115 68
92 119 71
87 114 67
87 113 67
82 109 65
92 118 70
89 116 68
92 119 71
86 112 67
91 117 69
180 192 194
189 200 207
198 208 217
189 202 212
193 205 217
196 206 218
195 206 215
193 204 213
196 208 218
192 204 212
192 203 210
187 198 205
192 204 215
196 209 221
199 210 221
193 204 213
200 211 220
187 199 207
194 206 216
192 203 212
195 207 217
200 211 220
86 111 65
87 113 66
86 113 66
86 112 66
88 114 67
90 117 69
91 117 69
87 114 68
91 118 70
85 112 66
88 115 68
84 111 65
89 115 68
80 106 62
87 114 67
85 112 66
89 116 69
86 112 67
90 117 69
90 117 69
91 118 71
88 114 67
144 161 152
191 202 210
192 204 213
198 208 218
183 195 199
193 205 214
193 204 211
181 193 199
193 205 213
193 204 212
192 204 213
193 204 212
199 209 217
196 208 218
198 209 218
184 196 202
198 209 219
187 199 207
195 207 216
183 196 202
190 202 212
196 207 216
182 195 203
88 115 68
84 110 64
87 113 67
86 112 66
90 117 70
87 114 67
89 116 69
87 113 66
91 118 70
87 113 66
84 110 65
85 112 66
89 115 68
89 116 69
86 111 65
89 116 68
86 112 65
82 108 63
89 116 68
84 110 64
87 113 67
87 113 66
197 208 216
193 204 213
188 201 211
181 193 200
192 203 211
193 204 211
191 204 214
192 205 215
192 204 214
187 199 206
185 198 206
195 207 216
189 201 210
196 208 217
188 200 208
195 206 213
192 203 212
200 211 222
186 198 206
194 205 214
186 198 204
190 202 211
85 112 66
86 112 66
85 111 65
85 111 65
88 114 67
86 113 66
85 112 66
84 111 65
86 112 67
88 115 68
88 114 67
86 112 66
81 107 62
91 118 70
83 109 63
90 117 69
86 113 66
82 108 63
82 107 62
78 103 58
96 122 80
187 198 205
184 198 207
196 208 220
196 208 220
198 210 221
193 204 212
192 204 215
184 196 204
187 200 210
189 201 211
191 203 212
187 198 208
187 199 208
193 205 215
183 196 205
195 207 218
193 204 212
190 202 211
197 208 219
177 190 194
88 114 68
91 118 70
87 113 67
87 114 67
87 113 66
86 113 67
86 113 66
83 109 64
85 111 66
85 111 65
89 116 69
82 108 64
86 113 67
86 112 67
88 115 68
88 115 69
87 114 68
90 117 71
173 186 187
181 194 200
179 191 194
187 199 205
177 189 191
186 197 202
188 200 205
190 201 207
182 194 198
165 179 180
187 198 202
180 193 198
176 188 192
178 190 193
189 200 207
183 195 199
185 198 203
134 153 132
90 117 70
89 116 70
88 115 69
91 118 70
88 115 69
94 121 73
92 120 73
89 116 70
88 114 68
96 123 74
90 117 71
89 116 70
88 115 69
90 117 71
108 131 99
171 184 185
177 189 191
177 189 193
182 193 197
186 198 207
184 197 205
184 196 202
184 197 202
199 209 219
183 195 201
189 200 210
191 203 211
190 202 213
171 184 187
83 109 64
84 109 64
87 114 67
86 112 66
89 116 69
80 106 61
84 110 64
84 109 64
81 107 61
84 110 65
89 116 69
128 147 131
198 208 217
191 203 214
187 199 208
190 203 216
185 198 206
182 195 205
181 194 205
181 194 199
174 187 192
175 188 192
101 125 89
88 115 69
87 113 69
90 117 72
88 115 69
86 114 69
88 115 69
89 115 69
137 154 139
172 185 186
158 172 168
140 155 143
102 122 97
81 107 63
183 196 202
180 193 196
147 162 156
92 120 72
88 115 70
89 116 70
91 118 71
88 115 68
87 113 67
122 141 121
179 191 196
144 161 154
156 171 165
122 142 119
85 111 69
90 117 70
89 116 69
88 114 69
147 162 152
191 202 208
180 193 199
181 193 196
177 190 193
184 196 201
183 195 200
184 195 200
187 198 204
199 209 216
187 198 205
98 123 85
86 113 67
86 112 66
88 115 69
90 117 70
89 115 68
81 107 61
86 112 66
87 114 67
88 114 67
88 114 67
87 114 67
165 179 180
188 200 208
194 205 213
184 197 203
183 196 203
196 207 219
188 200 208
195 206 214
189 201 212
189 201 209
183 195 202
194 205 215
185 197 205
196 206 215
132 149 134
87 113 66
81 107 62
87 113 67
87 113 68
89 117 70
88 115 68
90 116 69
86 113 67
90 117 69
84 111 66
88 114 68
87 114 68
91 118 72
91 118 71
85 112 67
181 194 199
182 195 200
177 189 190
182 194 198
187 199 204
170 184 185
190 202 210
186 198 204
187 198 204
182 195 200
188 199 204
193 204 211
186 198 203
184 196 199
184 196 202
192 203 211
192 203 210
114 135 109
93 120 72
92 119 72
88 115 69
87 114 68
89 117 71
91 118 72
94 121 73
90 117 71
93 120 72
90 118 70
90 117 70
89 117 70
91 118 71
86 113 68
91 118 71
90 117 70
93 120 72
90 117 71
185 197 203
183 194 197
191 202 209
179 191 193
189 200 207
193 203 209
180 192 195
179 192 195
189 200 206
193 204 212
184 196 202
185 196 202
181 193 199
197 208 215
202 212 220
186 198 205
196 207 214
196 207 216
180 193 201
198 208 217
89 116 69
90 117 69
86 113 67
90 117 70
86 113 67
86 112 66
92 119 71
90 117 70
85 111 65
87 113 67
89 115 69
92 119 71
87 113 67
88 115 68
89 115 68
88 114 67
85 111 65
86 113 67
88 115 68
85 112 66
90 117 69
195 207 217
193 206 218
195 207 219
193 205 217
196 207 215
192 203 213
199 210 220
198 209 220
198 208 217
186 198 206
195 207 219
192 205 216
195 207 218
196 207 217
190 202 213
192 204 215
191 202 210
194 206 216
194 205 214
198 210 222
198 210 221
154 169 163
89 116 69
88 115 68
88 114 68
89 116 69
86 113 67
88 114 68
84 110 64
89 116 69
92 119 71
90 117 70
84 110 65
92 119 71
83 109 63
90 116 69
86 112 66
87 113 67
87 113 67
87 114 67
88 114 68
86 112 66
88 114 67
141 158 147
185 197 205
191 203 213
191 202 210
195 206 214
194 205 212
190 202 212
197 208 218
200 210 221
191 203 213
183 197 207
197 208 218
193 205 213
187 198 207
202 213 224
187 200 210
187 199 207
196 207 215
195 206 215
198 209 219
196 207 216
202 213 227
191 203 212
88 115 69
89 116 68
87 113 67
88 114 68
85 111 65
87 114 67
86 112 66
88 114 67
83 110 65
86 112 65
87 113 67
94 121 73
85 111 65
82 108 63
90 116 69
88 115 68
84 110 65
91 118 70
92 118 71
82 107 62
94 121 73
84 110 65
194 204 213
197 209 219
192 203 213
188 200 208
201 212 222
188 201 212
191 203 211
184 196 203
194 205 213
198 209 218
199 209 217
191 204 214
192 203 211
193 204 212
199 210 221
191 203 214
192 204 213
187 200 208
193 206 216
187 200 211
201 212 222
105 128 99
85 111 65
83 109 63
93 120 71
85 112 66
81 107 63
87 113 66
87 113 66
83 109 64
87 113 67
86 113 67
89 115 69
87 113 68
87 113 67
94 121 72
84 111 65
84 111 65
88 114 68
92 119 72
89 116 70
90 117 71
192 203 210
192 203 210
189 200 207
182 195 200
188 200 204
187 199 204
197 208 217
182 194 197
190 202 208
190 202 208
181 193 197
188 199 204
175 188 192
176 189 193
185 197 200
184 196 202
186 198 204
178 190 190
188 200 204
164 178 176
91 118 71
92 119 71
91 117 70
88 115 69
90 117 70
92 119 73
86 113 68
88 115 69
89 117 71
93 120 73
87 114 68
88 115 69
85 112 68
91 119 72
91 119 71
87 113 68
90 116 70
93 121 74
189 200 206
189 200 205
172 185 187
186 197 201
179 192 196
186 198 202
186 197 201
179 191 195
178 191 193
163 177 175
178 191 193
173 186 189
185 197 202
174 187 189
175 188 191
178 190 192
172 185 187
89 115 71
87 113 67
87 114 68
85 111 65
89 116 69
86 113 68
84 110 65
84 110 65
82 108 63
84 110 63
82 108 63
85 111 66
83 110 65
87 114 67
84 110 65
174 186 186
187 200 212
187 199 208
190 202 210
195 205 214
193 204 214
192 203 212
184 196 204
190 202 213
189 201 209
191 203 212
187 200 213
194 205 215
191 203 214
86 113 67
84 110 65
85 112 66
84 110 64
82 108 63
82 108 63
82 109 64
88 115 69
88 114 68
86 113 67
85 112 67
107 129 101
173 185 188
175 188 192
170 183 185
170 184 186
175 187 191
165 179 180
190 201 206
172 185 187
183 195 201
169 182 183
89 114 74
89 116 70
110 132 106
130 149 133
157 173 172
170 183 184
178 191 198
181 193 199
131 149 134
82 107 62
85 112 68
83 109 65
86 113 69
85 111 67
90 118 72
161 175 172
196 207 216
182 194 198
182 194 200
179 191 195
170 184 185
91 119 71
88 115 68
85 112 67
89 116 70
87 114 68
93 120 73
112 134 106
172 185 187
184 197 201
181 193 197
188 199 205
175 188 193
194 205 212
190 202 211
188 199 207
165 179 179
126 146 123
141 157 143
158 172 166
162 176 173
176 189 192
183 195 199
191 202 209
186 197 202
191 203 210
178 190 193
93 119 77
91 118 71
91 118 71
89 115 69
93 121 74
89 116 71
89 116 69
88 115 68
86 112 66
91 117 70
93 120 72
88 114 68
181 193 197
194 205 213
191 202 210
195 206 213
185 196 201
189 201 209
182 194 200
190 202 212
197 207 216
189 201 212
185 198 207
189 200 207
191 202 211
182 194 200
88 112 72
83 109 64
80 105 61
86 113 66
86 113 67
87 114 67
86 112 66
87 114 67
87 113 67
89 116 69
89 115 69
82 109 64
87 114 67
88 114 68
89 116 69
165 179 179
189 200 207
191 203 213
185 197 204
187 200 208
194 206 215
187 199 207
193 204 212
191 203 211
190 202 211
197 209 219
186 199 208
183 196 204
190 201 209
186 198 204
198 208 217
186 198 205
139 158 145
90 117 70
87 113 68
93 119 71
90 118 71
92 118 71
92 120 73
92 119 72
92 119 72
93 121 73
89 116 70
87 114 68
90 117 69
86 113 68
90 117 70
93 121 74
89 116 70
92 119 72
86 112 68
183 195 198
191 202 209
186 198 204
181 194 196
180 192 196
181 193 196
186 198 202
175 188 190
185 197 203
188 199 203
185 196 200
182 194 198
183 195 199
179 192 195
182 194 197
187 199 206
181 194 199
188 200 207
176 189 193
164 177 172
90 117 70
90 117 70
90 117 70
90 117 70
91 118 71
94 122 74
92 119 72
91 119 71
89 116 70
93 120 72
91 118 71
92 119 73
86 114 68
89 116 70
94 121 73
90 117 70
89 115 68
93 120 73
92 119 72
92 119 72
173 187 186
187 198 203
194 206 213
190 201 208
195 205 212
190 201 209
192 203 207
192 204 212
185 197 201
190 202 209
176 188 192
187 199 206
185 196 201
179 191 193
191 203 210
180 192 196
188 199 205
187 199 205
177 190 195
181 193 196
192 204 211
189 200 206
87 114 68
89 116 69
92 120 73
89 116 70
91 118 72
91 118 71
94 121 73
95 123 74
91 118 71
89 117 71
91 118 71
90 118 71
89 116 69
89 117 71
90 117 71
90 117 70
91 118 71
90 118 71
92 120 73
92 120 73
91 119 73
116 137 112
175 189 193
187 200 208
183 195 199
189 200 206
168 181 182
187 198 202
190 202 207
176 189 191
176 188 190
187 199 205
185 196 201
183 195 200
183 195 199
185 197 202
187 199 205
188 200 205
178 191 194
169 182 183
189 201 208
195 206 213
182 193 198
170 183 182
90 117 69
87 114 68
89 116 70
91 118 71
90 117 70
92 119 72
87 114 69
91 118 71
88 115 68
91 118 71
87 114 68
96 124 75
91 118 71
95 123 75
89 116 70
92 119 72
90 117 70
91 118 71
87 114 69
88 115 69
92 120 72
161 175 172
181 193 196
185 197 203
187 198 204
187 199 207
180 192 196
196 207 213
197 207 215
179 191 194
196 207 216
181 194 197
195 206 213
191 202 206
174 187 191
182 194 199
180 192 193
197 207 214
173 186 188
187 199 205
175 188 192
178 190 194
176 188 189
93 119 72
90 117 70
88 115 70
92 119 72
90 117 70
91 118 72
91 119 72
88 114 69
90 117 70
91 118 71
92 119 71
88 115 69
91 119 72
92 119 72
90 117 71
91 118 71
90 117 70
92 119 72
89 116 70
90 117 71
182 194 196
179 191 195
185 197 202
196 206 213
187 199 205
181 194 198
191 202 207
181 194 199
180 192 196
179 190 194
185 196 201
185 196 202
191 203 209
186 198 203
186 198 202
191 201 205
191 202 209
181 193 196
172 186 188
168 182 183
88 115 69
89 116 70
87 114 68
89 116 70
91 119 72
90 117 70
88 115 69
89 116 70
88 115 69
88 115 69
90 117 71
93 120 72
91 118 71
89 116 70
86 112 66
91 118 72
90 117 70
103 126 92
186 198 207
195 207 217
183 196 205
191 203 214
190 202 209
199 210 222
188 200 208
192 203 212
196 206 215
196 207 216
191 202 213
185 196 202
194 205 213
194 206 217
194 204 213
186 198 206
160 175 176
84 111 65
85 111 64
87 113 67
86 113 67
82 107 63
85 111 65
77 103 60
87 114 67
84 110 65
85 111 66
86 113 66
83 109 64
83 108 64
85 112 66
101 123 91
193 205 215
183 196 203
196 207 217
189 201 210
192 203 210
190 201 211
188 200 209
185 197 204
184 195 199
181 193 198
176 188 191
174 187 192
175 188 191
103 126 94
84 111 66
90 117 71
90 118 71
89 117 70
90 117 71
91 119 72
89 116 69
90 117 70
88 114 69
91 118 71
94 119 82
178 189 190
183 196 203
174 186 189
168 182 184
160 174 170
130 146 133
123 140 123
106 127 98
79 104 60
84 109 70
177 190 194
174 188 193
179 191 194
167 181 183
168 181 182
167 179 178
159 173 172
167 180 180
121 141 126
85 111 67
87 114 68
84 110 66
87 114 68
87 114 69
98 123 86
169 182 182
170 182 183
183 195 204
78 103 59
131 150 132
189 200 206
185 197 204
188 200 208
180 192 199
189 200 208
102 125 93
87 113 67
85 112 67
83 110 66
86 113 68
90 117 70
96 120 84
180 192 196
178 190 191
183 195 200
181 193 197
184 196 201
178 190 194
187 198 204
184 195 200
136 154 138
89 116 70
89 116 69
87 115 69
86 113 67
90 116 70
90 117 70
89 115 69
84 110 65
85 112 67
114 134 112
175 189 194
157 172 168
149 165 156
127 147 130
117 137 113
95 120 78
87 114 68
92 120 73
90 117 70
87 114 68
85 111 66
118 139 115
173 186 189
189 200 206
190 201 207
185 195 198
179 192 195
183 194 198
192 203 211
184 196 200
181 194 200
189 200 206
180 193 198
182 194 201
183 195 201
134 152 135
90 117 70
88 114 68
89 116 69
85 111 65
83 110 65
88 116 70
86 112 66
88 114 68
85 112 66
85 111 65
86 112 67
84 109 64
86 113 66
87 114 68
121 140 118
194 205 214
187 199 207
185 197 203
183 196 200
186 198 206
189 201 209
187 200 208
183 195 204
191 202 208
192 204 213
193 204 213
191 203 212
185 197 204
189 200 207
190 203 214
188 200 210
180 192 195
92 119 70
86 112 66
84 110 65
87 114 68
87 113 67
88 115 68
85 112 65
88 114 68
90 117 70
84 110 64
86 112 67
89 115 68
86 112 66
84 110 64
89 115 68
83 110 65
81 106 62
86 113 66
194 206 216
185 198 205
193 204 214
194 206 216
191 203 213
178 191 195
186 198 207
186 196 201
186 197 203
196 206 215
182 193 198
189 200 205
191 203 210
187 199 207
184 196 204
182 194 199
187 199 206
195 207 215
181 193 199
127 146 128
89 116 70
90 117 69
89 116 69
91 118 71
87 114 68
90 117 71
88 115 69
92 119 72
89 116 69
86 113 67
89 116 69
93 120 71
90 117 70
90 117 70
93 121 73
90 117 70
92 119 71
92 119 71
89 116 70
89 116 70
188 199 202
183 195 200
190 201 209
185 196 201
191 202 208
187 199 203
191 202 210
185 197 204
185 196 200
185 197 201
190 201 207
189 200 206
182 194 197
185 196 198
183 194 198
183 196 202
182 194 199
184 196 198
179 191 195
172 186 186
191 202 208
90 117 70
90 117 71
90 118 71
91 118 71
86 114 69
91 119 72
92 119 72
87 114 68
91 118 72
90 117 71
87 113 67
88 115 69
91 117 70
90 117 71
90 116 69
89 116 70
93 121 74
89 116 69
89 115 69
91 118 71
90 117 70
95 122 76
177 190 196
178 190 194
191 203 211
190 201 207
189 200 205
175 189 191
188 199 204
187 199 204
183 195 203
183 195 199
179 191 192
182 194 199
181 193 197
181 193 195
186 197 204
190 201 209
186 197 203
189 200 206
190 201 205
179 191 194
180 192 196
144 160 150
92 119 72
92 119 71
87 114 68
92 119 72
94 121 73
90 117 70
89 116 69
89 116 70
86 113 68
91 118 71
88 116 70
92 119 72
92 119 71
90 117 70
92 119 72
91 119 72
90 117 71
87 114 69
88 115 70
84 110 65
90 117 70
177 190 192
186 198 202
182 194 198
176 190 194
176 188 190
182 194 198
183 195 198
179 191 194
187 197 201
182 194 200
172 185 189
185 197 201
181 193 196
179 192 196
185 197 203
168 181 181
182 193 198
184 196 200
184 197 203
177 190 194
181 192 196
89 115 69
89 116 70
93 119 71
89 116 69
89 116 70
89 116 70
89 117 71
94 121 73
86 113 68
90 118 71
87 114 69
90 117 70
88 114 68
92 118 71
90 117 70
90 117 70
91 118 71
90 116 70
86 112 66
86 113 67
164 178 178
193 204 211
185 195 199
189 200 205
187 200 209
193 205 213
185 197 203
181 192 196
188 199 204
193 205 214
185 197 206
189 201 209
192 203 210
186 198 207
188 199 207
192 203 211
193 205 214
193 204 211
193 205 215
184 195 200
85 111 65
86 112 66
86 113 67
84 110 64
89 116 68
78 104 61
88 114 68
89 116 69
87 113 66
85 112 66
87 114 68
83 109 63
81 106 62
86 113 66
84 110 64
90 117 70
85 111 66
135 151 140
178 191 197
190 202 211
195 206 216
189 201 209
192 204 215
195 206 216
196 206 214
196 207 216
199 210 219
192 204 215
196 207 219
183 195 203
188 200 209
190 202 211
191 203 214
189 201 210
98 120 92
80 106 63
89 116 69
86 113 67
86 112 66
83 109 65
83 109 64
90 117 70
90 117 70
86 112 67
87 114 68
93 120 72
89 116 70
87 114 68
92 119 71
167 180 179
175 189 194
175 188 193
171 185 186
174 186 187
182 193 198
174 188 191
183 195 200
180 193 199
170 183 188
178 191 195
171 184 184
170 183 185
141 158 146
88 114 69
89 117 71
92 120 73
112 134 107
128 148 134
146 164 154
145 161 155
168 182 185
177 189 193
195 207 217
180 192 199
109 130 103
84 110 65
84 110 65
88 115 69
86 113 69
88 115 69
85 111 66
92 119 71
88 115 69
95 121 81
174 187 187
169 181 180
167 181 182
178 190 195
172 185 187
175 187 188
169 182 185
164 176 175
112 134 110
84 111 67
87 114 68
80 106 62
88 114 68
82 108 63
117 136 118
185 196 205
177 190 199
188 199 206
178 190 199
149 163 161
113 133 111
88 114 68
87 113 68
90 114 80
184 197 203
187 200 211
196 207 216
190 202 210
187 198 207
119 139 116
83 109 64
82 108 63
86 112 66
86 112 66
83 109 64
98 123 83
179 193 202
190 202 209
190 201 209
179 191 196
174 187 190
186 197 203
182 194 199
183 196 203
148 164 156
86 113 68
89 115 69
88 115 69
91 118 70
90 117 70
90 116 69
90 117 70
86 113 68
90 117 71
131 149 132
175 188 193
182 194 198
177 190 193
184 196 201
174 188 193
185 197 203
191 202 211
183 194 201
195 207 215
182 195 203
188 200 208
138 155 143
115 135 109
123 141 120
147 162 154
149 165 156
162 177 175
177 189 191
173 186 187
185 197 202
191 202 208
186 197 202
182 195 200
184 196 202
180 192 196
91 118 76
90 117 70
93 121 73
88 114 69
88 115 69
91 118 72
90 117 70
92 119 72
91 118 71
91 119 72
90 117 69
88 115 68
89 116 69
90 117 70
91 118 71
173 186 190
178 191 196
174 186 188
184 196 202
187 197 202
181 193 197
190 201 208
188 199 205
188 200 207
193 204 212
185 197 202
184 195 200
191 203 211
199 209 217
192 204 212
190 202 212
190 201 207
88 114 67
85 111 65
89 116 69
91 118 70
87 114 67
89 116 69
86 112 66
89 115 68
87 113 66
86 112 66
87 114 67
85 112 66
84 111 65
87 114 68
88 115 68
86 112 65
86 112 66
86 113 67
195 206 215
191 203 212
185 197 203
190 203 214
197 208 219
196 208 220
187 199 207
189 201 211
185 197 203
199 210 220
193 204 215
192 203 210
198 209 218
191 202 210
194 205 214
196 207 217
194 206 216
189 201 209
191 203 213
102 125 89
88 115 68
87 113 66
90 117 70
88 114 67
87 113 67
85 112 66
84 109 64
84 110 65
88 115 68
84 110 65
81 107 62
86 112 66
87 113 67
86 112 65
83 109 64
89 116 69
84 110 65
87 113 67
90 116 69
143 158 149
199 211 222
191 203 215
191 203 213
190 202 212
191 203 214
186 198 206
187 199 208
186 197 202
191 203 212
197 207 216
196 208 219
189 201 210
195 207 217
188 199 205
187 199 205
188 200 207
187 199 207
193 204 213
189 200 208
189 200 208
136 154 138
86 112 66
88 114 67
88 115 68
89 116 69
81 107 62
88 115 68
86 113 66
86 113 67
85 111 65
88 114 68
89 115 68
89 116 69
87 113 67
89 115 68
88 115 69
87 113 67
88 115 68
86 112 66
88 115 68
85 111 65
90 118 71
189 201 208
184 196 202
193 205 214
191 202 212
190 201 209
186 198 207
191 203 214
186 198 206
192 204 213
175 188 193
193 204 211
190 202 212
189 201 208
193 205 217
185 196 202
187 199 207
193 204 212
192 203 211
188 201 212
186 198 203
184 197 203
124 144 123
84 110 64
85 111 66
89 116 69
88 115 68
87 113 67
85 110 65
86 112 66
84 111 65
85 112 66
88 114 67
88 115 67
87 113 67
87 113 66
88 115 68
84 110 65
85 112 65
83 109 64
89 116 69
86 112 66
87 114 67
105 127 97
183 195 202
189 202 212
187 199 210
187 199 207
185 197 204
189 201 209
193 204 215
191 202 211
184 197 205
176 189 196
193 204 213
192 204 215
197 208 218
191 203 213
189 201 208
184 196 203
188 200 210
197 208 218
194 206 216
193 204 215
159 174 170
80 106 62
86 112 66
87 112 66
84 110 64
87 113 67
86 113 66
83 110 65
87 113 67
91 118 70
84 109 64
84 110 65
83 109 64
85 111 66
87 113 66
88 114 67
86 112 66
86 111 66
88 114 67
83 108 62
122 141 123
189 201 209
186 199 209
191 202 209
199 209 219
193 206 217
195 206 214
186 197 204
177 191 197
188 201 210
197 208 219
194 207 221
190 202 212
190 202 210
194 206 216
194 205 213
192 204 217
189 201 211
190 202 209
165 180 182
85 112 66
84 110 65
84 110 65
84 110 64
84 111 66
87 114 67
80 106 62
88 114 67
85 111 65
86 112 65
82 108 62
85 111 66
82 109 64
87 114 67
87 113 67
78 104 60
83 110 64
159 174 174
194 206 215
182 195 200
185 196 202
186 199 206
180 193 199
184 195 201
176 189 195
186 198 205
181 192 195
173 186 186
185 197 204
171 184 184
189 199 204
185 196 200
166 181 183
165 178 178
91 118 71
87 114 69
89 116 70
91 118 71
86 113 68
87 114 69
89 116 70
89 116 69
86 112 67
90 117 71
89 116 69
92 119 72
84 111 67
84 111 66
127 146 128
168 181 182
177 188 192
186 198 203
169 182 179
159 173 173
158 172 165
140 157 144
114 135 110
105 126 101
101 123 92
83 109 63
80 106 62
104 126 95
182 194 200
184 196 204
175 187 191
177 190 193
169 183 184
172 183 185
169 183 186
176 189 194
178 190 191
178 191 196
165 180 180
112 132 106
87 113 67
88 115 69
86 113 68
86 113 68
87 114 68
88 114 68
88 115 69
89 116 70
102 127 88
161 175 174
163 177 176
178 190 195
168 181 183
175 188 195
175 187 193
182 195 202
175 187 193
107 127 105
84 110 65
82 108 63
80 105 61
83 110 65
78 103 60
126 145 133
180 194 206
182 194 202
172 186 193
176 190 197
137 153 143
81 107 65
88 115 70
134 151 141
87 113 67
134 151 140
165 181 182
122 142 123
87 113 68
155 170 162
179 191 196
174 186 189
183 195 201
182 194 199
141 157 144
88 115 68
85 112 66
83 110 64
81 107 63
81 107 62
87 114 68
172 184 187
190 202 211
196 208 219
194 205 214
192 203 214
193 205 214
185 197 207
195 206 216
147 163 154
90 117 70
87 113 67
89 116 70
88 114 68
85 111 66
88 114 68
87 113 67
88 114 68
90 117 70
145 161 154
177 189 194
185 197 204
194 205 212
184 197 203
169 182 184
167 180 181
179 191 195
188 199 204
175 189 191
184 196 202
169 182 185
106 130 96
84 110 66
94 122 74
89 117 71
81 107 62
87 114 67
92 118 71
87 113 68
87 114 68
86 112 67
91 119 72
89 116 69
88 114 67
137 154 145
184 195 204
188 201 207
174 187 190
169 183 183
161 174 174
149 165 158
146 163 157
132 151 138
116 137 110
101 125 91
93 119 77
86 112 66
93 120 72
90 117 70
138 155 143
187 198 201
185 197 201
193 204 212
185 198 205
186 198 206
174 187 192
180 193 198
187 199 205
188 200 208
188 200 207
181 193 197
186 197 201
174 187 189
182 194 197
187 199 204
191 202 208
88 115 69
89 116 69
89 116 69
90 117 71
92 119 72
89 116 70
87 114 68
91 118 71
86 112 68
91 118 71
90 117 70
89 116 70
91 118 71
90 117 69
85 112 67
91 119 72
86 113 67
89 116 69
188 200 207
191 202 209
188 200 206
182 194 197
186 198 205
186 199 207
187 198 204
186 198 204
191 202 209
197 207 215
192 204 214
199 210 221
188 200 209
195 206 216
190 202 211
188 201 210
187 199 207
190 203 214
195 207 216
87 114 67
84 110 64
84 110 64
88 114 67
86 112 66
86 112 66
87 113 67
86 112 66
87 114 68
87 114 68
85 111 65
89 115 68
89 116 69
83 109 64
88 115 68
85 111 65
84 110 64
90 116 69
83 110 64
86 111 65
190 203 213
192 204 213
195 206 214
196 207 215
185 197 204
195 207 216
187 198 206
185 197 205
192 204 214
195 205 213
189 201 208
192 204 212
183 196 205
194 206 215
186 200 212
192 203 213
192 204 214
184 196 205
191 203 212
191 203 213
183 195 202
86 112 67
82 109 64
86 112 66
82 108 63
85 111 66
90 116 69
89 116 69
84 111 65
86 113 66
86 113 66
87 114 67
87 114 68
85 111 65
84 110 64
87 114 67
81 108 63
89 116 68
90 117 70
89 115 69
88 114 67
87 113 67
196 207 218
181 194 204
198 208 217
200 211 221
191 202 212
190 201 210
191 202 211
193 204 212
181 193 200
192 204 213
195 205 213
178 191 197
196 207 217
192 203 212
181 193 200
187 199 208
186 197 204
190 202 209
188 199 206
192 204 213
189 201 211
89 115 68
86 113 67
86 112 66
88 114 67
86 112 66
83 109 64
89 116 69
89 116 69
86 112 66
86 112 67
88 114 68
90 116 69
82 108 63
83 110 65
85 111 66
85 112 66
86 112 66
86 112 66
85 111 66
88 114 68
87 113 66
182 195 202
190 203 214
185 197 204
175 188 194
193 204 211
187 199 207
194 206 216
193 205 215
190 202 212
194 205 214
188 200 209
200 211 220
189 201 210
195 207 216
187 199 206
187 198 205
192 204 212
190 202 211
188 200 210
193 205 212
188 199 208
91 118 71
81 106 62
85 111 65
90 116 69
81 107 62
87 114 67
86 112 66
83 109 64
83 109 64
90 117 69
87 113 67
86 112 66
83 110 65
83 109 64
84 110 64
84 110 65
88 114 68
88 115 68
85 111 65
101 122 93
188 200 208
190 201 208
186 198 208
190 202 212
187 199 208
195 207 217
189 200 207
184 196 201
187 199 208
181 194 201
187 199 204
180 192 196
187 198 203
195 205 211
183 196 202
177 189 192
176 189 192
186 197 202
165 178 176
85 112 67
89 117 71
87 113 67
89 116 70
91 119 72
90 117 71
87 113 67
90 117 70
87 114 69
92 119 71
91 118 72
85 111 65
87 113 68
95 122 74
92 119 71
86 112 67
88 115 70
169 183 186
170 184 185
172 185 186
175 188 191
181 193 194
180 192 196
196 207 215
172 185 187
180 192 195
183 195 201
188 199 207
179 192 198
171 185 188
167 182 184
178 191 192
177 189 193
131 149 132
99 123 89
116 138 111
124 144 127
128 147 129
149 164 160
157 173 171
173 187 189
174 187 190
181 194 200
183 195 201
190 201 211
182 195 205
193 203 213
183 195 204
94 119 79
86 112 68
85 112 67
88 115 70
89 115 69
91 118 70
88 116 70
86 113 67
86 113 68
92 119 73
87 114 68
89 117 70
92 118 74
180 192 195
173 186 191
163 177 178
168 181 180
171 184 186
169 182 186
173 187 190
162 176 176
171 184 186
180 192 195
185 197 201
109 131 106
91 118 72
87 114 69
89 116 70
86 112 67
87 113 67
83 109 65
88 114 68
84 110 65
103 124 100
178 192 201
177 190 197
189 202 211
188 200 209
178 191 201
184 196 207
180 194 202
182 195 202
85 110 69
77 101 58
82 109 65
75 100 57
82 107 63
85 110 67
160 175 175
174 186 189
168 182 183
164 178 179
157 171 170
112 133 108
144 160 150
171 184 187
128 145 134
82 108 64
224 237 254
204 218 230
165 179 179
95 119 83
82 109 66
165 178 178
183 196 205
184 196 204
166 179 181
126 144 131
154 169 166
175 188 193
180 192 196
165 178 176
83 110 65
88 115 69
89 116 70
83 109 65
84 110 65
82 108 63
146 161 157
184 196 204
180 193 200
182 196 204
184 197 204
181 193 198
185 198 207
184 198 207
154 170 166
81 107 63
84 110 65
85 111 65
87 113 67
89 116 69
84 110 65
85 110 65
85 111 66
86 113 67
155 169 163
183 195 202
183 195 199
184 196 202
177 189 193
185 196 201
180 192 195
182 194 198
184 195 201
183 195 199
191 202 210
186 198 202
97 122 81
88 113 67
90 117 71
88 114 68
86 113 67
90 116 70
79 105 61
89 116 69
90 117 70
87 114 67
86 112 67
83 109 64
92 119 72
159 174 171
185 196 204
170 183 184
187 198 204
180 192 197
183 195 202
187 199 206
181 194 200
178 191 197
183 196 200
184 196 200
190 202 209
182 194 200
184 197 205
184 196 203
87 114 67
87 113 67
90 117 70
85 111 66
90 116 69
87 113 67
88 113 71
109 130 105
102 124 90
114 135 113
126 144 125
148 165 155
155 170 165
155 170 166
159 173 169
167 180 180
100 124 88
102 126 92
92 119 71
91 117 71
88 115 69
91 118 72
92 119 71
90 117 70
87 114 69
86 112 66
92 119 72
90 117 71
83 109 65
90 118 71
91 118 71
88 115 69
90 117 69
93 120 76
180 193 198
176 189 193
178 191 195
173 187 190
185 197 202
190 201 207
175 188 190
176 189 193
183 194 199
185 196 201
185 196 200
181 194 198
189 200 205
189 201 209
191 202 209
176 189 193
183 195 200
178 191 194
165 179 178
90 117 69
86 113 67
92 119 73
90 117 70
89 117 70
90 116 70
89 116 71
91 119 71
90 117 71
93 121 73
92 119 73
92 119 71
88 115 69
86 112 67
91 118 72
91 118 71
91 118 71
87 114 69
92 119 71
134 151 133
171 183 186
180 191 193
189 201 208
176 190 196
185 197 203
180 192 197
184 195 199
192 203 208
179 192 195
185 197 202
194 205 212
184 197 206
189 201 208
177 190 194
189 200 206
187 199 206
185 197 203
188 200 206
195 206 214
191 203 211
91 118 70
85 111 65
88 114 68
85 111 65
87 113 67
90 117 70
86 113 67
88 115 69
85 111 66
88 114 69
88 115 69
91 118 71
88 114 67
84 110 65
91 117 70
86 113 67
84 111 66
83 109 64
89 116 69
86 113 67
88 114 67
182 195 203
182 194 199
190 201 210
194 205 215
185 197 205
184 196 203
182 195 200
187 199 209
189 201 208
189 201 208
195 206 216
196 207 218
191 203 212
191 203 211
198 210 220
189 201 208
186 198 205
193 204 212
176 189 193
198 208 217
186 198 205
88 114 68
90 117 70
89 116 69
86 112 67
89 116 69
88 115 68
91 118 70
91 118 70
88 115 68
87 113 67
86 112 66
88 114 68
86 112 66
88 115 68
90 117 70
89 116 69
89 116 69
82 108 64
88 115 69
84 110 65
87 114 68
183 194 199
183 196 202
186 198 204
181 193 200
186 199 207
184 196 202
183 196 203
191 203 210
187 198 205
179 193 199
190 202 211
187 198 204
179 191 195
183 196 202
177 189 194
174 187 190
186 198 203
193 203 211
187 200 209
183 194 199
119 139 115
87 115 69
87 114 69
90 117 70
91 117 70
89 116 69
87 113 68
92 119 72
87 113 68
91 117 71
90 117 71
89 117 70
91 118 70
88 115 69
92 119 72
93 120 72
87 114 69
87 114 69
90 117 71
87 114 69
173 186 188
180 192 196
179 192 198
181 192 196
182 194 196
177 190 194
191 202 209
177 189 191
181 193 196
192 203 209
178 190 194
178 190 192
190 201 208
175 188 192
177 189 193
176 190 194
187 198 204
184 196 201
155 170 164
90 117 70
91 118 71
92 118 71
91 117 70
92 119 71
88 114 68
87 114 68
87 114 69
87 115 69
93 121 73
92 119 71
97 124 83
108 132 98
117 137 114
125 145 126
132 151 134
140 158 146
136 152 141
138 154 143
118 136 119
117 136 116
111 131 105
100 123 85
85 111 65
88 115 68
79 105 61
90 117 70
86 113 67
84 110 64
91 117 70
87 114 68
87 113 67
96 120 80
184 197 203
179 192 196
178 190 192
178 190 195
178 190 194
174 185 189
176 189 192
175 188 193
181 192 195
183 194 199
172 185 188
182 194 198
176 189 195
191 202 208
122 141 122
87 114 69
85 112 67
91 118 71
89 116 69
86 112 67
86 113 67
88 115 69
87 113 67
86 113 67
85 112 68
86 112 67
86 113 68
166 180 178
176 189 192
171 183 187
185 198 203
174 186 188
176 188 191
163 177 179
187 198 204
181 194 202
182 194 201
185 198 206
133 150 138
83 109 65
79 105 61
79 104 61
81 107 63
82 107 62
84 110 65
80 105 61
80 105 61
100 121 94
175 189 197
190 201 211
179 192 200
189 200 210
185 199 211
190 201 208
175 189 197
160 176 175
84 110 64
83 109 65
85 111 67
89 115 69
86 112 68
99 122 92
154 169 168
161 175 173
145 159 152
112 130 113
127 146 136
177 190 200
156 171 173
163 177 177
93 117 81
102 124 96
183 196 204
224 237 254
224 237 254
224 237 254
224 237 254
224 237 254
202 215 228
136 154 141
86 113 67
123 142 121
169 182 184
182 195 201
170 184 190
116 136 111
77 103 59
77 103 60
86 112 68
103 124 95
140 156 144
115 136 110
88 115 69
88 115 69
87 113 68
87 114 68
128 147 129
183 195 199
174 187 191
189 201 208
181 193 197
188 200 210
192 204 213
180 193 200
149 165 160
86 112 67
83 109 64
88 115 69
84 110 65
82 108 63
81 106 61
89 116 69
88 114 68
80 107 63
162 176 178
188 199 205
186 199 209
183 195 203
195 206 216
191 202 211
192 203 213
188 200 208
195 206 216
188 201 212
191 202 210
154 169 167
86 112 67
82 109 64
90 117 70
85 111 66
85 111 66
89 116 70
86 113 67
89 115 68
90 117 71
88 115 69
84 110 65
87 114 68
121 140 118
174 188 192
178 191 196
177 189 192
192 203 209
185 197 202
180 193 199
174 186 188
170 183 184
178 191 195
182 193 198
179 191 196
175 188 193
190 201 207
187 198 202
112 133 107
86 112 67
87 115 69
85 111 67
91 118 71
87 114 68
90 118 71
89 116 71
88 115 69
86 113 67
90 117 70
94 121 72
91 118 71
90 117 70
92 119 72
92 120 71
156 171 166
185 197 203
177 189 191
179 192 196
170 184 186
177 190 193
189 202 210
192 203 211
197 207 216
189 201 207
193 205 213
191 202 210
187 199 205
185 197 203
183 196 205
177 191 199
177 190 196
194 205 215
112 134 104
106 128 98
109 130 103
130 147 130
125 144 121
119 138 117
135 151 137
140 156 147
160 174 173
151 165 159
153 168 164
159 173 172
167 182 182
180 193 195
168 181 184
178 191 194
185 196 200
174 187 191
155 171 166
91 118 70
91 118 71
89 116 69
89 116 70
87 115 69
91 119 72
91 118 71
90 117 70
88 114 68
91 118 71
93 120 72
89 116 70
92 120 72
87 115 70
91 118 71
88 114 68
91 118 71
84 110 66
88 115 69
176 188 191
187 198 205
190 201 208
178 191 196
175 188 191
183 194 198
184 197 201
185 197 203
181 193 196
196 206 213
187 199 207
188 200 205
184 196 201
177 190 194
187 198 205
182 194 199
186 198 203
187 198 204
187 198 203
174 187 190
133 152 133
88 115 69
91 118 72
93 120 72
89 115 69
86 113 68
91 118 71
91 119 72
86 113 67
90 117 70
92 119 72
90 116 70
86 112 67
90 117 71
90 117 71
89 115 69
84 111 66
91 118 72
88 115 69
90 117 70
90 117 71
181 194 199
182 194 199
184 196 201
180 193 196
186 198 205
176 189 193
190 201 205
170 184 188
194 204 210
188 199 202
178 191 194
188 199 205
174 187 189
177 190 194
181 193 197
184 195 199
185 196 200
183 194 198
178 190 192
186 198 202
173 186 189
89 116 70
87 114 68
91 119 72
94 121 73
93 121 73
90 117 71
91 118 70
90 117 70
90 117 71
89 116 70
90 117 70
91 118 72
88 114 68
89 116 70
90 117 70
89 116 69
91 118 71
89 116 70
88 114 68
88 115 69
116 139 110
172 185 188
183 195 201
192 204 211
180 191 193
189 200 206
179 192 197
190 200 205
179 191 195
179 192 196
180 192 196
186 198 204
185 196 199
184 195 200
176 188 192
177 189 194
187 198 203
188 199 203
181 193 197
178 191 195
186 198 203
91 117 70
87 114 69
90 117 70
90 117 70
89 116 70
89 116 70
89 116 70
92 119 72
89 116 70
89 116 71
87 114 69
90 117 70
86 113 68
89 117 70
90 117 70
86 112 67
92 119 74
103 126 94
103 127 99
164 178 176
162 176 174
162 176 174
154 168 163
149 164 157
156 170 164
127 145 131
146 160 153
120 138 121
122 140 123
124 142 122
105 127 98
115 134 111
95 118 84
95 120 79
90 115 73
81 107 62
87 114 67
147 163 156
195 206 216
192 204 214
187 198 206
178 192 199
181 193 198
172 185 191
192 203 212
185 197 204
179 192 196
182 194 202
188 199 205
185 196 202
175 188 192
179 191 193
183 196 202
185 196 200
158 172 167
90 118 71
87 114 68
90 117 72
87 114 68
86 113 68
91 118 71
85 112 67
85 112 67
88 115 69
88 115 69
90 118 71
89 116 70
89 116 71
88 115 70
89 116 70
143 159 147
176 189 192
178 190 195
182 194 198
178 192 197
180 192 197
170 183 188
179 191 194
170 183 186
176 189 193
179 191 197
181 192 194
177 190 196
169 181 185
175 189 193
86 113 68
87 114 68
86 113 68
90 117 71
88 115 69
85 112 68
86 112 67
88 115 68
88 115 69
84 110 65
81 107 62
83 108 63
155 170 166
185 198 208
186 198 207
186 198 207
186 199 210
181 193 200
179 192 198
188 201 212
190 202 211
187 199 208
196 207 218
130 147 134
82 108 63
79 104 60
78 104 61
80 105 61
80 105 62
78 103 60
80 106 62
84 109 65
129 145 129
183 197 207
180 193 198
183 195 202
172 185 191
172 185 186
172 185 190
180 192 196
121 141 125
83 110 65
85 111 66
102 126 93
128 147 130
150 165 160
146 161 154
76 101 58
83 109 64
83 110 65
84 108 70
145 161 151
167 180 182
171 183 185
126 145 131
90 117 73
170 184 189
221 234 252
224 237 254
224 237 254
224 237 254
224 237 254
224 237 254
224 237 254
224 237 254
224 237 254
224 237 254
224 237 254
187 201 211
123 142 121
88 114 72
162 175 170
181 192 198
174 186 190
140 157 148
86 113 67
89 116 70
84 111 66
85 111 66
143 158 154
190 202 209
179 192 198
190 201 210
177 189 195
160 174 170
157 171 166
164 178 177
176 188 191
174 187 190
177 189 192
174 187 190
181 192 197
172 185 187
162 176 175
91 119 71
87 113 67
82 108 65
83 110 66
85 112 66
82 108 64
83 109 63
83 110 64
85 111 65
176 189 191
195 206 214
187 199 206
182 195 202
180 192 200
180 193 198
195 205 215
182 195 203
193 205 215
189 201 210
183 194 199
139 156 147
82 108 63
87 113 67
84 110 65
81 107 63
85 112 66
87 113 66
84 109 64
85 111 66
87 113 67
87 113 68
84 110 64
84 110 65
162 175 174
185 197 204
179 191 193
187 200 209
187 199 206
173 186 189
184 196 201
188 199 206
178 191 195
188 199 204
181 193 196
174 187 191
179 191 195
181 194 200
173 186 187
88 115 70
88 114 68
85 112 67
89 116 69
89 116 70
91 118 71
91 118 71
90 118 72
87 113 68
89 116 70
85 111 67
87 114 68
88 114 68
88 115 69
88 115 69
115 136 110
179 191 194
178 190 193
186 197 202
179 191 195
180 192 198
175 187 191
184 195 200
168 181 180
176 188 192
182 195 200
186 197 204
176 190 194
181 194 198
183 195 201
174 186 190
184 195 199
189 201 208
86 113 67
88 115 68
87 114 68
91 118 70
87 114 68
84 111 66
91 119 72
92 120 72
88 115 69
88 115 69
92 120 72
85 112 67
91 118 71
92 119 71
90 117 70
87 114 68
81 107 63
87 113 67
163 176 174
189 200 207
176 189 193
182 194 200
174 187 191
184 195 201
182 194 199
186 198 204
184 196 203
185 197 204
188 201 208
184 196 202
193 206 216
187 198 205
191 202 208
181 193 200
175 189 195
186 197 203
193 204 212
179 191 193
82 107 63
88 115 69
86 113 67
88 114 68
82 107 62
86 113 67
91 116 74
82 108 67
98 122 85
88 111 76
106 128 95
94 119 80
107 129 99
114 133 111
104 126 95
111 132 105
120 140 119
118 138 114
115 136 110
123 142 124
160 174 172
166 180 177
174 187 191
154 170 167
149 166 162
165 180 180
160 174 168
149 165 158
145 161 149
143 160 151
152 168 161
155 170 164
153 169 164
148 165 158
147 162 153
142 159 150
135 153 137
152 168 159
150 166 158
153 169 163
141 157 147
140 155 142
154 167 162
146 161 152
160 172 168
137 154 141
149 164 157
150 165 155
154 169 161
147 163 155
146 162 151
148 163 157
135 152 135
146 162 152
135 152 142
152 168 162
150 164 156
149 164 155
152 167 160
136 152 143
152 167 160
142 159 151
146 162 149
147 163 153
142 161 149
155 170 167
145 161 153
148 164 157
152 168 160
153 169 162
153 168 164
159 174 171
161 176 174
165 179 180
165 179 179
171 185 189
172 185 187
168 182 182
165 178 180
158 173 173
168 182 182
113 132 111
98 120 86
95 118 82
113 135 107
95 117 84
108 129 102
89 114 73
90 115 73
88 114 71
82 109 63
85 111 65
83 109 63
86 113 67
85 111 66
77 102 59
85 112 66
86 112 67
85 111 65
88 114 67
86 112 66
181 193 200
194 204 211
190 202 210
192 203 213
178 190 194
191 203 212
188 199 208
178 191 196
188 200 206
193 204 214
179 191 193
180 192 195
181 194 202
181 193 198
182 195 200
185 197 203
182 194 197
178 190 196
182 194 199
105 128 99
89 116 70
90 118 71
87 114 68
88 114 68
87 114 68
89 116 69
88 115 69
86 113 68
88 115 70
84 111 65
87 114 68
89 116 70
89 116 69
91 117 70
88 114 68
89 115 68
91 118 71
147 163 155
178 190 193
175 188 191
179 191 197
179 192 197
175 188 190
176 189 192
172 185 189
186 198 204
180 192 195
177 189 190
185 196 203
177 189 192
181 193 197
177 190 193
179 191 196
179 191 194
124 142 120
89 116 70
91 118 71
87 114 68
88 115 69
83 110 65
91 118 71
93 120 72
82 108 65
90 117 71
86 113 68
86 113 68
93 120 73
92 119 71
92 120 73
86 112 70
167 180 181
173 186 190
180 193 200
181 193 199
181 192 194
177 190 194
189 201 209
173 186 190
183 194 203
172 186 192
172 185 190
191 202 212
188 200 209
185 196 204
100 122 91
79 104 60
77 102 59
85 111 66
84 109 64
83 109 64
82 107 63
83 109 64
81 107 62
85 111 66
86 113 67
86 112 66
140 157 152
184 197 207
192 203 213
186 199 208
186 198 206
189 201 210
181 194 201
187 199 208
177 189 195
186 198 206
187 199 207
133 151 140
81 107 63
87 114 68
85 110 65
89 115 69
85 112 67
81 107 64
84 111 67
90 117 70
129 147 133
184 195 200
174 187 188
174 187 191
165 179 179
163 177 174
147 162 157
141 156 146
181 194 200
181 194 203
186 199 208
181 193 200
179 192 202
174 187 193
116 135 111
83 110 66
83 109 66
82 108 63
102 124 95
160 173 171
167 180 181
136 152 141
80 103 69
121 137 126
210 223 238
224 237 254
224 237 254
224 237 254
224 237 254
224 237 254
224 237 254
224 237 254
224 237 254
224 237 254
224 237 254
224 237 254
224 237 254
224 237 254
224 237 254
224 237 254
214 227 243
162 178 176
85 110 70
111 131 108
181 192 198
185 197 201
169 183 185
102 125 95
86 113 68
85 112 67
84 112 67
113 134 107
177 190 194
178 190 194
186 199 205
178 190 194
182 195 200
186 199 207
106 128 100
80 106 62
84 110 64
83 109 65
97 120 88
122 140 120
131 148 136
151 167 161
89 115 76
84 110 65
89 115 68
83 109 65
89 116 70
89 116 70
92 119 72
89 116 70
81 107 64
160 174 170
188 200 207
176 187 188
186 198 204
182 195 201
179 193 201
178 191 196
180 193 200
185 197 205
192 204 214
186 198 207
122 141 125
80 106 62
83 109 64
88 115 67
89 115 69
83 109 64
84 110 65
85 111 65
84 111 66
90 117 70
88 114 67
78 104 60
89 113 74
188 201 211
197 208 217
190 201 209
188 201 209
182 194 202
184 196 202
192 203 213
186 197 205
188 200 210
185 197 204
186 197 204
184 196 204
186 198 205
187 198 206
106 128 100
83 109 64
86 113 67
85 111 66
91 118 71
90 117 69
84 111 67
87 114 68
86 113 68
86 113 67
90 117 70
87 114 68
89 115 68
89 116 69
90 117 71
83 108 63
181 193 196
180 192 196
187 198 203
186 197 201
189 200 206
184 195 201
170 182 183
176 188 190
181 193 197
176 188 189
187 199 205
186 197 201
182 194 199
172 185 189
174 187 190
176 189 193
184 195 201
89 116 69
88 115 70
88 115 69
85 111 66
86 113 69
94 122 74
87 114 68
87 114 69
89 116 70
87 113 67
90 117 70
84 110 66
88 116 69
87 113 67
88 115 68
89 116 70
90 117 70
86 113 68
179 192 195
172 185 187
180 192 200
181 192 194
185 196 200
181 193 197
177 190 193
185 196 201
180 192 197
174 188 191
184 196 201
185 197 202
185 197 204
180 192 196
180 192 195
169 182 182
189 201 210
164 178 178
172 185 187
99 123 86
89 116 70
86 112 67
87 114 68
89 116 70
90 117 70
91 118 71
91 119 73
86 113 67
91 118 71
89 116 69
90 117 70
87 113 67
88 115 68
89 116 69
90 117 71
89 116 69
89 117 71
90 117 70
89 116 69
187 198 203
181 192 196
186 198 203
180 192 195
179 191 195
186 197 202
175 188 192
187 199 205
182 194 200
183 194 199
179 192 196
177 190 194
179 192 196
171 184 187
185 197 203
186 198 202
171 184 186
174 187 189
188 199 206
167 181 184
96 121 85
86 113 68
89 117 71
88 114 68
90 117 71
90 117 70
91 118 71
86 113 67
87 114 68
88 115 69
87 114 68
87 115 69
88 115 69
87 115 69
87 114 68
90 117 71
88 115 69
89 116 69
89 116 70
86 113 67
121 141 116
189 200 207
181 193 197
189 200 206
183 194 199
171 183 185
179 191 195
185 197 203
183 194 201
182 195 200
181 193 197
178 190 195
183 194 199
172 184 187
184 196 200
174 186 190
181 192 196
181 194 199
179 191 195
180 193 197
181 193 198
92 120 72
91 118 71
89 116 69
87 114 68
88 115 69
90 117 71
89 116 70
88 115 68
90 117 70
89 116 70
90 117 70
86 113 68
85 111 67
87 114 68
84 110 65
89 115 70
87 114 68
84 111 66
86 112 67
146 162 152
185 196 202
194 205 210
173 185 187
177 189 194
172 185 188
182 194 199
186 197 203
178 190 193
179 190 193
182 194 198
183 195 201
178 191 196
188 200 205
178 191 193
173 185 187
190 202 209
179 191 195
173 185 188
126 145 126
89 117 70
91 118 71
89 116 69
84 110 65
87 113 68
90 117 71
91 118 70
92 119 72
91 118 71
87 113 67
86 113 68
90 117 71
85 112 67
86 113 67
84 111 66
90 117 71
86 113 68
150 165 157
180 192 196
176 188 192
172 185 187
185 196 200
181 192 195
176 188 192
181 193 199
170 183 184
181 192 196
170 182 184
176 189 192
172 185 188
175 188 193
181 192 195
180 192 195
184 195 200
106 129 97
88 115 69
84 110 65
88 115 69
82 108 63
86 112 67
84 110 65
83 109 64
89 116 69
85 111 65
80 105 61
83 109 64
84 110 65
80 105 61
84 110 65
149 165 157
184 197 206
190 201 211
184 197 207
183 196 204
189 200 209
181 193 202
182 196 205
184 197 205
190 203 214
183 195 201
184 197 205
183 195 204
193 204 215
131 147 136
85 111 65
82 108 64
77 102 59
81 106 61
85 112 66
72 97 55
81 107 63
76 102 59
80 105 61
83 109 64
79 105 61
119 137 118
190 202 212
185 197 207
182 194 201
181 194 202
176 189 195
175 187 190
174 188 191
172 184 187
177 190 195
177 188 190
122 140 123
87 113 68
88 114 69
85 111 66
85 111 66
87 114 69
87 114 69
111 133 106
126 145 129
97 120 90
105 125 102
80 104 63
84 110 64
78 102 58
77 102 59
81 106 62
97 117 92
169 182 185
169 182 184
175 187 190
167 180 182
166 179 179
136 152 143
83 110 66
82 109 65
84 110 66
92 116 77
143 159 152
169 181 183
179 192 201
123 139 130
88 108 78
188 202 211
224 237 254
224 237 254
224 237 254
224 237 254
224 237 254
224 237 254
224 237 254
224 237 254
224 237 254
224 237 254
224 237 254
224 237 254
224 237 254
224 237 254
224 237 254
224 237 254
224 237 254
224 237 254
224 237 254
224 237 254
224 237 254
194 208 217
99 118 96
104 125 97
150 164 160
177 189 196
175 188 193
140 155 149
86 111 66
86 113 68
89 116 70
84 110 65
150 165 157
175 187 191
164 177 179
177 189 192
172 185 189
172 185 188
123 143 120
81 107 63
89 117 71
87 113 68
85 111 66
86 111 66
86 113 68
95 119 80
173 186 189
178 192 201
184 196 203
184 196 205
176 189 195
147 164 161
154 169 165
136 154 141
115 135 112
167 180 178
174 186 188
176 189 194
186 198 203
176 188 194
187 199 207
179 191 194
180 192 195
167 180 183
186 198 205
181 193 199
107 129 99
88 114 67
82 109 65
87 114 68
86 113 67
88 114 68
84 110 65
83 109 64
81 107 62
81 107 63
90 117 70
87 114 68
117 136 115
194 205 214
184 197 205
179 192 200
188 201 211
186 199 210
183 196 203
191 202 210
188 200 209
182 195 202
183 195 201
189 202 211
192 203 213
191 202 210
163 177 176
85 111 65
84 110 64
83 110 64
85 111 66
86 112 67
85 111 65
84 110 64
91 117 70
84 111 66
82 108 64
84 110 65
86 112 66
82 108 64
85 112 66
84 110 64
180 193 200
187 199 207
187 200 209
181 193 200
192 204 213
191 202 212
183 195 201
187 200 210
182 194 201
176 188 195
181 193 199
182 194 200
182 194 202
191 203 212
190 202 209
193 204 211
190 201 209
86 113 68
85 111 66
88 116 69
81 108 63
84 110 66
88 115 69
88 115 69
91 119 72
84 111 65
91 118 71
90 116 70
91 117 70
83 109 64
86 113 67
85 112 68
89 116 70
89 116 70
87 114 69
177 190 196
180 192 197
183 194 197
185 197 203
187 198 203
182 195 200
171 184 186
178 191 195
188 198 200
180 193 196
187 198 203
172 184 185
187 199 203
179 191 195
186 198 205
176 189 193
176 188 192
174 186 188
179 192 197
90 117 71
87 113 68
87 114 69
89 117 71
89 116 70
90 117 70
88 114 68
88 115 69
91 118 71
90 117 70
85 112 67
87 114 68
90 117 70
86 113 67
91 119 71
83 109 65
89 115 68
89 116 69
85 111 66
159 173 170
176 189 194
177 190 195
175 187 191
181 194 199
178 191 195
181 194 198
176 189 192
187 198 206
178 190 196
184 195 201
189 200 206
174 187 190
184 196 201
192 204 213
187 198 204
174 187 191
187 198 203
175 187 191
178 190 194
127 146 124
84 110 65
90 117 70
87 114 69
89 116 69
89 116 70
90 117 70
89 116 70
88 114 68
87 113 67
88 115 69
88 115 69
90 117 70
89 116 70
88 115 68
84 111 67
92 119 72
89 116 70
88 114 68
92 119 72
143 158 147
171 184 185
180 191 195
178 190 192
174 186 189
188 199 205
170 183 185
179 191 196
175 187 190
185 196 200
181 193 198
187 198 203
184 196 202
179 190 194
176 188 192
191 202 207
173 185 187
174 186 189
177 190 192
183 195 200
132 151 133
89 116 70
91 118 72
89 115 69
90 117 71
88 115 69
88 115 69
91 119 71
89 116 70
88 116 70
89 116 70
87 114 68
89 116 71
88 115 70
91 119 72
92 119 72
90 117 70
87 114 68
92 119 72
89 117 71
185 197 201
169 183 187
185 197 203
169 183 186
173 186 187
186 199 206
191 202 208
185 197 201
174 186 190
174 186 190
178 190 193
179 192 195
186 197 203
169 182 184
176 188 190
175 188 191
177 190 192
182 194 199
138 154 145
90 117 70
86 112 68
91 118 71
85 111 67
90 117 71
83 110 65
85 112 67
85 112 67
89 115 68
88 114 69
85 112 68
81 107 63
85 112 66
86 112 67
84 110 65
89 116 70
80 106 63
169 182 183
185 198 207
185 198 207
195 206 216
179 191 198
187 198 205
187 199 208
189 202 212
192 204 213
185 198 208
189 201 210
182 194 201
185 197 206
191 202 211
182 194 201
192 203 212
175 189 194
89 115 69
86 112 66
81 107 63
85 111 65
90 117 69
83 108 63
82 108 63
88 115 68
83 109 65
86 112 66
79 104 61
75 101 58
82 107 63
84 109 64
76 101 62
173 187 193
187 199 208
186 198 206
181 194 202
182 194 201
196 208 218
189 201 212
175 188 193
182 195 202
186 199 211
194 205 213
186 198 207
181 194 202
162 176 179
84 110 64
85 112 66
84 110 65
80 106 63
80 106 62
86 112 67
83 109 66
84 110 65
85 111 67
84 110 65
86 113 68
102 125 92
174 187 190
168 181 181
168 181 184
166 179 179
160 173 172
176 188 191
166 179 179
163 176 175
163 177 175
149 164 156
174 187 192
155 171 166
171 185 189
190 202 210
187 199 210
188 199 208
189 200 209
184 198 209
183 195 202
118 136 117
80 105 62
84 111 66
82 109 66
83 108 64
85 111 67
86 112 67
134 152 136
166 179 181
163 178 179
159 172 171
164 177 176
158 172 172
117 136 118
84 110 66
81 107 64
77 102 59
115 133 119
185 197 207
178 191 198
136 151 144
109 127 110
150 165 164
223 236 253
224 237 254
224 237 254
224 237 254
224 237 254
224 237 254
224 237 254
224 237 254
224 237 254
224 237 254
224 237 254
224 237 254
224 237 254
224 237 254
224 237 254
224 237 254
224 237 254
224 237 254
224 237 254
224 237 254
224 237 254
224 237 254
224 237 254
224 237 254
224 237 254
224 237 254
224 237 254
176 191 194
152 165 165
153 167 166
168 181 185
176 188 195
184 196 203
109 127 109
76 101 58
81 107 62
84 109 64
116 136 117
184 195 198
178 190 193
177 189 193
172 185 189
164 177 177
145 160 154
88 115 70
88 114 69
86 113 68
89 115 69
86 112 66
83 109 65
85 112 67
160 174 172
184 197 202
183 195 201
182 194 198
177 190 195
181 194 200
182 194 201
177 189 194
189 201 209
115 135 114
88 115 68
81 107 63
85 112 66
87 113 67
107 127 99
112 131 112
126 145 125
143 159 149
153 168 164
167 180 181
87 113 69
89 117 70
85 111 67
83 109 64
87 113 68
89 115 69
89 115 68
89 116 71
88 115 69
88 115 69
86 112 67
88 115 69
153 168 160
182 194 201
180 192 195
174 187 188
180 191 194
186 198 204
180 192 197
187 199 206
185 197 204
181 193 199
181 194 203
182 194 200
190 203 213
190 201 210
108 130 105
79 104 60
82 107 62
84 111 65
78 103 60
86 112 67
83 109 64
84 110 65
81 107 63
83 109 64
85 111 65
82 107 62
87 113 67
82 109 64
87 113 66
145 162 154
185 198 207
195 207 216
180 192 199
189 201 209
193 204 212
181 195 202
195 206 216
177 190 194
186 197 205
202 212 222
186 197 204
194 206 215
183 196 204
183 195 202
186 198 206
182 195 202
86 110 67
83 109 64
83 109 64
77 103 59
84 110 64
85 111 65
81 107 63
87 114 68
88 114 68
86 113 67
85 111 65
83 108 63
85 111 65
83 109 65
88 114 67
84 109 64
86 112 66
95 119 83
189 199 206
189 201 209
184 197 204
179 192 199
191 203 212
181 194 203
190 202 211
190 202 212
194 206 217
188 200 206
184 197 206
195 206 218
192 205 216
182 195 203
190 202 210
185 198 207
194 205 215
189 200 207
123 143 124
84 110 65
89 116 69
85 111 66
88 115 68
87 114 68
83 108 63
88 114 68
85 111 66
82 108 63
87 114 69
86 113 68
85 111 65
88 115 69
83 109 64
86 112 66
87 113 68
87 114 68
87 113 67
96 120 84
179 191 195
179 192 198
181 192 197
180 193 197
185 197 203
185 197 204
176 188 192
182 193 198
178 191 197
173 186 191
183 195 201
190 201 208
176 188 193
177 189 194
184 196 202
177 189 193
178 190 195
181 192 196
165 179 178
140 157 144
89 116 70
91 118 71
89 115 69
91 118 71
90 116 70
87 113 69
84 110 66
89 115 68
83 109 65
88 115 69
83 109 64
91 118 70
92 120 72
87 114 69
92 119 72
86 113 68
93 120 74
91 118 70
89 115 69
169 183 185
174 187 188
187 199 205
176 189 192
176 188 189
182 194 200
181 193 197
183 194 198
177 190 195
187 198 206
181 193 198
180 193 197
178 190 194
182 194 198
180 192 197
183 194 200
187 198 203
184 195 201
183 196 203
175 188 192
84 110 66
91 118 70
91 118 71
88 114 68
85 111 65
88 115 69
87 113 67
77 103 60
83 108 63
86 112 66
86 112 66
85 111 66
91 118 71
86 113 67
87 113 67
87 113 67
85 111 65
88 115 69
85 111 65
182 196 202
182 194 201
186 198 206
189 201 208
186 198 205
183 195 202
180 193 200
181 194 202
184 197 205
190 202 211
192 204 214
188 199 207
185 196 203
191 202 211
187 200 209
184 196 201
183 195 202
185 198 205
181 194 199
81 106 62
83 109 64
86 112 67
82 108 64
82 108 63
83 108 63
83 109 64
83 108 63
87 113 67
81 107 63
86 112 65
83 109 64
83 109 64
80 105 61
86 112 66
86 112 67
84 110 64
176 189 195
186 199 208
181 194 202
186 198 206
182 195 204
189 200 208
196 207 216
190 202 211
192 204 212
180 193 199
185 196 203
172 185 194
191 203 212
193 205 214
192 203 213
198 209 219
140 156 149
81 107 62
84 110 65
84 111 65
80 106 62
86 112 66
87 113 67
85 111 66
85 111 65
83 109 63
83 109 64
82 108 63
83 109 63
83 110 65
81 106 62
140 156 150
180 192 199
179 191 197
188 200 207
186 197 204
175 187 193
177 189 194
179 191 196
172 184 185
172 185 187
167 179 180
178 190 192
167 179 179
172 186 190
88 114 72
86 113 67
90 116 70
88 115 70
82 108 64
84 111 67
88 115 69
92 119 71
86 113 68
99 124 86
107 129 104
122 142 120
127 143 131
121 139 121
109 131 103
85 110 70
87 113 67
87 113 67
82 108 64
75 101 58
81 107 62
79 104 60
155 170 167
183 195 202
175 187 191
173 185 190
181 194 202
178 190 194
165 178 180
171 185 187
165 178 178
96 120 87
88 115 69
87 114 69
84 111 66
85 112 67
87 114 69
85 111 67
150 165 163
168 180 181
167 180 182
157 170 170
164 178 180
156 170 169
86 110 76
73 98 55
83 109 64
86 109 75
167 180 185
167 180 185
152 168 165
166 180 184
154 169 169
210 222 237
224 237 254
224 237 254
224 237 254
224 237 254
224 237 254
224 237 254
224 237 254
224 237 254
224 237 254
224 237 254
224 237 254
224 237 254
224 237 254
224 237 254
224 237 254
224 237 254
224 237 254
224 237 254
224 237 254
224 237 254
224 237 254
224 237 254
224 237 254
224 237 254
224 237 254
224 237 254
224 237 254
224 237 254
224 237 254
224 237 254
224 237 254
224 237 254
171 185 188
169 182 185
170 183 187
91 115 76
124 143 125
134 149 139
73 98 55
85 111 65
80 106 62
84 109 66
164 177 180
171 185 189
182 194 202
181 194 202
179 191 198
173 186 190
98 122 86
87 114 69
86 112 67
85 111 67
85 111 66
89 115 68
85 112 68
145 161 154
180 192 198
172 184 186
164 177 177
171 185 189
171 183 185
183 195 200
173 187 190
172 185 188
124 143 123
82 108 64
85 112 67
86 112 67
83 109 64
82 108 64
88 115 68
84 110 65
82 107 62
81 107 62
100 122 93
182 194 202
180 192 200
180 193 201
185 197 203
184 196 203
189 201 209
171 184 188
173 186 188
154 169 167
154 169 162
138 154 143
130 148 129
171 185 184
176 190 194
178 189 192
181 193 197
198 207 215
178 190 193
178 191 198
161 174 175
179 191 195
173 186 188
175 187 191
181 193 199
176 188 191
161 175 172
86 112 67
84 111 66
86 113 68
85 112 68
83 109 65
90 117 71
90 117 70
88 114 68
86 113 67
87 114 68
86 113 68
88 114 68
86 112 67
90 117 70
101 122 94
186 197 204
177 191 198
184 195 203
183 195 202
182 194 201
183 196 205
192 203 211
184 198 206
185 199 209
187 199 208
187 199 208
190 201 209
185 198 205
189 201 210
184 196 203
183 195 202
96 121 81
83 108 63
83 108 63
89 116 69
87 113 67
79 105 61
83 109 64
88 114 68
83 109 63
85 112 66
82 107 63
84 109 64
77 103 60
89 116 68
78 103 60
86 112 67
89 116 69
124 143 126
188 201 212
183 196 205
184 197 204
188 201 213
184 196 201
187 200 209
188 200 206
181 194 204
186 198 206
200 211 224
191 203 212
190 201 210
188 200 209
186 197 203
183 195 203
184 197 207
183 197 206
184 196 203
84 110 65
85 111 65
83 109 63
89 115 69
85 112 67
87 113 67
89 115 68
80 106 62
80 105 61
86 112 66
85 112 67
80 106 61
81 107 63
81 107 62
86 113 67
79 104 61
78 104 61
86 112 67
84 110 65
199 210 221
186 198 206
186 199 209
185 197 203
181 194 201
188 199 208
197 208 217
178 190 197
188 199 206
184 196 204
187 199 207
194 206 216
184 197 208
189 201 210
187 199 206
183 195 204
194 205 213
192 203 210
193 204 212
157 172 170
86 112 66
81 107 63
85 111 66
82 108 63
80 106 62
83 109 65
85 110 65
85 111 66
89 116 69
90 117 69
81 106 62
82 108 63
87 113 67
79 105 61
85 111 65
81 106 62
84 110 65
80 105 62
88 115 69
183 196 203
191 202 209
187 199 209
192 203 211
188 200 208
190 201 209
192 204 214
188 200 207
181 194 202
191 203 214
189 200 211
182 195 203
185 197 207
190 202 212
195 206 216
179 191 197
191 203 213
188 200 210
185 197 204
170 183 186
90 116 69
88 115 68
82 108 64
85 110 65
84 109 64
85 111 65
84 111 65
84 110 65
85 110 65
85 111 65
87 114 67
87 113 67
85 111 66
86 113 67
84 110 64
86 112 66
87 113 67
81 107 62
133 150 138
188 199 208
195 206 217
176 189 194
190 202 210
188 201 210
185 198 204
191 202 210
192 203 210
187 199 209
185 197 208
185 198 208
189 200 210
187 200 208
189 201 210
192 203 212
186 198 205
184 196 203
181 194 203
81 106 62
87 113 67
85 111 65
89 115 68
78 103 59
84 110 64
87 113 67
87 113 67
80 105 61
85 111 65
88 115 68
84 110 65
84 110 65
86 112 66
82 108 63
78 104 60
82 107 63
188 200 209
180 191 197
178 190 199
183 195 202
188 199 208
192 203 211
186 199 209
187 199 208
184 196 204
188 199 209
182 196 205
191 202 210
185 196 202
191 203 211
190 201 209
176 188 193
94 119 83
87 114 68
89 116 70
87 113 68
88 115 69
85 111 65
90 117 70
92 119 71
86 112 67
89 116 70
85 111 67
86 113 68
82 108 64
84 110 65
93 118 78
159 173 172
167 180 181
173 186 190
177 189 191
176 189 193
166 180 181
167 180 183
198 208 216
176 189 193
165 180 182
158 171 170
147 163 157
143 157 153
164 178 182
171 184 186
167 180 183
173 187 193
176 189 195
186 198 207
184 196 205
176 189 198
180 193 200
179 191 197
178 190 197
180 192 200
88 112 74
85 111 66
90 116 70
87 114 68
82 107 64
82 108 64
86 112 67
85 111 67
90 117 71
88 115 72
168 181 180
167 180 183
168 181 183
175 187 191
173 186 189
165 179 179
158 171 170
170 183 185
170 183 185
82 108 65
82 108 65
84 110 66
84 109 65
87 114 68
85 111 65
112 132 112
173 187 193
178 191 198
181 194 205
177 190 199
172 185 189
124 141 129
80 106 62
80 105 62
97 118 93
79 105 65
96 119 90
86 109 75
157 171 169
168 182 189
207 221 234
224 237 254
224 237 254
224 237 254
224 237 254
224 237 254
224 237 254
224 237 254
224 237 254
224 237 254
224 237 254
224 237 254
224 237 254
224 237 254
224 237 254
224 237 254
224 237 254
224 237 254
224 237 254
224 237 254
224 237 254
224 237 254
224 237 254
224 237 254
224 237 254
224 237 254
224 237 254
224 237 254
224 237 254
224 237 254
224 237 254
224 237 254
224 237 254
224 237 254
224 237 254
224 237 254
224 237 254
224 237 254
223 236 253
173 188 191
163 177 178
128 143 133
75 100 57
80 105 62
140 156 146
170 183 187
143 158 150
116 134 115
106 126 105
177 189 195
182 195 202
190 202 209
182 195 203
176 190 196
143 159 156
84 110 65
83 109 64
82 108 63
81 107 63
90 117 70
85 111 67
125 143 126
178 190 193
174 186 188
168 181 183
185 196 202
171 183 185
168 183 185
175 187 190
188 199 205
132 150 136
85 112 66
89 116 69
84 110 66
84 110 66
85 111 66
85 112 67
86 113 68
84 111 66
84 110 65
94 118 84
170 183 185
169 183 186
169 183 186
174 187 192
176 190 194
185 197 204
177 190 197
183 195 201
185 198 207
180 193 200
182 195 203
159 173 173
82 109 64
81 106 62
82 108 62
85 111 65
82 108 63
82 108 63
83 109 64
84 110 65
84 111 65
97 119 87
104 125 99
115 135 114
131 149 136
128 146 129
119 139 116
126 145 126
108 132 104
99 122 89
92 120 72
81 107 63
89 116 71
87 113 68
87 113 68
89 116 70
90 117 70
87 113 68
89 116 70
88 115 69
165 179 179
173 185 187
176 189 194
172 185 188
175 187 190
170 183 184
179 191 194
181 193 197
168 180 182
187 198 204
178 191 197
190 201 205
180 193 199
164 178 178
178 191 193
179 191 197
108 130 101
89 116 70
87 114 68
86 114 67
87 113 68
85 111 65
87 114 68
82 107 63
87 113 68
83 108 64
83 110 65
85 111 66
86 113 67
85 112 66
83 109 65
91 117 70
82 108 63
128 147 134
196 207 218
188 200 210
185 197 206
180 193 202
182 195 205
190 202 212
177 190 197
191 202 208
190 202 210
183 195 199
177 189 196
186 198 206
186 197 205
191 202 210
187 200 209
187 200 210
186 198 204
165 180 181
79 105 61
89 115 68
81 108 63
85 111 66
86 113 67
81 107 63
87 113 67
83 109 64
82 108 63
87 113 67
85 112 67
81 106 62
81 107 63
86 112 66
81 107 63
81 108 63
83 109 64
84 110 65
149 165 161
195 206 215
186 198 206
184 196 204
184 197 207
194 206 216
183 195 203
178 191 199
192 203 213
185 197 205
183 195 201
193 205 214
196 208 220
184 195 202
193 204 214
180 193 199
194 205 214
184 196 203
188 199 210
182 194 199
81 106 61
85 111 65
84 110 65
85 111 66
83 108 64
84 109 64
84 111 65
78 103 60
83 108 63
76 101 58
81 106 62
87 113 66
91 118 70
86 112 66
81 106 62
85 112 66
84 110 64
84 110 64
80 106 62
186 198 205
192 204 215
186 198 207
193 204 213
185 198 205
181 193 200
185 198 207
185 196 203
182 195 205
192 203 215
185 197 204
189 201 211
186 198 206
178 191 199
185 197 203
182 195 202
184 196 203
196 206 214
186 198 208
89 114 73
84 109 64
84 110 65
90 116 69
84 110 65
87 113 67
81 106 62
81 107 63
91 117 70
85 111 65
82 108 64
86 112 65
84 110 64
85 111 66
82 109 64
78 103 59
86 112 66
86 112 66
86 112 66
177 190 198
190 202 211
186 198 210
175 189 196
193 205 213
184 197 207
188 199 206
183 197 206
177 190 196
182 194 200
181 194 201
186 198 207
189 201 211
190 202 211
185 197 206
182 192 198
185 197 205
181 194 199
85 111 66
83 110 65
87 114 68
89 116 70
86 113 67
81 107 63
84 110 65
89 115 69
84 110 65
88 115 70
87 114 69
86 112 67
83 110 65
87 114 68
91 118 71
83 109 65
94 120 76
178 191 198
175 187 189
173 186 187
174 186 190
168 181 181
180 192 197
179 192 197
167 180 185
176 188 192
189 199 205
175 188 193
173 186 188
176 189 193
183 195 200
176 189 193
169 182 184
83 109 64
88 115 69
90 117 70
91 117 71
88 114 69
84 110 65
101 124 92
105 126 98
114 135 116
118 139 118
138 155 142
151 166 160
165 179 177
171 185 187
102 125 97
86 111 67
83 109 64
82 108 63
83 108 64
80 106 61
79 104 61
84 110 65
83 109 64
84 110 65
80 106 62
79 104 61
80 106 61
143 159 151
175 187 193
176 189 194
180 192 198
177 189 194
178 191 194
182 194 198
171 185 190
163 177 178
167 180 182
176 188 191
157 172 172
92 117 78
86 113 68
85 112 67
91 118 72
86 114 69
87 113 68
82 108 64
85 111 66
83 109 65
90 116 76
144 158 153
160 173 172
170 182 185
171 184 186
169 181 182
167 180 181
165 179 180
168 182 186
137 154 144
81 107 64
81 107 63
86 112 66
78 103 60
82 107 63
75 100 57
164 178 179
170 184 189
171 184 191
182 195 204
189 201 212
159 173 177
111 131 109
147 161 157
152 166 166
150 163 164
83 108 69
77 101 59
144 159 156
172 185 190
198 211 222
224 237 254
224 237 254
224 237 254
224 237 254
224 237 254
224 237 254
224 237 254
224 237 254
224 237 254
224 237 254
224 237 254
224 237 254
224 237 254
224 237 254
224 237 254
224 237 254
224 237 254
224 237 254
224 237 254
224 237 254
224 237 254
224 237 254
224 237 254
224 237 254
224 237 254
224 237 254
224 237 254
224 237 254
224 237 254
224 237 254
224 237 254
224 237 254
224 237 254
224 237 254
224 237 254
224 237 254
224 237 254
224 237 254
224 237 254
224 237 254
224 237 254
224 237 254
224 237 254
223 236 253
167 181 184
171 184 190
134 150 144
79 104 61
87 113 72
158 174 174
178 190 196
181 193 200
178 190 193
132 150 138
110 129 109
139 156 149
164 178 180
173 186 194
179 191 195
85 110 74
83 109 64
78 103 60
78 103 59
75 99 57
80 106 62
91 115 80
168 181 184
170 183 189
184 196 203
182 194 202
177 190 195
167 180 183
176 188 191
177 189 194
138 156 144
88 114 68
86 113 67
79 105 63
85 112 67
85 111 66
84 111 65
86 112 67
86 112 67
87 114 68
107 127 102
174 186 190
170 182 186
178 190 194
173 186 189
168 181 183
180 192 197
170 184 188
170 183 184
181 192 197
186 198 205
173 186 189
144 160 151
88 115 69
88 115 69
89 116 69
89 116 70
86 112 67
87 114 68
88 115 69
86 113 67
86 113 67
81 107 63
88 114 68
83 109 64
121 141 120
190 201 207
190 201 212
189 201 209
181 194 200
181 193 200
182 194 202
181 193 200
182 194 202
184 196 203
184 196 204
184 195 203
185 198 208
183 194 201
196 207 219
121 139 127
104 125 97
111 132 104
108 130 103
117 136 110
129 148 129
137 154 140
143 159 150
137 154 145
160 172 168
140 154 145
163 176 175
167 180 182
178 191 194
180 191 196
181 193 199
102 125 91
89 115 69
85 112 67
86 112 67
93 120 72
89 116 71
89 116 69
84 110 66
89 116 69
88 115 70
89 116 70
86 112 67
84 110 66
90 117 71
89 116 69
83 108 64
86 112 67
156 171 168
171 183 187
185 195 200
170 184 187
173 186 191
183 195 202
185 197 204
163 176 177
183 194 200
181 193 197
186 197 202
180 192 195
185 197 204
165 178 178
183 195 201
186 197 202
171 184 187
164 178 179
99 123 85
94 121 73
88 114 68
87 114 67
82 108 64
85 112 67
90 117 70
85 112 67
90 116 70
89 116 69
89 116 70
89 116 70
86 113 67
91 118 71
87 113 68
88 115 69
87 115 69
85 111 65
88 113 69
183 194 200
175 189 195
170 184 188
177 191 197
177 188 189
181 193 199
181 194 200
175 187 191
177 190 196
183 194 200
179 192 197
181 194 199
190 202 211
192 203 212
182 194 199
181 194 201
177 190 196
177 190 196
190 202 211
88 115 68
83 109 65
85 111 67
90 117 70
85 112 66
90 117 71
88 116 69
89 116 69
83 109 64
83 109 65
86 112 66
84 110 65
87 114 68
86 112 66
88 114 68
87 113 68
84 111 66
84 111 67
82 108 64
183 195 202
182 194 200
179 191 197
187 198 204
178 190 196
187 198 205
176 189 196
177 190 196
184 196 200
176 189 195
182 194 200
175 188 192
181 193 197
181 194 198
177 189 192
187 198 203
181 193 200
184 195 199
175 187 189
86 112 67
86 113 67
88 115 69
88 114 69
86 112 67
86 112 67
91 117 70
88 115 69
90 118 71
86 113 68
86 113 67
87 114 68
88 115 69
85 112 67
87 113 68
89 115 69
87 114 69
84 110 65
160 173 171
169 181 183
172 186 190
179 191 197
168 181 183
176 189 193
168 182 183
156 171 169
175 187 189
182 193 197
179 190 192
183 194 199
165 180 182
170 183 187
174 187 191
176 189 192
171 183 186
171 184 187
89 116 70
91 119 72
86 113 68
89 116 71
83 110 66
86 112 67
91 118 71
85 112 67
91 118 71
91 118 71
88 115 69
81 107 64
93 120 73
82 108 65
85 111 67
94 120 77
87 113 73
166 180 182
147 162 157
152 166 160
150 164 160
147 162 152
140 156 145
135 151 141
126 143 129
114 132 111
110 130 108
93 116 81
90 116 72
85 111 65
82 107 64
85 112 65
144 161 155
186 198 206
177 189 195
178 191 198
188 200 207
186 198 205
186 198 206
185 196 205
185 197 205
184 196 203
186 198 207
187 199 207
195 206 216
174 187 191
168 181 184
85 112 67
85 112 67
84 110 66
87 113 69
84 110 66
86 112 67
91 118 71
87 114 69
83 110 65
77 102 60
85 111 66
82 108 64
116 136 115
167 181 182
172 185 186
163 178 177
174 186 190
180 191 195
161 174 175
178 190 194
172 185 190
180 193 198
176 188 194
176 188 191
96 120 84
83 109 65
87 114 69
83 110 65
85 111 67
89 117 70
86 113 68
79 104 61
89 116 69
91 115 79
170 183 187
181 193 201
181 193 199
181 194 201
178 191 198
175 188 196
175 189 198
183 195 206
108 129 105
78 103 59
78 104 60
73 98 56
76 100 58
76 102 58
98 121 89
163 177 181
144 159 156
128 147 131
86 112 70
94 116 81
154 168 165
165 179 187
174 187 195
172 184 189
102 123 96
75 100 59
118 136 123
160 174 178
201 214 225
224 237 254
224 237 254
224 237 254
224 237 254
224 237 254
224 237 254
224 237 254
224 237 254
224 237 254
224 237 254
224 237 254
224 237 254
224 237 254
224 237 254
224 237 254
224 237 254
224 237 254
224 237 254
224 237 254
224 237 254
224 237 254
224 237 254
224 237 254
224 237 254
224 237 254
224 237 254
224 237 254
224 237 254
224 237 254
224 237 254
224 237 254
224 237 254
224 237 254
224 237 254
224 237 254
224 237 254
224 237 254
224 237 254
224 237 254
224 237 254
224 237 254
224 237 254
224 237 254
224 237 254
224 237 254
224 237 254
224 237 254
224 237 254
224 237 254
223 236 253
180 194 197
161 174 175
101 122 97
78 103 60
110 130 109
171 184 188
170 184 188
171 184 187
175 188 194
101 122 98
83 109 64
79 105 62
80 106 63
80 106 62
157 171 168
154 169 166
132 148 138
105 125 104
79 103 64
82 108 63
83 109 65
157 172 170
186 197 206
184 196 204
189 201 211
184 196 205
180 192 199
182 195 204
187 199 207
155 169 170
83 109 65
74 99 57
83 110 65
82 108 63
84 110 65
85 111 66
84 110 65
83 109 65
87 113 68
115 136 111
172 185 189
167 181 183
176 188 191
167 180 183
171 183 186
171 184 189
162 175 175
158 173 171
178 190 195
176 188 193
171 184 184
121 140 118
84 110 65
90 117 70
85 112 66
85 112 67
85 112 66
90 118 72
80 106 62
85 112 67
86 112 66
83 109 66
88 116 70
86 112 67
143 159 152
170 182 185
176 188 192
174 187 192
179 192 197
182 194 198
170 184 188
177 189 193
159 173 171
178 190 196
160 174 173
167 180 182
186 197 204
168 181 185
163 176 177
89 115 69
86 112 67
80 106 63
84 111 65
85 111 66
79 105 61
80 105 62
87 113 67
82 108 63
83 109 64
82 108 64
80 106 61
82 108 64
81 107 63
85 111 65
155 169 168
183 196 204
182 195 202
178 192 198
179 191 196
189 201 209
190 202 212
189 201 210
183 196 204
183 196 203
185 197 206
183 195 203
177 190 195
175 187 192
172 186 191
164 178 177
172 185 190
131 148 133
108 128 103
124 141 126
112 132 110
127 144 128
142 159 148
135 151 138
146 161 149
149 164 159
150 164 157
159 173 171
159 173 169
152 166 163
159 172 171
162 176 175
172 185 187
165 179 179
175 187 191
95 121 80
86 113 68
88 115 68
84 110 66
84 110 66
85 112 67
90 117 70
89 115 69
85 111 66
83 110 65
88 115 69
90 117 71
92 119 72
89 116 70
85 111 66
84 111 67
88 115 69
89 117 71
172 184 189
177 189 193
182 194 199
171 185 188
180 192 195
181 193 199
182 194 199
170 183 186
172 184 186
176 189 193
174 187 189
174 187 191
178 190 195
190 201 208
179 192 199
177 189 192
162 177 178
170 183 186
190 201 206
87 113 68
84 110 65
91 118 72
90 117 71
86 113 67
93 120 72
89 117 70
83 109 65
89 116 69
84 110 66
88 115 68
85 111 66
85 111 67
87 114 68
85 112 68
90 117 70
86 113 68
86 112 66
93 119 77
173 185 187
183 195 199
181 193 198
182 194 198
173 185 188
167 180 181
179 192 197
178 190 193
188 199 206
173 186 189
177 190 195
169 183 187
183 194 198
183 195 201
178 190 192
167 181 180
171 184 186
177 189 193
113 134 115
88 115 69
87 113 68
87 114 69
89 117 70
85 111 66
85 112 67
89 116 70
84 111 66
91 118 71
92 119 71
86 113 67
85 111 66
87 114 68
96 119 83
100 123 90
107 128 97
113 135 106
123 141 124
144 160 152
153 168 164
164 178 177
151 165 160
150 165 158
149 163 158
135 151 142
133 149 139
132 149 137
120 139 121
116 134 115
114 135 109
104 124 102
107 127 101
98 121 90
92 115 77
101 123 91
176 190 197
186 197 204
179 191 199
168 181 184
188 200 207
176 190 196
184 196 204
183 194 202
182 194 202
192 204 214
185 197 204
181 194 201
190 201 210
184 195 202
181 194 201
193 205 216
163 176 179
85 112 66
76 101 58
83 110 66
82 108 63
85 111 65
77 102 58
84 110 65
82 108 64
80 106 62
81 107 63
84 110 65
85 111 65
87 114 68
85 112 66
84 110 66
173 186 190
176 188 192
182 193 198
161 175 176
178 190 194
175 188 191
175 187 188
177 190 195
165 179 182
175 188 190
170 183 184
169 182 184
169 182 184
168 182 185
108 129 101
87 113 68
86 112 67
83 110 66
81 107 64
83 109 65
84 111 66
87 114 69
86 112 68
86 112 68
85 111 67
91 118 72
112 134 105
175 186 190
173 186 188
176 188 192
165 180 180
172 185 189
169 181 183
167 179 183
166 179 183
160 173 172
175 188 191
160 173 173
89 113 80
80 106 63
79 104 61
78 103 60
80 106 62
77 103 60
79 105 60
77 102 59
80 105 62
120 138 125
177 190 197
184 195 205
175 188 197
186 198 207
176 188 193
186 199 209
180 192 200
157 171 174
88 112 74
108 128 104
127 145 132
141 155 149
156 170 166
170 183 185
109 129 107
79 104 61
72 96 55
79 103 61
72 97 56
134 150 142
173 186 193
177 189 196
170 183 189
111 129 113
80 105 62
107 128 103
170 182 185
208 220 234
224 237 254
224 237 254
224 237 254
224 237 254
224 237 254
224 237 254
224 237 254
224 237 254
224 237 254
224 237 254
224 237 254
224 237 254
224 237 254
224 237 254
224 237 254
224 237 254
224 237 254
224 237 254
224 237 254
224 237 254
224 237 254
224 237 254
224 237 254
224 237 254
224 237 254
224 237 254
224 237 254
224 237 254
224 237 254
224 237 254
224 237 254
224 237 254
224 237 254
224 237 254
224 237 254
224 237 254
224 237 254
224 237 254
224 237 254
224 237 254
224 237 254
224 237 254
224 237 254
224 237 254
224 237 254
224 237 254
224 237 254
224 237 254
224 237 254
224 237 254
224 237 254
224 237 254
224 237 254
224 237 254
224 237 254
224 237 254
187 200 207
146 161 157
109 132 104
82 108 64
112 132 109
179 192 201
164 177 180
177 190 197
156 170 172
80 106 62
75 100 58
81 107 63
77 102 59
97 119 87
165 179 184
175 189 198
179 190 197
181 193 199
177 190 195
171 184 190
159 173 173
118 138 116
143 160 149
160 174 173
180 193 202
174 186 191
171 184 188
175 189 197
176 188 193
90 112 79
87 113 67
74 100 57
83 109 65
80 106 62
80 106 62
80 106 62
79 105 61
78 104 61
110 129 109
179 193 204
173 186 192
179 190 196
181 194 200
181 193 199
177 191 198
185 197 205
176 189 192
180 191 196
173 186 190
178 190 194
103 126 95
86 112 67
80 105 62
89 116 69
87 113 68
84 111 66
86 112 67
88 114 69
84 110 65
85 112 68
87 114 68
86 113 68
97 122 85
178 190 195
182 194 201
168 180 182
172 185 190
169 182 186
177 190 195
172 185 188
175 188 191
170 184 187
168 181 183
184 196 201
182 194 197
176 189 193
175 188 192
91 116 75
82 108 65
86 112 68
87 113 68
84 110 65
86 113 68
89 116 69
87 113 68
89 116 71
81 107 63
89 116 71
87 114 68
89 116 70
84 110 65
86 112 67
123 142 122
171 183 186
180 191 196
170 183 184
164 178 180
170 183 187
169 181 184
185 196 203
170 183 185
170 184 188
180 192 196
175 187 191
185 196 201
183 196 204
178 190 194
191 203 212
179 191 197
79 105 61
84 110 66
79 105 62
81 107 63
84 110 65
83 109 63
83 109 64
83 109 64
82 108 63
85 111 66
83 109 64
84 109 64
79 105 61
82 108 63
82 107 63
83 108 63
87 114 67
135 152 140
181 194 203
181 193 200
187 200 209
183 196 205
193 204 214
183 195 201
179 192 198
182 193 199
187 199 206
191 203 211
187 199 207
188 201 210
186 197 204
175 187 191
177 190 196
187 198 206
181 194 202
153 167 165
83 109 64
85 112 66
80 105 61
86 112 66
82 108 64
86 113 67
87 113 67
81 106 62
85 111 66
80 106 62
80 105 61
77 103 59
83 109 64
84 111 65
80 106 61
77 102 59
81 106 62
81 106 62
189 200 210
181 194 203
181 194 201
192 204 214
190 201 210
182 195 204
183 196 204
175 188 194
189 201 209
190 201 209
197 208 219
181 193 201
176 188 193
190 201 209
184 196 203
179 193 202
192 204 213
190 202 211
154 168 165
85 111 66
84 110 65
86 112 66
86 112 67
82 107 63
84 110 65
83 108 63
80 106 61
80 106 62
80 106 62
81 107 63
83 109 64
83 109 64
80 106 62
78 103 59
80 106 62
83 109 64
81 106 62
190 202 210
178 190 196
188 200 211
184 196 205
186 199 207
185 197 205
191 202 211
186 198 206
186 198 207
187 199 206
181 193 197
185 198 206
191 202 211
173 186 191
179 192 199
185 198 207
184 196 203
188 200 209
86 113 67
86 113 67
82 108 64
85 111 65
81 106 62
82 108 64
81 107 63
85 111 65
83 110 65
82 107 62
85 112 67
85 111 66
83 109 64
81 107 63
83 110 65
87 114 68
85 111 66
171 183 184
174 187 190
179 191 197
176 188 192
185 197 204
171 184 185
177 189 192
175 187 189
174 185 188
169 183 187
185 196 203
177 188 191
174 188 193
176 188 191
181 193 198
172 185 190
135 153 139
89 115 70
86 112 66
88 115 70
86 113 67
82 108 64
86 112 67
82 109 65
86 112 66
87 114 69
82 108 65
84 111 67
87 113 67
87 114 69
87 114 68
124 143 122
162 176 177
168 181 180
178 190 195
176 189 192
172 185 186
175 187 190
169 182 186
171 183 186
171 184 186
167 180 179
174 187 192
178 190 193
172 184 189
138 155 142
84 111 67
90 117 71
84 110 66
87 114 69
86 112 67
85 111 66
90 117 71
87 113 67
81 108 64
85 111 67
88 116 69
94 118 83
171 183 183
189 199 207
170 183 189
176 188 192
180 192 199
182 195 204
177 191 199
178 192 202
183 194 202
180 192 199
180 193 200
76 100 60
77 102 59
82 108 64
79 103 61
78 102 59
78 103 60
72 95 54
81 106 62
81 106 62
137 153 146
176 189 194
176 188 194
160 174 172
142 158 150
123 141 126
105 125 99
83 109 65
137 152 146
178 191 199
182 194 201
174 187 195
174 188 196
180 192 200
147 163 160
72 96 55
84 109 65
77 102 60
81 106 62
110 130 108
164 178 183
172 185 190
170 183 188
121 140 125
79 105 63
104 124 102
140 155 148
208 220 235
224 237 254
224 237 254
224 237 254
224 237 254
224 237 254
224 237 254
224 237 254
224 237 254
224 237 254
224 237 254
224 237 254
224 237 254
224 237 254
224 237 254
224 237 254
224 237 254
224 237 254
224 237 254
224 237 254
224 237 254
224 237 254
224 237 254
224 237 254
224 237 254
224 237 254
224 237 254
224 237 254
224 237 254
224 237 254
224 237 254
224 237 254
224 237 254
224 237 254
224 237 254
224 237 254
224 237 254
224 237 254
224 237 254
224 237 254
224 237 254
224 237 254
224 237 254
224 237 254
224 237 254
224 237 254
224 237 254
224 237 254
224 237 254
224 237 254
224 237 254
224 237 254
224 237 254
224 237 254
224 237 254
224 237 254
224 237 254
224 237 254
224 237 254
224 237 254
224 237 254
224 237 254
224 237 254
188 202 210
92 115 82
93 114 91
86 112 69
135 151 140
167 180 182
168 181 185
175 188 195
129 146 135
81 107 63
78 103 60
83 109 64
78 103 60
126 143 131
178 190 198
162 177 180
180 193 199
178 191 199
176 188 192
169 182 187
113 132 112
76 102 59
87 113 68
81 107 63
79 105 61
82 108 64
82 108 65
90 113 76
141 158 149
151 165 163
125 143 125
108 128 105
98 121 85
80 105 61
82 108 64
82 107 63
85 112 66
104 124 100
175 187 194
186 198 207
193 204 214
182 194 200
184 195 202
176 189 195
185 197 205
178 190 195
180 193 201
183 196 205
179 192 199
81 106 68
85 111 65
81 107 63
81 106 63
84 109 65
86 112 67
81 106 63
80 106 62
81 107 63
79 105 61
87 113 67
84 110 65
141 158 146
169 182 185
173 185 187
172 184 187
175 188 192
173 186 190
175 187 193
176 188 192
179 191 195
183 195 200
176 188 190
166 180 182
175 188 192
170 182 184
135 152 138
88 114 68
87 113 68
86 113 67
89 116 70
88 114 69
88 115 69
87 113 67
86 112 67
90 117 71
86 113 68
91 118 70
86 113 67
88 114 69
85 112 68
109 131 103
177 191 196
184 197 202
179 192 196
170 183 185
178 189 194
174 187 189
175 187 190
176 188 193
187 198 205
168 181 184
170 183 187
182 194 199
193 204 212
176 188 191
171 184 188
176 188 194
83 110 65
81 107 63
90 117 70
85 111 66
84 111 66
83 110 65
90 118 72
87 114 69
82 108 65
87 114 68
84 110 65
88 114 69
86 112 67
88 115 69
89 115 69
86 113 67
82 108 64
176 188 193
179 191 196
177 188 192
176 188 192
162 176 179
177 190 195
171 184 187
173 186 189
181 193 199
179 192 196
180 192 199
180 191 195
179 190 193
174 186 189
168 180 182
182 194 201
173 186 189
181 192 195
83 109 65
87 114 68
87 113 67
84 110 65
86 113 67
87 114 69
84 110 66
86 113 67
86 112 67
83 109 65
87 113 68
83 110 65
86 112 67
88 114 68
88 115 70
87 114 68
86 112 67
79 105 62
183 195 201
174 186 190
181 193 199
184 196 204
180 192 197
169 183 187
171 185 188
179 191 194
178 190 196
178 191 196
177 190 194
180 192 197
175 187 190
177 190 195
180 193 198
172 185 191
176 189 195
183 196 202
110 131 106
86 112 67
87 113 68
84 110 65
88 115 69
85 112 67
88 114 69
88 115 69
88 115 69
84 110 66
88 116 70
86 113 67
85 111 66
84 111 66
87 114 69
85 111 66
86 112 67
84 110 65
143 160 150
165 178 179
169 182 186
173 187 191
180 192 197
174 187 188
179 191 196
182 194 201
170 183 185
174 187 189
165 179 180
189 200 207
165 178 179
175 186 188
174 187 191
175 187 188
174 186 191
171 183 186
88 114 71
84 111 67
84 111 67
86 112 67
86 112 67
85 111 66
86 113 68
83 109 65
86 112 67
86 112 67
86 112 68
87 113 68
86 112 67
84 111 66
86 112 67
84 111 66
83 109 65
180 192 194
166 179 181
181 193 199
165 178 179
177 189 194
173 185 187
171 184 188
179 190 196
167 181 180
180 191 197
174 187 188
169 183 186
177 189 193
176 188 194
168 181 183
167 181 184
114 135 107
90 117 70
86 112 67
82 108 64
84 110 66
84 111 67
80 105 63
87 114 69
87 113 68
82 108 64
89 116 70
84 110 64
87 113 68
88 114 69
85 112 67
161 174 172
174 186 189
162 175 174
181 193 197
184 195 200
170 184 189
173 186 189
174 187 192
170 183 186
161 175 174
162 176 178
179 192 198
179 191 197
159 174 174
88 114 69
84 110 65
80 106 62
76 101 59
85 110 65
80 106 62
78 103 60
78 103 59
77 103 60
78 102 59
80 106 62
80 105 62
175 189 197
184 195 205
170 183 186
165 178 182
175 188 197
185 198 210
176 187 193
183 195 205
169 182 188
180 192 199
172 184 191
84 107 73
73 97 56
79 104 61
96 116 88
122 140 127
129 146 133
151 164 160
155 168 166
175 188 192
108 128 104
82 108 65
80 105 62
76 100 59
77 103 59
73 98 56
83 109 64
108 127 106
167 180 183
176 189 198
181 193 201
170 184 191
181 193 200
152 167 168
128 145 130
78 103 60
74 98 56
72 95 55
84 107 71
152 165 164
170 184 189
158 171 170
124 142 129
119 137 121
123 141 131
127 144 135
212 224 239
224 237 254
224 237 254
224 237 254
224 237 254
224 237 254
224 237 254
224 237 254
224 237 254
224 237 254
224 237 254
224 237 254
224 237 254
224 237 254
224 237 254
224 237 254
224 237 254
224 237 254
224 237 254
224 237 254
224 237 254
224 237 254
224 237 254
224 237 254
224 237 254
224 237 254
224 237 254
224 237 254
224 237 254
224 237 254
224 237 254
224 237 254
224 237 254
224 237 254
224 237 254
224 237 254
224 237 254
224 237 254
224 237 254
224 237 254
224 237 254
224 237 254
224 237 254
224 237 254
224 237 254
224 237 254
224 237 254
224 237 254
224 237 254
224 237 254
224 237 254
224 237 254
224 237 254
224 237 254
224 237 254
224 237 254
224 237 254
224 237 254
224 237 254
225 237 254
225 237 254
225 237 254
225 237 254
225 237 254
225 237 254
225 237 254
225 237 254
225 237 254
225 237 254
193 206 216
116 136 114
158 172 171
169 181 183
168 181 184
165 178 180
172 185 188
166 179 183
108 128 108
82 109 65
88 115 69
76 100 59
86 108 77
151 164 162
176 189 196
175 188 197
172 185 191
171 184 189
170 182 187
144 158 151
80 106 62
78 103 60
80 105 62
80 106 61
79 105 62
79 104 60
84 110 65
145 160 155
178 191 197
182 194 201
180 192 198
181 193 202
175 188 194
167 181 184
172 185 191
171 184 189
164 178 178
115 136 114
132 149 138
134 151 140
153 167 167
163 177 179
179 192 197
178 191 196
189 201 211
176 189 197
182 195 204
166 179 181
79 105 61
84 110 65
83 108 64
80 106 62
79 104 61
78 104 60
81 107 63
84 110 65
85 111 66
82 108 64
81 107 62
83 109 64
173 186 190
182 194 201
180 192 199
177 189 194
185 196 203
190 202 212
181 194 202
183 194 202
186 198 205
193 203 212
179 192 200
186 197 207
176 189 195
186 197 202
84 110 66
83 108 64
84 110 65
82 109 64
84 110 66
86 112 68
84 110 66
87 114 68
83 109 65
86 113 68
85 111 66
84 110 65
87 113 68
88 114 68
100 122 90
170 183 187
169 182 183
177 189 195
177 189 194
172 185 188
166 180 183
179 191 194
181 193 199
166 179 180
173 186 189
171 184 187
177 189 192
177 189 194
170 183 188
178 189 193
187 198 203
86 113 68
85 111 67
83 108 64
83 109 65
85 112 67
84 110 65
88 114 68
85 111 66
90 117 72
82 108 65
88 114 68
87 113 67
86 112 67
85 112 68
85 112 67
86 113 68
91 117 75
183 194 200
183 195 200
175 188 193
178 191 196
165 178 181
180 193 198
178 190 192
179 191 198
172 185 188
181 192 197
166 179 179
174 187 190
178 189 191
175 188 193
178 190 195
178 192 199
178 190 195
100 124 88
84 110 65
90 117 70
88 115 70
85 112 68
87 112 67
85 112 68
84 110 66
86 112 68
86 112 67
87 114 69
81 107 63
84 110 65
84 110 66
87 113 67
87 114 68
81 107 64
84 110 65
174 187 192
169 183 183
181 193 197
186 198 204
179 191 195
178 191 198
177 190 193
167 180 181
175 188 192
178 190 193
180 192 197
177 189 193
178 191 195
174 187 189
173 186 188
172 184 188
180 192 196
180 192 197
91 118 73
84 111 66
81 107 64
88 114 69
82 108 65
85 112 67
90 116 70
85 111 67
81 107 63
88 115 69
90 117 71
87 114 69
87 114 69
87 113 68
81 108 64
88 115 69
87 114 68
88 115 68
167 180 181
176 189 190
172 185 186
170 183 186
169 182 183
182 195 202
179 191 194
181 193 199
168 182 184
164 178 178
174 186 190
182 195 202
168 181 183
168 182 182
168 181 183
169 182 186
183 194 198
125 142 127
86 113 68
87 114 68
85 111 67
85 111 67
85 112 68
87 114 68
87 114 69
85 111 66
85 112 67
84 110 66
86 113 67
85 111 65
87 113 68
85 112 67
85 111 66
86 112 67
163 177 175
174 187 190
158 172 171
171 184 186
177 188 193
171 182 185
166 179 182
179 191 196
177 189 193
164 178 181
180 192 195
174 186 189
167 181 183
175 187 192
168 181 180
184 195 201
87 114 68
87 114 68
81 108 64
86 113 67
90 116 70
90 117 71
88 115 69
83 108 64
82 107 63
77 103 60
82 108 65
80 105 62
81 106 62
83 110 65
113 133 109
186 198 210
187 199 208
172 185 189
180 193 201
171 184 189
180 193 200
185 197 207
192 204 217
179 191 199
180 193 201
179 192 198
179 193 200
175 188 195
101 123 96
78 103 58
75 100 57
78 103 60
74 99 57
76 101 58
77 102 59
82 107 63
83 109 64
76 101 58
82 108 63
84 110 65
166 179 182
185 197 206
174 186 191
171 184 188
154 169 167
142 159 152
135 152 140
116 135 117
106 125 103
87 113 68
124 143 124
175 188 192
172 185 188
172 186 191
185 197 204
173 185 192
177 190 196
172 185 192
178 190 199
164 179 183
82 108 69
81 107 63
73 97 55
73 98 56
76 101 58
74 98 57
77 103 60
136 152 145
181 193 201
171 184 191
172 185 190
180 192 200
163 176 182
134 152 147
78 103 60
84 110 67
76 101 60
77 102 60
129 144 135
144 158 158
135 151 142
145 160 155
165 178 182
140 154 149
156 172 171
221 234 251
225 237 254
225 237 254
225 237 254
225 237 254
225 237 254
225 237 254
225 237 254
225 237 254
225 237 254
224 237 254
224 237 254
224 237 254
224 237 254
224 237 254
224 237 254
224 237 254
224 237 254
224 237 254
224 237 254
224 237 254
224 237 254
224 237 254
224 237 254
224 237 254
224 237 254
224 237 254
224 237 254
224 237 254
224 237 254
224 237 254
224 237 254
224 237 254
224 237 254
224 237 254
224 237 254
225 237 254
225 237 254
225 237 254
225 237 254
225 237 254
225 237 254
225 237 254
225 237 254
225 237 254
225 237 254
225 237 254
225 237 254
225 237 254
225 237 254
225 237 254
225 237 254
225 237 254
225 237 254
225 237 254
225 237 254
225 237 254
225 237 254
225 237 254
225 237 254
225 237 254
225 237 254
225 237 254
225 237 254
225 237 254
225 237 254
225 237 254
225 237 254
225 237 254
225 237 254
225 237 254
225 237 254
225 237 254
225 237 254
225 237 254
208 221 234
133 149 139
132 148 137
166 179 182
120 138 120
75 100 59
98 118 93
113 133 113
86 110 72
81 107 64
81 107 64
80 105 62
95 115 92
166 180 183
169 181 185
167 180 184
174 186 191
169 181 185
173 186 192
109 128 105
80 105 62
79 104 61
77 102 59
78 103 61
79 104 61
80 105 61
100 119 95
167 181 186
177 189 195
178 191 198
170 183 187
175 188 194
182 194 201
180 192 199
182 194 201
163 176 180
101 124 92
76 101 58
81 106 62
80 105 62
83 109 65
82 108 64
81 107 63
87 113 68
80 106 62
88 114 68
116 135 114
165 177 178
153 168 166
155 171 171
139 154 148
147 161 154
115 135 116
109 130 109
97 120 88
83 110 64
82 108 63
86 112 66
96 120 86
186 198 207
187 199 210
185 197 204
181 194 202
176 189 198
194 205 214
183 194 201
174 186 191
182 195 204
178 190 196
175 188 193
182 194 201
175 187 193
116 135 114
80 105 61
80 106 61
86 113 67
81 106 62
84 110 64
79 105 61
78 103 60
79 104 60
85 111 65
80 106 63
81 106 62
84 109 64
81 106 62
80 106 62
178 191 196
183 195 205
187 199 208
175 188 196
181 194 201
170 183 189
178 191 199
176 189 196
184 195 201
176 189 196
172 184 189
186 198 206
175 188 194
177 189 192
177 190 196
170 182 186
81 107 63
85 112 67
83 110 65
75 101 58
79 105 62
86 112 66
82 108 64
86 112 67
82 109 66
84 110 66
88 114 69
87 114 69
86 112 67
85 111 66
84 111 66
83 109 65
145 161 151
182 194 199
178 190 193
169 182 185
176 188 192
178 190 195
172 185 186
164 177 178
171 182 183
184 196 201
169 182 186
170 183 186
180 192 197
174 187 190
163 177 177
169 182 184
176 188 193
169 183 186
88 115 69
90 116 70
84 110 65
82 108 64
85 112 67
87 113 67
82 108 64
83 109 65
86 112 66
89 116 70
82 108 64
84 110 66
85 111 66
84 110 65
87 114 69
88 115 69
85 111 66
163 178 175
167 180 184
168 182 184
172 185 188
163 178 180
176 188 192
174 185 187
169 183 185
178 191 197
171 184 185
169 182 184
179 192 197
162 175 175
173 186 191
167 180 183
159 173 174
171 183 187
159 173 175
88 116 70
84 110 66
89 116 69
83 110 66
83 109 64
89 116 69
84 110 66
83 109 66
84 110 65
87 114 69
89 115 69
85 112 68
86 112 67
82 108 64
82 108 64
84 110 66
83 109 64
108 129 105
167 180 182
174 186 189
171 183 183
170 184 188
176 189 193
174 187 190
171 183 187
174 186 188
176 188 193
167 181 184
172 186 190
174 187 189
168 180 183
179 191 195
172 185 187
174 186 190
176 188 193
90 117 71
81 107 63
85 111 67
88 115 69
85 110 66
82 108 64
87 113 67
85 112 66
76 101 59
83 109 64
82 107 63
81 106 62
83 109 64
83 109 65
82 108 64
87 114 68
170 183 185
179 192 200
180 193 203
177 190 197
179 192 199
185 197 206
181 193 200
189 200 207
177 190 197
172 185 193
183 196 204
176 189 196
174 186 189
174 187 194
179 192 198
166 180 181
80 105 62
81 106 62
77 103 60
79 104 61
79 104 60
80 105 62
81 106 62
76 101 59
83 108 64
82 108 63
85 111 65
81 107 62
76 101 58
78 103 60
174 187 193
181 194 202
176 188 195
169 181 184
182 195 205
184 197 205
179 192 200
172 186 194
184 196 204
179 192 201
178 191 197
172 185 190
174 187 194
114 133 115
83 106 70
94 116 86
107 127 105
126 144 128
135 151 142
143 158 153
148 163 156
165 178 176
167 181 184
173 185 190
171 184 186
113 131 109
84 110 65
76 100 58
80 106 62
81 106 63
79 104 61
78 104 61
75 100 57
79 104 61
77 102 60
121 139 126
169 181 187
179 191 199
173 186 192
172 183 187
163 176 180
178 191 199
168 182 186
182 195 205
127 143 133
80 106 61
69 93 53
82 107 63
78 104 61
80 105 61
77 102 60
90 109 84
164 176 179
166 179 184
167 180 184
145 159 156
156 169 169
147 161 155
89 116 72
79 104 62
82 107 70
109 129 107
91 113 82
74 96 65
77 102 61
104 123 100
145 160 156
127 143 133
170 184 188
225 237 254
225 237 254
225 237 254
225 237 254
225 237 254
225 237 254
225 237 254
225 237 254
225 237 254
225 237 254
225 237 254
225 237 254
225 237 254
225 237 254
225 237 254
225 237 254
225 237 254
225 237 254
225 237 254
225 237 254
225 237 254
225 237 254
225 237 254
225 237 254
225 237 254
225 237 254
225 237 254
225 237 254
225 237 254
225 237 254
225 237 254
225 237 254
225 237 254
225 237 254
225 237 254
225 237 254
225 237 254
225 237 254
225 237 254
225 237 254
225 237 254
225 237 254
225 237 254
225 237 254
225 237 254
225 237 254
225 237 254
225 237 254
225 237 254
225 237 254
225 237 254
225 237 254
225 237 254
225 237 254
225 237 254
225 237 254
225 237 254
225 237 254
225 237 254
225 237 254
225 237 254
225 237 254
225 237 254
225 237 254
225 237 254
225 237 254
225 237 254
225 237 254
225 237 254
225 237 254
225 237 254
225 237 254
225 237 254
225 237 254
225 237 254
225 237 254
225 237 254
225 237 254
225 237 254
225 237 254
225 237 254
225 237 254
156 172 169
128 145 132
152 166 167
128 145 132
80 106 62
77 103 61
105 127 100
169 183 189
166 179 181
143 158 154
124 143 128
135 149 143
167 181 181
159 173 174
159 173 173
172 185 189
171 183 183
140 155 148
82 108 64
80 105 63
83 108 64
80 105 62
80 106 62
73 98 57
82 107 65
162 176 178
180 192 199
177 190 196
181 194 202
179 191 197
165 178 184
175 189 196
182 194 203
178 191 200
116 135 120
81 106 62
80 106 62
84 110 65
78 103 61
79 104 60
84 110 66
77 102 59
86 113 67
78 104 60
122 140 124
180 192 198
168 182 186
173 186 190
177 191 200
173 186 193
179 192 198
181 193 199
174 187 193
183 194 201
173 185 190
171 184 188
143 159 150
86 112 66
82 107 64
88 115 70
82 107 64
97 120 89
112 132 108
131 148 135
118 138 117
145 161 154
151 165 164
160 174 177
169 182 182
149 164 164
90 113 77
81 107 63
83 109 65
80 105 62
83 108 63
79 104 60
83 109 64
75 101 58
82 108 63
84 110 64
80 106 62
79 105 61
78 103 60
80 105 62
170 184 188
184 196 203
183 195 201
174 187 192
178 191 199
182 195 202
183 194 201
178 191 198
182 195 201
166 181 184
188 200 209
181 194 203
177 189 195
180 192 200
186 198 206
177 189 195
85 111 66
78 103 60
82 107 62
80 105 61
83 109 64
77 102 59
83 108 63
84 110 64
82 108 64
76 101 58
84 110 64
80 105 62
80 106 61
80 105 60
82 107 64
82 108 64
170 183 186
187 199 210
183 195 204
187 199 208
186 198 207
183 195 203
194 205 215
166 180 183
177 190 198
184 197 206
178 191 199
185 197 204
176 189 197
176 189 196
184 196 203
181 193 199
185 197 203
89 115 69
79 105 61
84 110 64
78 104 60
85 111 65
78 103 60
77 103 59
81 107 62
73 98 55
83 109 64
83 110 65
82 107 63
81 106 62
81 106 62
81 105 61
80 107 62
84 110 64
147 162 155
182 193 200
176 188 193
188 200 210
172 185 190
180 193 199
184 196 203
180 193 199
179 191 195
174 186 192
178 190 197
192 203 211
188 199 207
183 196 204
191 203 212
181 192 198
179 191 199
176 188 192
78 103 60
86 112 66
83 109 65
78 103 59
76 101 58
76 101 58
82 109 64
76 101 58
80 106 62
86 113 67
77 101 59
82 107 62
84 110 64
86 111 66
80 106 62
76 100 59
83 109 64
185 196 203
182 195 206
178 190 196
191 203 211
181 192 199
188 199 207
179 191 197
172 186 192
166 179 183
182 195 203
182 194 201
180 191 198
191 202 210
185 197 206
178 191 198
179 191 201
179 191 199
78 103 60
76 100 57
81 107 63
78 103 60
77 103 60
78 103 60
78 103 60
80 106 62
83 108 63
79 104 61
85 111 66
85 111 66
76 101 58
88 115 69
77 102 60
85 110 65
164 177 179
184 196 206
173 186 191
189 201 209
175 188 195
174 187 192
176 189 196
171 185 193
164 178 182
177 189 195
187 198 206
172 185 190
181 194 203
185 197 205
190 201 209
138 154 146
81 107 63
77 101 59
82 108 64
77 103 60
75 100 58
75 99 57
84 110 65
77 102 59
80 105 62
85 111 66
91 114 77
88 110 78
110 129 106
101 124 91
156 172 171
131 149 136
112 132 109
115 135 118
90 114 82
86 112 69
85 111 66
84 111 66
84 111 67
84 111 66
78 104 62
85 111 66
131 149 138
173 186 191
180 193 200
184 196 206
174 187 192
172 186 194
183 195 201
182 195 201
180 192 200
185 197 206
180 192 201
176 187 192
110 129 110
76 100 59
79 104 60
77 103 60
82 107 63
76 101 59
80 105 61
74 98 57
74 99 57
79 103 60
144 160 154
175 187 193
175 187 195
172 184 192
173 186 191
174 188 195
179 191 200
171 183 190
168 183 191
108 128 104
80 106 63
80 105 62
80 105 61
80 106 63
81 107 64
82 108 64
138 154 145
153 167 167
161 174 174
153 167 165
161 174 178
144 159 155
137 152 146
152 166 169
170 183 188
167 181 187
122 140 129
75 99 58
77 102 61
112 131 114
159 172 173
135 150 142
200 212 225
225 237 254
225 237 254
225 237 254
225 237 254
225 237 254
225 237 254
225 237 254
225 237 254
225 237 254
225 237 254
225 237 254
225 237 254
225 237 254
225 237 254
225 237 254
225 237 254
225 237 254
225 237 254
225 237 254
225 237 254
225 237 254
225 237 254
225 237 254
225 237 254
225 237 254
225 237 254
225 237 254
225 237 254
225 237 254
225 237 254
225 237 254
225 237 254
225 237 254
225 237 254
225 237 254
225 237 254
225 237 254
225 237 254
225 237 254
225 237 254
225 237 254
225 237 254
225 237 254
225 237 254
225 237 254
225 237 254
225 237 254
225 237 254
225 237 254
225 237 254
225 237 254
225 237 254
225 237 254
225 237 254
225 237 254
225 237 254
225 237 254
225 237 254
225 237 254
225 237 254
225 237 254
225 237 254
225 237 254
225 237 254
225 237 254
225 237 254
225 237 254
225 237 254
225 237 254
225 237 254
225 237 254
225 237 254
225 237 254
225 237 254
225 237 254
225 237 254
225 237 254
225 237 254
225 237 254
225 237 254
225 237 254
225 237 254
225 237 254
225 237 254
225 237 254
225 237 254
225 237 254
225 237 254
184 198 205
133 149 138
147 162 159
131 147 137
85 109 71
81 106 63
107 125 103
158 171 170
165 178 180
166 180 183
168 181 185
120 138 124
74 99 57
96 116 90
132 147 138
144 159 154
159 172 174
128 144 132
81 107 63
82 108 64
82 108 65
82 109 65
79 105 62
84 110 66
109 129 109
165 177 177
161 173 175
171 184 187
176 189 196
175 188 191
177 189 196
167 180 183
185 196 207
143 159 151
77 102 59
87 114 68
83 110 64
80 105 62
84 110 64
72 98 56
75 100 58
79 104 61
78 103 60
119 136 122
183 196 203
178 190 195
182 193 199
178 191 198
172 185 192
185 198 207
182 194 202
174 189 197
172 184 191
174 187 193
170 184 190
115 134 116
75 99 57
80 106 61
79 104 61
80 106 62
83 108 63
81 106 61
80 105 61
76 101 58
81 106 61
82 108 64
76 101 59
79 104 60
142 157 152
181 193 198
175 188 191
179 190 195
183 195 203
169 182 185
170 184 187
178 190 194
163 177 176
182 195 201
164 177 177
164 178 180
161 175 178
156 170 170
147 163 158
118 137 117
118 138 120
125 143 127
136 154 143
154 169 165
153 168 163
147 163 155
157 171 170
174 186 191
168 180 182
169 183 187
181 193 200
181 193 201
177 190 197
170 184 191
77 102 58
81 106 62
76 102 59
76 101 58
79 104 61
82 108 64
81 107 62
84 110 65
81 106 62
80 106 61
82 107 63
81 107 62
75 100 57
76 101 58
81 107 63
87 111 73
184 196 203
180 192 198
178 192 199
181 193 202
176 188 191
166 181 185
176 189 198
168 182 188
175 188 196
176 191 199
182 194 202
183 196 205
187 199 208
182 194 200
175 187 194
176 189 195
142 158 153
80 105 61
73 98 56
76 100 57
82 108 64
77 102 59
80 106 62
77 102 59
85 110 65
81 107 63
78 103 59
83 108 63
81 107 63
81 107 63
81 107 62
79 105 61
78 104 60
134 151 140
187 199 208
177 189 198
178 190 196
182 194 203
191 203 213
184 196 204
189 201 209
184 195 203
182 195 205
179 193 201
180 193 201
176 188 196
183 195 202
183 194 202
179 192 198
182 194 201
181 193 199
82 108 63
79 104 61
79 104 61
78 103 60
77 101 59
81 106 62
83 109 64
86 112 66
81 106 62
84 110 65
81 107 63
79 105 61
78 104 60
79 104 60
81 106 62
83 108 63
91 116 79
179 191 197
185 197 205
189 201 212
180 193 201
181 194 201
184 196 204
181 193 201
185 197 207
174 187 190
174 187 194
179 192 199
179 190 196
185 198 206
183 195 204
183 195 201
174 187 193
106 127 102
79 104 61
81 106 62
81 106 62
83 109 64
83 109 64
81 106 63
79 104 61
76 101 58
82 108 64
84 110 64
77 102 59
86 112 67
82 108 63
84 110 65
80 105 61
170 184 188
170 184 185
163 177 178
161 175 174
161 174 172
137 154 146
142 159 154
154 169 166
120 139 125
126 145 134
118 137 117
122 141 121
105 126 98
95 119 82
88 115 69
162 175 175
170 183 186
178 191 196
169 181 183
168 181 182
157 171 171
172 184 189
170 182 186
173 186 192
176 189 195
174 187 193
179 191 197
180 192 200
171 185 188
98 120 94
82 108 63
78 102 59
79 105 61
79 104 61
80 104 61
81 106 62
76 101 58
79 103 61
74 99 57
78 103 60
79 105 61
97 118 93
181 193 200
172 187 193
179 191 200
181 193 201
183 196 205
171 185 192
174 186 191
177 189 194
185 196 204
181 192 199
180 193 202
102 122 98
80 105 61
75 100 57
81 106 62
76 100 58
78 104 61
79 105 62
77 102 60
72 96 55
82 107 63
161 173 174
166 180 184
162 176 180
169 182 184
171 183 188
167 180 182
174 187 192
157 171 173
137 154 144
76 102 60
87 113 69
77 102 60
85 112 68
80 106 63
86 110 73
85 106 76
136 151 143
88 109 79
80 104 66
75 100 57
78 103 61
139 154 149
163 177 179
159 173 176
163 176 181
125 142 131
80 105 63
81 105 62
117 135 119
148 162 163
168 181 185
216 229 244
225 237 254
225 237 254
225 237 254
225 237 254
225 237 254
225 237 254
225 237 254
225 237 254
225 237 254
225 237 254
225 237 254
225 237 254
225 237 254
225 237 254
225 237 254
225 237 254
225 237 254
225 237 254
225 237 254
225 237 254
225 237 254
225 237 254
225 237 254
225 237 254
225 237 254
225 237 254
225 237 254
225 237 254
225 237 254
225 237 254
225 237 254
225 237 254
225 237 254
225 237 254
225 237 254
225 237 254
225 237 254
225 237 254
225 237 254
225 237 254
225 237 254
225 237 254
225 237 254
225 237 254
225 237 254
225 237 254
225 237 254
225 237 254
225 237 254
225 237 254
225 237 254
225 237 254
225 237 254
225 237 254
225 237 254
225 237 254
225 237 254
225 237 254
225 237 254
225 237 254
225 237 254
225 237 254
225 237 254
225 237 254
225 237 254
225 237 254
225 237 254
225 237 254
225 237 254
225 237 254
225 237 254
225 237 254
225 237 254
225 237 254
225 237 254
225 237 254
225 237 254
225 237 254
225 237 254
225 237 254
225 237 254
225 237 254
225 237 254
225 237 254
225 237 254
225 237 254
225 237 254
225 237 254
225 237 254
225 237 254
225 237 254
225 237 254
225 237 254
225 237 254
221 234 250
183 195 203
168 181 184
137 152 147
85 108 75
75 100 59
109 129 103
166 179 181
163 178 181
173 185 187
161 174 179
104 126 97
80 106 63
79 105 63
78 102 60
76 101 59
100 122 97
165 178 179
170 184 189
161 175 177
153 167 166
120 139 127
111 132 108
91 115 81
157 171 170
164 177 180
158 173 173
159 172 175
164 177 181
164 178 181
168 182 187
167 179 181
149 164 160
82 108 64
81 107 63
83 109 65
86 113 67
82 108 64
81 107 62
77 102 60
83 109 65
76 101 59
125 145 128
185 198 206
177 188 193
170 184 191
169 182 189
173 185 190
173 185 189
180 192 200
183 195 202
171 185 193
171 184 189
175 187 193
90 112 83
79 104 61
72 97 56
79 104 61
77 101 59
76 101 59
83 109 64
77 102 60
76 101 59
80 105 61
81 107 62
79 105 62
89 111 79
172 185 193
176 189 195
174 187 193
177 189 195
166 179 182
169 182 183
179 190 196
183 195 202
175 187 192
173 186 192
167 180 182
169 182 186
175 188 194
165 178 179
82 107 63
80 105 62
84 109 64
79 104 61
72 97 56
86 112 66
82 108 63
81 107 63
80 106 62
82 107 63
86 112 66
75 100 57
89 115 68
87 113 67
102 124 94
176 188 190
179 191 197
188 200 208
179 192 198
172 185 191
171 183 187
181 194 203
165 179 182
164 178 181
166 178 181
166 178 179
166 179 180
163 177 179
172 185 189
165 178 181
118 136 120
86 113 67
83 109 64
90 116 72
85 110 72
96 120 87
98 120 88
98 119 91
102 124 93
111 133 112
112 134 109
122 141 123
110 130 107
124 142 128
119 139 119
117 136 121
131 147 138
148 163 154
142 157 150
131 147 136
138 154 145
139 154 146
134 151 138
136 152 140
118 137 119
140 156 146
130 146 134
136 153 138
133 150 138
125 144 128
125 142 127
127 143 130
135 151 139
137 153 145
141 157 150
145 161 156
157 172 170
136 153 145
142 159 154
161 174 175
149 163 161
152 167 163
143 160 153
160 174 170
157 172 173
141 156 149
148 164 159
158 173 173
159 173 170
157 172 171
143 159 152
127 145 130
129 145 130
137 153 145
129 146 135
124 143 131
133 149 137
155 169 165
140 155 146
127 144 132
138 154 146
141 156 150
144 159 150
139 154 147
137 152 144
149 163 159
147 162 156
131 148 134
125 144 127
106 128 100
101 125 91
98 121 89
104 126 95
100 123 93
96 120 86
86 111 72
88 115 72
83 109 65
83 109 65
82 108 65
85 112 67
85 111 66
83 110 65
130 148 136
172 185 188
169 182 183
172 185 190
163 177 179
174 187 189
165 179 182
170 184 188
164 177 181
172 185 189
179 191 197
168 180 184
174 187 192
170 183 187
183 195 202
178 191 196
88 111 76
72 98 55
75 100 59
78 103 61
77 103 60
83 108 63
77 102 59
76 101 59
82 108 63
78 104 60
81 106 63
75 100 58
82 107 63
79 105 62
85 108 72
180 192 200
179 191 197
174 187 195
174 187 195
175 188 195
174 187 193
170 183 190
177 190 196
177 191 199
176 188 197
184 195 203
167 181 186
177 190 195
140 155 148
78 102 59
89 115 68
83 109 65
79 104 61
77 102 59
82 108 63
78 103 60
78 103 60
76 101 58
82 108 64
72 97 56
83 105 72
170 183 190
180 193 201
186 198 207
180 191 198
184 196 203
178 191 199
175 187 196
174 187 194
176 188 195
175 188 193
179 192 199
102 123 99
81 107 63
82 108 64
79 105 62
84 109 65
84 110 65
81 107 65
81 107 64
84 110 66
99 120 95
162 174 174
159 172 174
158 172 175
152 166 162
160 174 174
160 173 174
154 167 166
164 177 179
136 153 146
129 147 136
148 162 160
166 179 185
172 185 192
172 184 191
161 174 175
88 111 81
77 101 59
81 107 64
82 108 65
79 104 62
130 146 137
150 163 161
144 159 158
145 159 158
114 131 117
76 100 59
74 98 58
127 142 137
155 168 170
193 205 216
225 237 254
225 237 254
225 237 254
225 237 254
225 237 254
225 237 254
225 237 254
225 237 254
225 237 254
225 237 254
225 237 254
225 237 254
225 237 254
225 237 254
225 237 254
225 237 254
225 237 254
225 237 254
225 237 254
225 237 254
225 237 254
225 237 254
225 237 254
225 237 254
225 237 254
225 237 254
225 237 254
225 237 254
225 237 254
225 237 254
225 237 254
225 237 254
225 237 254
225 237 254
225 237 254
225 237 254
225 237 254
225 237 254
225 237 254
225 237 254
225 237 254
225 237 254
225 237 254
225 237 254
225 237 254
225 237 254
225 237 254
225 237 254
225 237 254
225 237 254
225 237 254
225 237 254
225 237 254
225 237 254
225 237 254
225 237 254
225 237 254
225 237 254
225 237 254
225 237 254
225 237 254
225 237 254
225 237 254
225 237 254
225 237 254
225 237 254
225 237 254
225 237 254
225 237 254
225 237 254
225 237 254
225 237 254
225 237 254
225 237 254
225 237 254
225 237 254
225 237 254
225 237 254
225 237 254
225 237 254
225 237 254
225 237 254
225 237 254
225 237 254
225 237 254
225 237 254
225 237 254
225 237 254
225 237 254
225 237 254
225 237 254
225 237 254
225 237 254
225 237 254
225 237 254
225 237 254
225 237 254
225 237 254
225 237 254
225 237 254
225 237 254
225 237 254
201 214 227
132 147 141
95 116 90
90 111 85
73 98 57
98 118 94
161 174 175
160 174 175
171 184 189
157 170 169
103 124 97
77 102 60
83 108 64
80 105 63
79 104 61
135 151 141
167 180 183
158 172 173
171 184 189
165 177 181
156 170 173
180 192 199
132 149 143
81 106 62
76 101 58
103 124 99
123 141 124
128 146 136
140 155 147
144 159 155
151 165 162
97 119 88
80 105 61
82 108 65
84 109 65
86 112 68
81 107 64
80 105 63
80 106 62
80 106 62
99 121 93
166 179 179
161 174 174
162 175 174
169 182 184
179 191 196
173 185 187
163 177 180
168 181 183
163 176 179
181 193 199
167 181 184
82 107 63
81 107 63
75 100 58
76 101 59
74 99 58
78 103 60
82 108 64
75 100 58
79 105 61
78 104 60
77 102 59
85 111 65
147 161 158
176 189 195
188 199 206
183 195 204
172 185 191
181 192 199
171 185 191
178 189 195
180 193 200
171 184 188
176 188 193
181 193 200
180 192 198
177 189 195
79 104 66
76 101 59
82 107 62
82 108 63
76 101 58
77 103 60
81 106 62
78 103 60
81 106 62
82 107 63
81 107 62
77 102 59
80 105 61
77 102 59
97 118 89
178 190 197
178 190 195
179 192 196
171 184 188
174 187 195
170 183 189
170 183 188
186 198 206
178 191 198
176 188 192
179 191 196
178 191 200
177 190 197
176 189 194
183 195 203
88 112 79
77 102 59
78 103 61
79 104 61
81 107 62
81 107 63
80 105 62
74 98 56
84 109 65
81 106 61
78 103 61
78 103 60
81 107 62
82 108 64
79 105 61
82 108 63
160 174 175
181 192 199
178 191 199
178 192 202
176 188 195
180 192 199
180 193 201
168 182 188
189 200 209
177 190 195
175 189 196
184 196 204
175 187 196
186 198 207
174 188 196
175 188 193
180 193 202
79 104 61
80 106 62
79 104 60
81 107 63
82 107 63
77 103 60
73 98 57
87 113 68
77 102 60
86 112 66
75 101 58
78 103 59
75 100 57
78 103 59
81 106 62
81 106 63
168 182 185
183 195 205
174 187 195
173 186 190
184 195 203
175 188 196
175 188 194
181 193 201
176 188 195
169 182 187
181 194 203
183 196 205
178 191 200
166 179 184
180 191 197
178 190 195
171 184 190
79 104 60
78 102 60
80 106 62
79 104 61
80 106 61
80 105 62
79 105 61
85 112 66
85 112 66
81 107 63
79 104 61
77 103 60
75 100 58
80 105 62
77 102 59
83 107 68
179 191 199
172 186 193
173 185 192
178 190 200
182 193 200
181 194 202
187 198 206
162 176 181
177 190 198
170 184 190
171 184 187
175 187 194
184 197 206
174 187 196
172 186 192
82 108 63
80 106 62
77 102 59
77 102 59
79 104 61
77 102 59
78 103 59
77 102 59
72 97 56
82 107 63
81 107 63
78 103 60
77 102 59
83 109 65
134 151 145
177 190 196
175 188 197
185 196 206
170 182 187
176 189 195
183 195 203
175 188 194
187 198 208
182 195 204
168 181 186
167 180 186
169 182 188
167 181 188
82 107 65
79 104 61
77 102 59
80 106 63
78 103 60
74 98 56
80 105 61
79 105 61
80 105 61
85 110 66
80 105 62
79 105 62
156 171 171
163 177 177
165 178 180
158 171 169
171 185 189
170 182 183
172 184 187
168 181 184
156 170 169
160 173 175
163 176 178
88 113 76
82 108 64
80 105 63
83 109 65
82 107 64
80 105 63
76 101 60
81 107 64
87 110 75
113 133 113
127 144 132
112 127 114
110 130 108
74 97 59
77 102 59
75 100 57
73 97 56
135 149 143
155 169 170
166 180 183
169 182 186
160 173 173
165 177 181
158 173 174
100 121 93
79 104 63
81 106 63
85 111 67
84 109 70
139 155 148
137 152 148
165 178 180
166 179 182
102 120 100
108 125 106
93 114 87
82 103 71
156 171 170
222 234 251
225 237 254
225 237 254
225 237 254
225 237 254
225 237 254
225 237 254
225 237 254
225 237 254
225 237 254
225 237 254
225 237 254
225 237 254
225 237 254
225 237 254
225 237 254
225 237 254
225 237 254
225 237 254
225 237 254
225 237 254
225 237 254
225 237 254
225 237 254
225 237 254
225 237 254
225 237 254
225 237 254
225 237 254
225 237 254
225 237 254
225 237 254
225 237 254
225 237 254
225 237 254
225 237 254
225 237 254
225 237 254
225 237 254
225 237 254
225 237 254
225 237 254
225 237 254
225 237 254
225 237 254
225 237 254
225 237 254
225 237 254
225 237 254
225 237 254
225 237 254
225 237 254
225 237 254
225 237 254
225 237 254
225 237 254
225 237 254
225 237 254
225 237 254
225 237 254
225 237 254
225 237 254
225 237 254
225 237 254
225 237 254
225 237 254
225 237 254
225 237 254
225 237 254
225 237 254
225 237 254
225 237 254
225 237 254
225 237 254
225 237 254
225 237 254
225 237 254
225 237 254
225 237 254
225 237 254
225 237 254
225 237 254
225 237 254
225 237 254
225 237 254
225 237 254
225 237 254
225 237 254
225 237 254
225 237 254
225 237 254
225 237 254
225 237 254
225 237 254
225 237 254
225 237 254
225 237 254
225 237 254
225 237 254
225 237 254
225 237 254
225 237 254
225 237 254
225 237 254
225 237 254
225 237 254
225 237 254
225 237 254
225 237 254
224 236 253
179 192 200
97 119 91
127 143 133
163 177 177
136 152 147
167 181 185
159 172 173
168 181 185
153 167 164
108 128 107
82 108 64
80 105 63
82 108 64
80 106 63
130 145 134
167 179 180
157 170 172
158 171 173
171 183 185
157 170 172
163 177 178
125 142 128
79 104 61
82 107 64
80 105 62
78 104 62
80 106 62
75 101 60
75 100 58
150 165 163
178 191 199
164 177 181
169 181 186
162 175 179
142 157 152
162 176 177
139 155 147
109 130 109
113 133 113
147 161 158
183 195 201
178 190 195
162 176 177
158 171 172
171 184 190
177 189 194
160 173 175
166 179 181
168 181 184
166 179 179
81 106 62
80 106 63
86 113 67
87 114 68
85 111 66
86 112 68
79 104 61
85 111 67
86 113 67
87 113 69
81 106 63
86 112 71
165 178 182
173 187 194
170 183 186
163 177 180
172 185 190
176 188 191
178 190 198
188 200 207
186 198 205
183 196 202
170 183 188
172 185 192
173 186 192
113 132 113
84 109 64
76 102 58
81 107 63
83 109 64
81 106 63
81 107 62
78 103 61
76 100 59
79 105 62
83 109 65
76 100 59
79 105 61
81 107 63
99 121 91
178 191 200
178 191 198
184 195 203
178 191 198
165 179 182
169 182 186
172 185 189
181 193 200
179 191 199
176 188 194
172 185 191
169 183 187
177 190 197
178 190 197
175 188 196
75 99 57
78 104 60
81 106 63
82 108 63
81 106 62
77 102 60
76 101 59
75 100 57
79 104 61
77 103 60
81 107 63
82 107 63
80 106 63
80 105 62
80 106 62
87 112 73
179 192 202
169 182 189
168 180 185
187 200 210
179 192 200
176 189 196
167 180 184
174 187 191
176 190 198
172 185 193
184 196 203
174 187 192
176 188 195
182 194 202
181 192 199
170 184 190
83 108 64
74 98 56
76 101 58
78 104 61
86 112 66
79 104 61
78 103 60
81 106 61
79 104 60
83 109 64
80 105 62
82 107 63
81 107 63
79 104 61
81 107 63
85 110 65
174 188 194
167 180 185
180 193 202
174 187 193
170 182 186
184 195 204
171 185 191
181 192 198
180 192 199
188 199 208
169 182 186
178 190 195
175 189 195
176 188 194
178 190 199
183 195 202
96 119 87
77 103 60
76 101 59
82 108 63
80 105 62
80 105 62
76 101 58
78 104 60
76 101 59
78 103 60
77 102 59
80 106 62
77 102 60
77 102 58
76 101 59
73 97 56
177 190 196
176 188 194
177 190 196
182 194 202
181 193 200
175 188 194
167 180 183
174 186 193
172 185 191
190 202 213
168 182 190
175 188 195
183 195 203
179 192 200
177 190 195
82 108 63
75 100 58
77 102 60
80 106 62
75 100 58
74 99 57
81 107 63
79 105 62
80 105 61
71 96 55
80 105 62
74 99 58
77 101 59
77 102 60
169 181 182
181 193 202
177 189 196
168 182 185
178 191 196
173 185 190
179 192 199
176 188 194
161 175 178
167 182 185
169 182 186
172 185 191
164 179 181
105 127 101
84 111 66
86 112 67
84 110 66
86 113 67
85 111 66
83 110 66
83 109 65
85 111 67
81 107 64
82 108 65
81 106 63
147 160 157
159 173 177
168 180 183
171 183 186
164 179 182
154 167 166
165 178 182
165 179 183
146 161 158
144 158 155
155 169 172
131 147 136
156 170 169
151 166 167
168 180 186
163 176 182
182 194 202
170 183 188
178 191 201
165 178 182
97 118 92
79 105 62
78 104 61
79 104 62
75 100 59
77 101 60
74 99 58
102 125 95
152 165 165
162 174 176
156 168 170
166 179 183
148 163 162
160 173 177
105 125 102
78 104 62
80 106 63
73 99 58
71 95 55
127 145 134
156 171 173
151 165 166
145 159 159
144 157 158
141 155 153
121 138 126
139 156 150
206 218 232
225 237 254
225 237 254
225 237 254
225 237 254
225 237 254
225 237 254
225 237 254
225 237 254
225 237 254
225 237 254
225 237 254
225 237 254
225 237 254
225 237 254
225 237 254
225 237 254
225 237 254
225 237 254
225 237 254
225 237 254
225 237 254
225 237 254
225 237 254
225 237 254
225 237 254
225 237 254
225 237 254
225 237 254
225 237 254
225 237 254
225 237 254
225 237 254
225 237 254
225 237 254
225 237 254
225 237 254
225 237 254
225 237 254
225 237 254
225 237 254
225 237 254
225 237 254
225 237 254
225 237 254
225 237 254
225 237 254
225 237 254
225 237 254
225 237 254
225 237 254
225 237 254
225 237 254
225 237 254
225 237 254
225 237 254
225 237 254
225 237 254
225 237 254
225 237 254
225 237 254
225 237 254
225 237 254
225 237 254
225 237 254
225 237 254
225 237 254
225 237 254
225 237 254
225 237 254
225 237 254
225 237 254
225 237 254
225 237 254
225 237 254
225 237 254
225 237 254
225 237 254
225 237 254
225 237 254
225 237 254
225 237 254
225 237 254
225 237 254
225 237 254
225 237 254
225 237 254
225 237 254
225 237 254
225 237 254
225 237 254
225 237 254
225 237 254
225 237 254
225 237 254
225 237 254
225 237 254
225 237 254
225 237 254
225 237 254
225 237 254
225 237 254
225 237 254
225 237 254
225 237 254
225 237 254
225 237 254
225 237 254
225 237 254
225 237 254
225 237 254
225 237 254
225 237 254
225 237 254
225 237 254
225 237 254
225 237 254
218 230 247
160 174 174
97 117 96
140 155 150
151 164 165
122 139 129
74 99 57
92 113 88
124 141 129
91 113 82
79 105 62
74 99 57
75 100 58
79 105 62
150 164 163
167 180 184
172 185 189
172 184 188
170 181 187
166 178 181
151 166 164
90 112 80
80 106 63
83 108 64
81 108 64
76 102 61
82 109 65
79 104 61
112 131 109
157 171 171
156 171 171
159 172 172
177 189 194
159 174 177
160 174 176
172 184 188
170 182 186
159 172 175
96 117 88
80 106 62
80 106 62
79 104 62
76 101 58
78 103 60
79 102 68
103 120 103
112 131 114
122 139 126
100 121 94
118 136 119
110 131 107
105 128 99
82 107 63
81 107 63
80 105 62
87 113 68
85 112 67
78 104 62
88 115 69
80 106 63
108 128 103
150 164 162
168 179 182
156 169 171
165 177 178
165 178 180
174 187 191
174 186 189
167 179 181
158 172 172
163 175 177
175 188 193
168 181 186
153 167 165
82 108 65
81 108 64
82 108 64
83 108 64
84 110 66
85 111 66
84 111 66
89 116 69
83 109 65
85 111 66
84 109 65
83 109 65
83 109 65
93 116 82
166 179 181
176 189 194
171 183 186
165 178 182
177 190 198
166 180 180
179 191 197
168 182 187
170 185 191
183 195 202
161 174 179
174 187 191
166 179 184
173 185 190
161 175 174
82 108 64
78 103 60
86 113 67
81 106 62
83 108 64
76 101 59
78 103 60
84 110 65
83 109 65
81 107 63
81 107 63
78 103 60
78 103 60
77 102 60
83 109 64
180 192 202
173 186 189
180 192 200
170 182 187
178 191 198
180 192 199
173 185 191
175 188 196
169 182 187
176 189 196
175 188 194
174 187 193
169 183 188
174 187 193
176 189 198
175 187 189
74 99 57
80 105 62
83 109 64
75 100 58
82 107 63
79 105 62
78 103 60
80 105 61
78 103 60
77 102 60
78 104 61
84 110 64
78 103 60
82 108 64
79 104 62
81 107 63
176 190 198
175 187 192
188 200 209
175 188 197
174 185 190
169 183 191
163 176 182
180 192 198
181 193 201
174 187 192
176 188 195
166 180 186
178 191 197
181 192 196
168 181 187
168 181 184
78 103 60
79 103 60
81 107 62
77 102 59
80 106 62
79 104 61
80 106 62
81 107 63
80 106 62
82 108 63
79 103 60
76 101 58
81 107 64
75 101 59
80 104 61
175 187 196
176 188 194
180 192 201
171 182 187
179 191 198
172 186 192
176 188 195
176 188 192
178 190 196
169 183 187
168 181 186
179 190 196
168 180 183
173 185 189
171 183 186
81 107 63
80 106 63
84 111 66
80 105 62
88 115 69
80 107 64
82 109 65
77 102 61
86 113 68
81 107 63
82 107 64
79 104 61
84 110 66
98 120 90
161 174 173
158 172 173
169 181 183
175 187 194
175 187 191
159 172 173
171 183 188
162 175 179
161 175 178
155 169 167
161 174 177
177 190 194
133 149 138
80 105 63
81 108 64
81 107 64
78 104 62
81 107 64
87 112 73
103 124 101
123 141 126
120 138 124
149 163 161
141 157 154
92 113 86
94 114 88
73 97 56
81 106 62
75 100 58
78 104 61
75 99 58
78 103 61
73 97 57
73 97 56
129 147 137
163 176 180
159 173 177
166 178 180
155 169 168
144 159 161
160 173 174
157 170 171
160 173 172
132 148 137
79 106 64
77 102 60
83 108 65
77 102 60
76 101 60
75 99 58
79 103 63
145 159 155
162 175 179
152 166 165
156 169 169
149 164 163
151 164 165
112 130 114
77 102 59
73 98 56
80 101 68
95 115 95
80 103 68
89 112 78
76 101 60
108 126 108
165 178 181
129 144 139
120 135 128
181 193 203
225 237 254
225 237 254
225 237 254
225 237 254
225 237 254
225 237 254
225 237 254
225 237 254
225 237 254
225 237 254
225 237 254
225 237 254
225 237 254
225 237 254
225 237 254
225 237 254
225 237 254
225 237 254
225 237 254
225 237 254
225 237 254
225 237 254
225 237 254
225 237 254
225 237 254
225 237 254
225 237 254
225 237 254
225 237 254
225 237 254
225 237 254
225 237 254
225 237 254
225 237 254
225 237 254
225 237 254
225 237 254
225 237 254
225 237 254
225 237 254
225 237 254
225 237 254
225 237 254
225 237 254
225 237 254
225 237 254
225 237 254
225 237 254
225 237 254
225 237 254
225 237 254
225 237 254
225 237 254
225 237 254
225 237 254
225 237 254
225 237 254
225 237 254
225 237 254
225 237 254
225 237 254
225 237 254
225 237 254
225 237 254
225 237 254
225 237 254
225 237 254
225 237 254
225 237 254
225 237 254
225 237 254
225 237 254
225 237 254
225 237 254
225 237 254
225 237 254
225 237 254
225 237 254
225 237 254
225 237 254
225 237 254
225 237 254
225 237 254
225 237 254
225 237 254
225 237 254
225 237 254
225 237 254
225 237 254
225 237 254
225 237 254
225 237 254
225 237 254
225 237 254
225 237 254
225 237 254
225 237 254
225 237 254
225 237 254
225 237 254
225 237 254
225 237 254
225 237 254
225 237 254
225 237 254
225 237 254
225 237 254
225 237 254
225 237 254
225 237 254
225 237 254
225 237 254
225 237 254
225 237 254
225 237 254
225 237 254
225 237 254
225 237 254
225 237 254
225 237 254
225 237 254
225 237 254
225 237 254
225 237 254
209 221 235
141 157 151
119 135 124
153 166 169
148 162 159
102 123 100
77 102 60
78 103 61
107 125 109
160 174 178
141 156 153
137 153 147
118 136 122
149 164 164
168 182 186
164 177 182
168 181 185
160 174 179
163 176 179
131 148 137
82 108 64
84 110 66
78 102 60
80 105 62
80 105 62
86 112 67
77 103 60
142 158 151
167 180 182
161 175 179
150 165 163
171 184 187
171 184 189
161 174 173
156 169 169
156 171 171
109 128 108
82 109 65
77 101 60
81 107 64
83 109 65
77 103 61
77 102 60
78 104 61
78 103 60
74 99 57
121 140 120
159 172 172
172 184 191
176 189 194
174 186 192
176 189 197
170 183 187
168 181 185
175 187 195
169 182 187
174 187 193
183 194 201
104 123 104
106 126 101
107 126 103
112 130 111
125 143 128
117 134 120
139 156 146
147 162 158
147 163 159
154 167 164
169 183 185
160 173 174
161 175 179
93 116 81
80 106 63
80 106 63
77 103 61
86 113 67
86 112 67
81 106 63
86 112 67
79 105 62
80 105 62
86 113 68
84 110 66
83 109 65
83 107 67
163 176 175
170 182 185
167 179 181
169 183 187
170 183 186
163 176 178
157 171 170
162 176 178
166 178 181
161 176 176
166 179 182
172 184 187
168 180 183
167 181 186
132 148 134
85 111 66
80 105 62
79 104 62
82 107 64
82 109 65
85 111 66
85 111 66
88 115 69
83 110 67
80 106 62
81 108 64
83 110 65
84 110 66
89 116 70
107 127 106
160 173 175
163 175 177
165 178 179
166 179 181
168 181 184
172 184 189
170 183 187
173 186 189
167 178 182
166 180 182
163 176 177
162 176 177
176 187 191
163 176 177
159 173 172
86 112 67
86 112 68
83 109 65
81 107 63
81 106 63
83 108 65
78 102 60
85 111 67
86 112 67
83 109 66
80 106 63
86 113 68
79 105 63
84 110 66
80 105 63
86 112 72
164 177 181
151 164 164
170 182 186
162 175 177
174 186 191
156 169 172
173 185 189
171 184 187
170 182 185
161 175 176
169 182 185
159 172 174
153 168 165
161 175 176
164 177 178
97 120 87
84 110 65
87 113 68
82 108 63
80 105 62
79 104 62
83 108 64
81 106 62
82 107 64
79 104 62
83 108 64
87 113 68
80 106 62
81 106 62
81 106 64
161 175 175
173 185 188
149 164 160
160 174 175
169 183 185
171 182 186
160 174 177
170 183 184
159 173 175
161 174 177
169 182 187
155 169 170
159 174 175
168 181 184
152 167 165
80 105 62
78 104 61
81 106 63
81 108 64
79 103 61
82 109 65
80 105 62
81 106 63
77 103 61
83 108 65
83 109 65
84 109 65
89 112 80
143 160 152
148 162 158
151 165 161
136 151 142
129 146 135
126 142 130
113 132 111
104 124 102
92 113 85
87 110 76
79 104 62
78 103 61
85 106 80
171 184 189
170 183 191
175 188 197
171 184 190
172 185 190
172 185 192
178 190 198
167 180 182
163 177 182
157 170 171
166 180 183
103 124 103
83 109 66
77 101 60
81 107 64
85 112 67
76 101 60
80 105 62
82 109 66
80 105 62
83 109 66
140 156 148
152 167 167
165 178 181
144 159 158
151 165 166
157 171 170
159 172 174
152 166 166
155 169 169
94 115 84
77 102 60
81 107 64
82 108 65
85 111 67
79 104 62
76 100 62
125 142 134
159 173 177
160 174 178
159 173 180
154 168 172
142 156 153
147 161 161
128 143 135
161 174 177
148 161 163
125 141 131
93 115 86
75 98 58
84 105 75
139 154 153
152 166 167
134 150 145
178 191 198
225 237 254
225 237 254
225 237 254
225 237 254
225 237 254
225 237 254
225 237 254
225 237 254
225 237 254
225 237 254
225 237 254
225 237 254
225 237 254
225 237 254
225 237 254
225 237 254
225 237 254
225 237 254
225 237 254
225 237 254
225 237 254
225 237 254
225 237 254
225 237 254
225 237 254
225 237 254
225 237 254
225 237 254
225 237 254
225 237 254
225 237 254
225 237 254
225 237 254
225 237 254
225 237 254
225 237 254
225 237 254
225 237 254
225 237 254
225 237 254
225 237 254
225 237 254
225 237 254
225 237 254
225 237 254
225 237 254
225 237 254
225 237 254
225 237 254
225 237 254
225 237 254
225 237 254
225 237 254
225 237 254
225 237 254
225 237 254
225 237 254
225 237 254
225 237 254
225 237 254
225 237 254
225 237 254
225 237 254
225 237 254
225 237 254
225 237 254
225 237 254
225 237 254
225 237 254
225 237 254
225 237 254
225 237 254
225 237 254
225 237 254
225 237 254
225 237 254
225 237 254
225 237 254
225 237 254
225 237 254
225 237 254
225 237 254
225 237 254
225 237 254
225 237 254
225 237 254
225 237 254
225 237 254
225 237 254
225 237 254
225 237 254
225 237 254
225 237 254
225 237 254
225 237 254
225 237 254
225 237 254
225 237 254
225 237 254
225 237 254
225 237 254
225 237 254
225 237 254
225 237 254
225 237 254
225 237 254
225 237 254
225 237 254
225 237 254
225 237 254
225 237 254
225 237 254
225 237 254
225 237 254
225 237 254
225 237 254
225 237 254
225 237 254
225 237 254
225 237 254
225 237 254
225 237 254
225 237 254
225 237 254
225 237 254
225 237 254
225 237 254
225 237 254
225 237 254
225 237 254
225 237 254
225 237 254
206 219 232
162 176 179
158 171 175
162 176 181
116 132 121
73 98 56
74 99 58
111 130 113
158 170 172
157 171 173
165 178 182
158 173 174
116 134 117
76 101 59
77 102 61
93 116 84
108 126 111
130 146 139
91 113 86
78 103 63
73 98 56
77 101 59
83 108 64
74 98 58
75 99 58
114 132 116
153 168 166
154 168 168
163 177 182
155 168 168
154 167 168
163 176 178
167 180 185
180 192 197
131 146 135
76 102 60
85 111 66
79 104 62
80 106 62
79 104 61
79 104 61
79 104 61
81 106 63
84 110 65
115 133 114
164 177 178
152 166 165
154 168 169
170 183 187
163 177 178
171 183 189
171 184 189
166 179 181
144 157 156
179 192 198
168 181 185
80 105 65
81 108 64
79 104 62
74 99 58
79 105 62
79 104 61
76 101 59
80 105 62
74 99 58
77 102 59
77 102 59
79 104 61
133 149 143
181 194 202
169 183 189
177 190 197
181 192 200
176 188 196
176 189 196
161 174 177
179 191 199
171 185 192
170 183 187
161 175 178
175 187 194
165 178 182
91 112 84
92 112 88
111 130 109
110 129 108
106 125 106
106 124 105
122 140 127
121 138 126
137 152 146
134 149 141
144 159 153
136 152 144
150 165 163
147 161 159
105 125 103
107 128 102
92 114 83
87 110 73
96 120 84
82 107 67
81 107 63
78 104 63
81 106 63
81 107 64
83 109 65
83 109 64
82 107 64
79 104 62
83 109 65
169 182 184
173 185 188
165 176 177
169 183 187
158 172 173
162 175 176
159 172 178
157 170 172
163 176 178
174 186 190
163 176 180
153 168 167
165 178 181
172 185 190
167 179 182
90 116 74
85 111 66
81 106 64
82 107 64
83 108 65
80 105 62
87 114 68
81 107 64
81 107 64
83 108 64
81 107 64
84 110 66
81 107 63
81 107 64
78 103 60
108 128 106
156 170 169
161 174 177
161 174 176
175 187 191
164 177 178
158 170 171
171 184 188
164 176 179
164 177 180
168 180 182
163 177 179
172 185 189
161 174 173
166 179 181
151 163 161
82 108 65
84 110 67
76 101 59
84 110 65
79 104 61
82 108 65
88 111 76
87 112 72
98 122 89
87 110 76
100 122 96
100 120 94
108 128 108
119 137 123
109 130 107
134 150 144
145 161 155
113 131 114
128 146 130
114 132 116
125 142 129
102 119 99
95 116 91
108 125 106
96 119 85
90 110 83
87 111 71
73 96 55
118 136 123
164 179 184
164 178 181
183 195 204
176 188 195
168 180 186
166 180 183
172 186 192
169 181 184
169 181 185
174 186 194
170 183 189
174 187 191
167 181 186
75 99 57
73 98 56
73 98 57
77 103 60
77 102 60
83 109 65
83 109 64
80 105 63
80 105 62
78 104 62
84 110 66
85 109 71
151 164 163
165 177 178
160 173 175
170 182 188
150 164 162
168 181 187
160 172 172
163 176 179
158 172 172
164 177 180
155 169 169
92 114 81
81 106 63
77 102 60
73 97 57
78 103 61
78 103 62
80 105 63
76 100 59
79 105 63
86 108 77
153 167 167
167 179 181
154 168 169
154 168 171
164 177 181
147 161 162
159 173 175
142 156 154
112 129 114
74 98 56
78 102 60
69 92 53
70 94 54
85 107 77
116 132 119
83 105 71
104 124 104
76 101 59
75 99 58
75 100 59
87 108 77
120 138 125
160 173 176
149 163 163
152 165 166
118 134 127
72 95 55
66 89 51
108 124 111
154 168 171
153 166 169
186 199 207
224 236 253
225 237 254
225 237 254
225 237 254
225 237 254
225 237 254
225 237 254
225 237 254
225 237 254
225 237 254
225 237 254
225 237 254
225 237 254
225 237 254
225 237 254
225 237 254
225 237 254
225 237 254
225 237 254
225 237 254
225 237 254
225 237 254
225 237 254
225 237 254
225 237 254
225 237 254
225 237 254
225 237 254
225 237 254
225 237 254
225 237 254
225 237 254
225 237 254
225 237 254
225 237 254
225 237 254
225 237 254
225 237 254
225 237 254
225 237 254
225 237 254
225 237 254
225 237 254
225 237 254
225 237 254
225 237 254
225 237 254
225 237 254
225 237 254
225 237 254
225 237 254
225 237 254
225 237 254
225 237 254
225 237 254
225 237 254
225 237 254
225 237 254
225 237 254
225 237 254
225 237 254
225 237 254
225 237 254
225 237 254
225 237 254
225 237 254
225 237 254
225 237 254
225 237 254
225 237 254
225 237 254
225 237 254
225 237 254
225 237 254
225 237 254
225 237 254
225 237 254
225 237 254
225 237 254
225 237 254
225 237 254
225 237 254
225 237 254
225 237 254
225 237 254
225 237 254
225 237 254
225 237 254
225 237 254
225 237 254
225 237 254
225 237 254
225 237 254
225 237 254
225 237 254
225 237 254
225 237 254
225 237 254
225 237 254
225 237 254
225 237 254
225 237 254
225 237 254
225 237 254
225 237 254
225 237 254
225 237 254
225 237 254
225 237 254
225 237 254
225 237 254
225 237 254
225 237 254
225 237 254
225 237 254
225 237 254
225 237 254
225 237 254
225 237 254
225 237 254
225 237 254
225 237 254
225 237 254
225 237 254
225 237 254
225 237 254
225 237 254
225 237 254
225 237 254
225 237 254
225 237 254
225 237 254
225 237 254
225 237 254
225 237 254
225 237 254
225 237 254
225 237 254
225 237 254
225 237 254
220 232 249
164 178 182
106 123 107
107 124 110
83 105 78
74 98 57
90 111 83
138 154 151
163 176 181
171 183 189
163 176 180
142 157 151
77 102 60
77 102 61
78 104 61
77 102 61
79 104 62
126 143 132
158 172 173
157 171 170
159 173 174
140 155 150
139 155 150
118 134 124
145 161 160
161 174 176
175 188 194
171 184 190
175 188 198
165 178 182
172 184 191
167 181 186
158 173 173
93 116 86
79 104 62
84 111 66
81 107 64
82 107 63
75 100 59
77 102 60
77 102 61
78 103 61
102 123 94
154 167 168
165 177 181
167 180 184
169 181 184
158 171 173
169 181 183
158 172 173
167 179 185
158 171 172
163 176 180
161 175 175
81 106 63
79 105 62
77 102 61
82 107 64
80 105 62
83 109 65
80 106 63
84 110 66
80 105 62
79 104 62
84 110 65
80 106 64
159 171 174
154 167 166
161 175 177
162 175 178
171 184 189
157 171 170
157 171 171
163 175 176
166 180 184
154 168 168
177 189 195
162 175 174
162 176 180
80 105 62
82 109 64
75 100 59
74 99 58
79 105 63
79 104 61
79 104 61
77 101 59
76 102 60
81 107 63
79 104 61
77 102 60
77 101 59
75 100 58
168 181 185
172 185 191
164 178 182
166 179 182
170 182 186
175 187 194
166 179 182
167 180 183
172 184 189
179 191 199
168 181 185
170 182 189
167 181 184
158 172 178
138 153 146
77 103 60
78 103 60
76 100 58
80 105 62
80 106 63
76 100 57
74 99 57
78 104 61
76 100 58
77 102 59
73 98 57
74 99 57
84 110 65
79 104 60
153 168 169
165 178 182
176 188 195
168 181 186
183 196 205
172 186 193
157 171 175
179 191 198
167 181 184
165 178 182
172 185 191
169 183 190
170 182 188
158 171 174
167 180 186
104 124 100
74 99 57
74 99 57
76 101 59
79 104 61
75 99 56
76 101 59
75 100 58
73 96 55
77 102 60
80 106 62
80 105 63
78 103 60
77 102 60
80 106 62
173 186 193
174 187 194
174 186 193
168 180 186
168 180 185
179 192 200
169 181 186
174 187 195
176 188 194
178 189 196
168 180 184
155 168 171
173 186 193
160 174 176
134 150 142
80 106 63
76 100 58
81 107 63
79 105 62
80 106 63
72 95 54
80 105 62
79 104 62
83 109 65
86 113 68
78 104 62
82 108 64
80 106 62
127 143 132
156 170 173
164 177 178
159 172 175
151 166 165
172 185 188
146 160 158
158 172 173
163 177 180
169 181 186
165 177 180
140 155 155
171 182 185
102 122 98
79 104 61
76 101 61
78 103 61
80 106 63
76 101 60
79 105 62
79 104 62
81 106 63
79 104 62
80 105 62
83 109 65
156 170 170
156 170 171
170 182 185
161 174 177
155 169 168
163 176 178
161 174 177
162 175 177
159 172 176
164 176 178
156 170 169
89 114 77
76 101 59
80 105 63
75 100 60
76 101 60
72 96 55
79 105 62
76 101 59
82 108 65
125 141 135
164 177 183
158 172 176
164 177 181
171 183 190
164 177 182
139 154 153
142 157 155
155 168 170
133 148 142
154 168 170
141 154 155
155 167 170
151 164 163
140 153 153
117 134 122
79 105 61
73 97 57
76 100 59
76 101 60
91 112 85
157 170 175
166 179 184
158 171 174
145 160 159
99 117 104
64 87 49
71 94 57
90 109 86
121 136 130
193 206 217
225 237 254
225 237 254
225 237 254
225 237 254
225 237 254
225 237 254
225 237 254
225 237 254
225 237 254
225 237 254
225 237 254
225 237 254
225 237 254
225 237 254
225 237 254
225 237 254
225 237 254
225 237 254
225 237 254
225 237 254
225 237 254
225 237 254
225 237 254
225 237 254
225 237 254
225 237 254
225 237 254
225 237 254
225 237 254
225 237 254
225 237 254
225 237 254
225 237 254
225 237 254
225 237 254
225 237 254
225 237 254
225 237 254
225 237 254
225 237 254
225 237 254
225 237 254
225 237 254
225 237 254
225 237 254
225 237 254
225 237 254
225 237 254
225 237 254
225 237 254
225 237 254
225 237 254
225 237 254
225 237 254
225 237 254
225 237 254
225 237 254
225 237 254
225 237 254
225 237 254
225 237 254
225 237 254
225 237 254
225 237 254
225 237 254
225 237 254
225 237 254
225 237 254
225 237 254
225 237 254
225 237 254
225 237 254
225 237 254
225 237 254
225 237 254
225 237 254
225 237 254
225 237 254
225 237 254
225 237 254
225 237 254
225 237 254
225 237 254
225 237 254
225 237 254
225 237 254
225 237 254
225 237 254
225 237 254
225 237 254
225 237 254
225 237 254
225 237 254
225 237 254
225 237 254
225 237 254
225 237 254
225 237 254
225 237 254
225 237 254
225 237 254
225 237 254
225 237 254
225 237 254
225 237 254
225 237 254
225 237 254
225 237 254
225 237 254
225 237 254
225 237 254
225 237 254
225 237 254
225 237 254
225 237 254
225 237 254
225 237 254
225 237 254
225 237 254
225 237 254
225 237 254
225 237 254
225 237 254
225 237 254
225 237 254
225 237 254
225 237 254
225 237 254
225 237 254
225 237 254
225 237 254
225 237 254
225 237 254
225 237 254
225 237 254
225 237 254
225 237 254
225 237 254
225 237 254
225 237 254
225 237 254
225 237 254
225 237 254
225 237 254
225 237 254
225 237 254
225 237 254
225 237 254
222 234 251
180 193 202
108 126 115
101 118 100
116 132 120
117 133 123
142 157 155
149 162 163
162 176 180
160 174 179
144 158 157
96 116 94
70 94 54
74 99 57
76 100 59
75 100 58
130 147 141
147 162 163
152 166 165
155 169 171
151 165 164
153 167 169
152 165 163
121 139 123
76 101 60
77 102 60
73 97 56
75 99 58
82 108 64
91 113 86
106 127 105
93 113 89
117 134 119
115 132 119
102 121 96
81 106 68
71 95 54
76 100 59
75 100 58
74 98 56
84 106 74
161 176 181
172 185 190
165 177 181
170 183 186
158 170 172
159 172 174
155 169 169
157 171 174
162 175 176
158 171 173
132 149 138
82 109 66
76 102 60
78 104 61
78 102 61
77 103 61
80 105 63
79 104 62
84 110 66
74 99 58
79 105 62
81 107 64
124 140 129
155 168 167
170 182 186
157 171 173
159 171 172
166 179 183
166 180 181
154 167 168
166 178 182
158 171 172
158 170 172
154 168 168
161 174 174
82 106 71
80 105 62
79 105 62
85 112 68
77 103 61
81 106 64
78 103 61
77 103 60
83 109 65
80 105 62
78 103 61
82 108 64
80 106 63
86 110 71
169 181 184
162 175 178
167 180 183
167 180 184
170 182 186
168 181 185
173 185 189
163 176 178
157 171 171
156 170 172
156 170 168
159 172 175
174 187 190
158 171 171
85 111 66
81 106 63
73 98 57
83 109 65
84 109 65
83 109 66
83 110 65
83 109 65
84 111 66
81 107 64
79 105 62
79 106 63
80 106 63
83 109 65
111 131 110
164 177 178
157 170 169
170 182 182
158 171 174
163 175 177
156 170 175
154 168 167
162 174 179
170 182 186
165 178 182
156 169 173
162 176 179
159 172 173
163 177 180
83 109 66
85 111 67
76 101 59
81 106 63
81 107 63
73 98 57
80 106 63
80 106 63
82 108 65
81 106 64
84 110 66
82 108 65
77 103 61
83 108 65
99 119 95
163 176 179
164 177 177
155 168 168
170 183 187
159 173 171
149 164 166
168 180 183
162 174 174
157 170 172
165 178 177
173 186 190
154 168 168
166 179 181
156 170 170
75 100 59
79 104 62
81 107 64
80 105 63
78 104 61
77 103 62
77 102 59
82 108 64
78 103 60
77 103 61
80 105 63
78 103 60
80 105 63
160 173 178
160 172 172
160 172 174
161 175 177
146 159 159
168 180 184
151 164 164
170 183 186
164 177 179
167 179 184
164 178 180
148 162 159
145 160 154
82 108 64
81 106 63
82 108 65
75 101 59
78 103 61
77 102 59
78 103 61
77 103 61
83 110 66
84 109 65
79 104 62
139 154 149
155 169 170
154 169 169
167 180 183
153 167 168
158 171 173
158 172 175
171 183 189
155 169 168
161 175 182
139 154 154
77 102 60
74 98 56
70 94 54
89 110 78
110 128 109
108 125 108
127 142 137
141 156 148
123 140 127
92 113 82
71 95 56
83 109 66
72 96 56
78 103 60
80 106 63
76 101 59
102 122 104
147 160 156
134 150 143
148 161 162
150 163 162
149 161 162
165 178 181
116 132 122
71 95 55
69 93 53
65 88 49
72 95 56
103 119 105
163 177 182
158 172 179
152 166 170
151 165 167
138 152 150
139 153 150
104 120 108
140 154 152
188 201 211
225 237 254
225 237 254
225 237 254
225 237 254
225 237 254
225 237 254
225 237 254
225 237 254
225 237 254
225 237 254
225 237 254
225 237 254
225 237 254
225 237 254
225 237 254
225 237 254
225 237 254
225 237 254
225 237 254
225 237 254
225 237 254
225 237 254
225 237 254
225 237 254
225 237 254
225 237 254
225 237 254
225 237 254
225 237 254
225 237 254
225 237 254
225 237 254
225 237 254
225 237 254
225 237 254
225 237 254
225 237 254
225 237 254
225 237 254
225 237 254
225 237 254
225 237 254
225 237 254
225 237 254
225 237 254
225 237 254
225 237 254
225 237 254
225 237 254
225 237 254
225 237 254
225 237 254
225 237 254
225 237 254
225 237 254
225 237 254
225 237 254
225 237 254
225 237 254
225 237 254
225 237 254
225 237 254
225 237 254
225 237 254
225 237 254
225 237 254
225 237 254
225 237 254
225 237 254
225 237 254
225 237 254
225 237 254
225 237 254
225 237 254
225 237 254
225 237 254
225 237 254
225 237 254
225 237 254
225 237 254
225 237 254
225 237 254
225 237 254
225 237 254
225 237 254
225 237 254
225 237 254
225 237 254
225 237 254
225 237 254
225 237 254
225 237 254
225 237 254
225 237 254
225 237 254
225 237 254
225 237 254
225 237 254
225 237 254
225 237 254
225 237 254
225 237 254
225 237 254
225 237 254
225 237 254
225 237 254
225 237 254
225 237 254
225 237 254
225 237 254
225 237 254
225 237 254
225 237 254
225 237 254
225 237 254
225 237 254
225 237 254
225 237 254
225 237 254
225 237 254
225 237 254
225 237 254
225 237 254
225 237 254
225 237 254
225 237 254
225 237 254
225 237 254
225 237 254
225 237 254
225 237 254
225 237 254
225 237 254
225 237 254
225 237 254
225 237 254
225 237 254
225 237 254
225 237 254
225 237 254
225 237 254
225 237 254
225 237 254
225 237 254
225 237 254
225 237 254
225 237 254
225 237 254
225 237 254
225 237 254
225 237 254
225 237 254
225 237 254
225 237 254
225 237 254
225 237 254
225 237 254
184 197 207
126 141 134
113 130 118
150 164 167
138 152 151
107 125 108
91 112 86
111 130 116
127 143 134
103 120 102
70 94 54
74 98 57
69 93 53
73 97 57
122 140 128
165 179 183
173 185 191
160 172 178
162 176 183
164 175 179
167 180 185
88 111 81
73 97 57
83 109 66
75 100 59
76 100 59
71 95 55
73 97 57
81 103 71
156 170 171
149 163 163
156 169 169
164 177 179
147 162 160
153 167 168
159 171 173
166 179 181
163 176 178
102 122 96
90 111 81
107 126 106
120 138 124
125 141 130
134 149 142
155 168 168
140 157 154
149 165 163
159 173 176
133 149 141
73 97 57
78 103 60
75 99 57
74 99 58
75 99 58
71 96 55
75 100 58
70 94 54
77 101 59
78 104 61
85 109 71
168 182 186
164 177 180
152 166 166
165 177 181
171 184 190
158 172 172
153 167 166
169 183 187
158 172 175
149 163 161
163 177 177
155 168 169
123 141 125
80 106 63
80 105 62
74 99 58
82 108 64
80 106 63
75 99 59
78 102 60
81 106 63
81 106 63
78 104 61
83 109 65
82 107 64
98 118 91
160 174 172
165 178 181
157 171 172
150 165 164
157 171 172
167 180 183
170 183 186
169 181 182
168 181 184
156 169 172
163 175 179
162 175 180
162 176 177
128 144 135
77 102 60
79 104 62
78 104 62
83 109 65
82 108 64
81 108 64
83 108 64
80 106 62
79 105 63
78 103 61
74 98 57
78 103 61
83 109 65
99 120 94
154 168 169
161 175 178
161 175 177
164 178 183
159 173 173
160 173 175
168 181 184
163 175 176
152 167 163
158 172 175
169 182 186
145 160 157
156 170 171
162 176 177
81 106 64
82 108 64
82 108 64
77 103 60
85 110 65
84 110 66
81 106 63
80 106 63
84 110 66
79 104 61
85 112 67
81 107 64
82 107 64
80 106 64
153 167 169
156 169 169
152 166 166
167 180 181
157 170 170
172 183 189
157 170 171
162 176 180
161 174 174
167 181 184
155 169 170
161 175 175
169 182 184
160 174 176
78 103 61
76 100 59
77 102 61
77 102 59
77 103 60
79 104 62
80 106 62
78 103 62
82 108 65
78 104 62
77 102 60
80 105 63
97 119 90
163 176 179
158 171 172
157 171 171
150 163 162
171 183 186
153 168 167
171 183 184
169 182 186
163 176 178
170 183 190
175 187 193
169 182 187
92 115 78
76 101 59
73 97 57
74 98 57
71 95 54
74 98 57
72 96 55
74 98 56
76 101 59
73 97 56
83 106 70
127 144 135
130 145 140
142 158 152
125 141 133
124 141 129
117 134 124
88 110 82
85 108 78
77 101 60
75 100 58
118 138 120
163 175 177
157 171 172
157 170 173
157 170 171
153 167 168
147 161 160
147 162 159
146 159 159
120 137 125
74 99 58
79 104 62
80 106 63
68 92 54
72 96 56
71 94 55
110 128 111
159 170 175
167 180 189
155 168 172
160 174 176
150 164 165
151 165 168
109 126 114
66 90 51
67 91 51
69 93 54
93 112 87
98 116 94
90 110 87
79 105 62
113 129 121
155 169 175
135 149 147
107 123 114
155 167 171
215 227 243
225 237 254
225 237 254
225 237 254
225 237 254
225 237 254
225 237 254
225 237 254
225 237 254
225 237 254
225 237 254
225 237 254
225 237 254
225 237 254
225 237 254
225 237 254
225 237 254
225 237 254
225 237 254
225 237 254
225 237 254
225 237 254
225 237 254
225 237 254
225 237 254
225 237 254
225 237 254
225 237 254
225 237 254
225 237 254
225 237 254
225 237 254
225 237 254
225 237 254
225 237 254
225 237 254
225 237 254
225 237 254
225 237 254
225 237 254
225 237 254
225 237 254
225 237 254
225 237 254
225 237 254
225 237 254
225 237 254
225 237 254
225 237 254
225 237 254
225 237 254
225 237 254
225 237 254
225 237 254
225 237 254
225 237 254
225 237 254
225 237 254
225 237 254
225 237 254
225 237 254
225 237 254
225 237 254
225 237 254
225 237 254
225 237 254
225 237 254
225 237 254
225 237 254
225 237 254
225 237 254
225 237 254
225 237 254
225 237 254
225 237 254
225 237 254
225 237 254
225 237 254
225 237 254
225 237 254
225 237 254
225 237 254
225 237 254
225 237 254
225 237 254
225 237 254
225 237 254
225 237 254
225 237 254
225 237 254
225 237 254
225 237 254
225 237 254
225 237 254
225 237 254
225 237 254
225 237 254
225 237 254
225 237 254
225 237 254
225 237 254
225 237 254
225 237 254
225 237 254
225 237 254
225 237 254
225 237 254
225 237 254
225 237 254
225 237 254
225 237 254
225 237 254
225 237 254
225 237 254
225 237 254
225 237 254
225 237 254
225 237 254
225 237 254
225 237 254
225 237 254
225 237 254
225 237 254
225 237 254
225 237 254
225 237 254
225 237 254
225 237 254
225 237 254
225 237 254
225 237 254
225 237 254
225 237 254
225 237 254
225 237 254
225 237 254
225 237 254
225 237 254
225 237 254
225 237 254
225 237 254
225 237 254
225 237 254
225 237 254
225 237 254
225 237 254
225 237 254
225 237 254
225 237 254
225 237 254
225 237 254
225 237 254
225 237 254
225 237 254
225 237 254
225 237 254
225 237 254
225 237 254
225 237 254
225 237 254
225 237 254
225 237 254
225 237 254
225 237 254
225 237 254
225 237 254
217 229 245
164 178 181
118 135 124
147 161 160
147 161 161
111 127 113
71 95 55
75 99 59
114 133 116
147 161 160
146 160 160
131 146 141
103 120 102
126 142 134
156 170 173
166 179 184
158 172 176
154 167 170
163 175 182
150 165 167
88 109 87
69 92 53
69 92 52
75 100 58
76 101 59
72 96 54
72 95 55
111 128 116
155 169 172
158 171 175
156 170 172
163 176 182
158 172 172
152 165 164
144 159 156
156 170 170
117 135 119
73 98 57
78 103 61
77 102 61
77 102 60
74 99 58
77 103 60
74 98 57
75 100 59
77 102 61
131 147 140
154 168 168
163 176 179
163 176 178
151 165 165
153 165 165
152 166 163
152 166 166
166 178 183
150 164 161
144 160 156
144 158 155
118 138 121
126 143 130
148 163 159
147 161 157
137 152 147
157 170 171
158 171 173
161 174 177
170 183 191
170 182 187
168 181 186
153 168 167
73 97 57
78 104 61
78 103 60
77 102 60
72 97 56
73 97 57
74 99 58
75 100 58
76 101 59
76 100 59
72 96 56
77 101 59
118 137 121
167 180 185
160 174 176
164 177 180
166 179 187
153 167 168
171 184 189
162 175 176
169 181 186
162 176 179
169 182 186
163 176 182
149 163 161
174 188 194
78 103 60
78 103 61
76 101 59
77 102 60
75 99 58
78 103 60
79 104 62
74 99 58
77 102 60
79 105 63
79 105 62
82 107 64
78 104 62
81 107 63
163 176 179
153 167 168
161 174 178
164 177 182
159 173 173
169 182 185
160 173 175
168 180 184
162 175 178
149 165 162
154 168 167
159 172 174
163 175 176
152 166 165
76 101 59
79 104 62
79 104 62
79 104 62
77 101 60
80 106 62
73 98 57
76 101 58
74 99 58
80 106 63
77 102 61
75 99 57
81 107 63
124 141 129
159 172 176
172 185 190
156 169 170
163 176 181
162 175 178
177 189 197
180 192 198
168 182 188
175 188 194
167 181 188
165 178 182
160 174 177
159 173 176
77 102 59
73 97 56
77 102 60
73 97 55
67 90 51
74 99 58
71 95 54
76 101 59
78 103 60
72 95 54
79 104 61
74 98 57
116 136 122
163 176 178
161 174 177
153 167 169
139 155 149
146 161 158
134 151 146
135 151 143
117 134 118
116 135 120
112 132 111
91 112 84
132 148 141
147 161 161
162 174 177
156 170 173
143 158 155
145 160 160
138 153 149
137 152 147
159 172 174
153 167 165
145 159 159
118 135 119
74 98 58
82 107 64
82 108 65
78 103 61
75 99 58
77 101 60
78 103 61
74 99 58
85 110 70
135 150 143
155 168 169
170 182 187
147 162 163
154 168 170
158 172 177
158 171 175
162 175 178
130 145 140
76 99 63
71 95 55
72 96 56
71 96 55
70 94 55
69 93 53
98 117 97
145 159 161
160 173 178
155 168 172
154 167 170
142 156 156
144 158 155
139 151 151
134 148 144
144 158 157
150 165 164
122 137 130
69 92 53
67 89 51
100 116 104
139 153 153
130 144 144
163 176 181
193 205 216
225 237 254
225 237 254
225 237 254
225 237 254
225 237 254
225 237 254
225 237 254
225 237 254
225 237 254
225 237 254
225 237 254
225 237 254
225 237 254
225 237 254
225 237 254
225 237 254
225 237 254
225 237 254
225 237 254
225 237 254
225 237 254
225 237 254
225 237 254
225 237 254
225 237 254
225 237 254
225 237 254
225 237 254
225 237 254
225 237 254
225 237 254
225 237 254
225 237 254
225 237 254
225 237 254
225 237 254
225 237 254
225 237 254
225 237 254
225 237 254
225 237 254
225 237 254
225 237 254
225 237 254
225 237 254
225 237 254
225 237 254
225 237 254
225 237 254
225 237 254
225 237 254
225 237 254
225 237 254
225 237 254
225 237 254
225 237 254
225 237 254
225 237 254
225 237 254
225 237 254
225 237 254
225 237 254
225 237 254
225 237 254
225 237 254
225 237 254
225 237 254
225 237 254
225 237 254
225 237 254
225 237 254
225 237 254
225 237 254
225 237 254
225 237 254
225 237 254
225 237 254
225 237 254
225 237 254
225 237 254
225 237 254
225 237 254
225 237 254
225 237 254
225 237 254
225 237 254
225 237 254
225 237 254
225 237 254
225 237 254
225 237 254
225 237 254
225 237 254
225 237 254
225 237 254
225 237 254
225 237 254
225 237 254
225 237 254
225 237 254
225 237 254
225 237 254
225 237 254
225 237 254
225 237 254
225 237 254
225 237 254
225 237 254
225 237 254
225 237 254
225 237 254
225 237 254
225 237 254
225 237 254
225 237 254
225 237 254
225 237 254
225 237 254
225 237 254
225 237 254
225 237 254
225 237 254
225 237 254
225 237 254
225 237 254
225 237 254
225 237 254
225 237 254
225 237 254
225 237 254
225 237 254
225 237 254
225 237 254
225 237 254
225 237 254
225 237 254
225 237 254
225 237 254
225 237 254
225 237 254
225 237 254
225 237 254
225 237 254
225 237 254
225 237 254
225 237 254
225 237 254
225 237 254
225 237 254
225 237 254
225 237 254
225 237 254
225 237 254
225 237 254
225 237 254
225 237 254
225 237 254
225 237 254
225 237 254
225 237 254
225 237 254
225 237 254
225 237 254
225 237 254
225 237 254
225 237 254
225 237 254
225 237 254
225 237 254
225 237 254
225 237 254
225 237 254
225 237 254
225 237 254
225 237 254
201 213 225
166 179 185
136 151 147
130 145 140
111 126 114
63 85 48
71 95 55
115 132 119
155 168 170
147 161 163
160 173 177
142 157 158
113 132 119
70 94 54
73 97 56
85 107 72
104 124 103
109 126 112
86 107 75
82 103 76
84 105 78
73 98 56
74 98 57
78 102 60
80 104 67
142 157 154
161 174 179
166 180 186
157 170 171
159 171 172
165 179 186
163 177 184
167 180 186
147 160 159
72 96 56
74 99 57
72 96 55
73 98 57
73 97 57
75 99 58
75 100 58
70 94 55
72 96 55
119 137 123
165 178 183
151 163 162
157 171 174
156 170 172
154 168 168
151 165 164
146 160 158
162 174 176
154 167 167
151 166 167
106 126 101
80 106 63
76 101 60
80 106 63
85 111 67
75 100 59
80 106 63
74 99 58
77 102 61
81 107 64
81 107 64
78 104 61
156 169 172
158 171 171
152 165 164
152 166 167
157 171 171
159 172 174
155 168 171
159 173 174
154 167 168
154 168 169
158 171 172
152 166 166
129 146 134
78 103 61
79 105 61
78 103 61
80 104 65
90 112 81
85 108 73
99 121 91
95 118 85
108 127 105
113 133 114
104 125 103
103 122 102
108 128 107
146 160 159
127 143 135
140 155 148
130 146 137
137 152 146
134 148 144
127 144 136
130 146 138
132 147 139
122 139 128
123 138 131
129 144 135
132 147 137
134 152 143
128 145 135
122 140 128
136 152 144
118 135 123
124 140 129
144 160 155
138 154 150
132 149 140
139 155 150
130 147 139
147 163 159
135 151 142
119 135 124
134 148 139
142 156 152
120 138 125
123 139 126
130 147 137
128 143 137
151 164 161
123 139 128
135 152 146
132 146 142
131 147 137
142 157 154
144 158 156
91 113 85
103 124 100
91 113 83
88 112 75
89 111 81
84 108 72
76 101 59
81 106 63
75 100 58
80 105 62
82 108 64
78 104 62
81 105 67
156 169 169
148 162 162
162 176 177
155 168 167
155 168 167
156 169 168
153 166 167
158 170 171
153 168 167
162 175 177
153 166 168
157 171 174
80 104 65
75 99 59
75 99 58
80 105 62
76 102 60
79 105 62
79 103 61
79 104 62
80 105 63
73 97 57
75 100 59
113 130 113
165 178 182
141 154 152
154 169 170
154 168 167
158 170 171
150 163 162
155 167 169
163 175 177
158 172 174
160 172 175
95 116 92
73 97 57
72 97 55
72 96 56
67 91 52
69 92 52
69 94 54
72 96 55
75 99 57
118 134 120
164 177 184
157 169 172
163 176 180
164 176 182
167 179 186
151 164 165
163 176 182
143 158 155
85 106 77
69 92 53
73 97 56
82 103 74
94 113 92
113 129 118
109 125 114
79 103 64
74 99 58
70 94 55
71 95 56
75 97 61
114 129 117
150 164 170
148 162 164
140 153 152
129 143 140
82 102 73
61 83 47
94 111 96
109 123 115
150 165 168
199 211 223
223 235 252
225 237 254
225 237 254
225 237 254
225 237 254
225 237 254
225 237 254
225 237 254
225 237 254
225 237 254
225 237 254
225 237 254
225 237 254
225 237 254
225 237 254
225 237 254
225 237 254
225 237 254
225 237 254
225 237 254
225 237 254
225 237 254
225 237 254
225 237 254
225 237 254
225 237 254
225 237 254
225 237 254
225 237 254
225 237 254
225 237 254
225 237 254
225 237 254
225 237 254
225 237 254
225 237 254
225 237 254
225 237 254
225 237 254
225 237 254
225 237 254
225 237 254
225 237 254
225 237 254
225 237 254
225 237 254
225 237 254
225 237 254
225 237 254
225 237 254
225 237 254
225 237 254
225 237 254
225 237 254
225 237 254
225 237 254
225 237 254
225 237 254
225 237 254
225 237 254
225 237 254
225 237 254
225 237 254
225 237 254
225 237 254
225 237 254
225 237 254
225 237 254
225 237 254
225 237 254
225 237 254
225 237 254
225 237 254
225 237 254
225 237 254
225 237 254
225 237 254
225 237 254
225 237 254
225 237 254
225 237 254
225 237 254
225 237 254
225 237 254
225 237 254
225 237 254
225 237 254
225 237 254
225 237 254
225 237 254
225 237 254
225 237 254
225 237 254
225 237 254
225 237 254
225 237 254
225 237 254
225 237 254
225 237 254
225 237 254
225 237 254
225 237 254
225 237 254
225 237 254
225 237 254
225 237 254
225 237 254
225 237 254
225 237 254
225 237 254
225 237 254
225 237 254
225 237 254
225 237 254
225 237 254
225 237 254
225 237 254
225 237 254
225 237 254
225 237 254
225 237 254
225 237 254
225 237 254
225 237 254
225 237 254
225 237 254
225 237 254
225 237 254
225 237 254
225 237 254
225 237 254
225 237 254
225 237 254
225 237 254
225 237 254
225 237 254
225 237 254
225 237 254
225 237 254
225 237 254
225 237 254
225 237 254
225 237 254
225 237 254
225 237 254
225 237 254
225 237 254
225 237 254
225 237 254
225 237 254
225 237 254
225 237 254
225 237 254
225 237 254
225 237 254
225 237 254
225 237 254
225 237 254
225 237 254
225 237 254
225 237 254
225 237 254
225 237 254
225 237 254
225 237 254
225 237 254
225 237 254
225 237 254
225 237 254
225 237 254
225 237 254
225 237 254
225 237 254
225 237 254
225 237 254
225 237 254
225 237 254
225 237 254
225 237 254
225 237 254
225 237 254
225 237 254
225 237 254
225 237 254
225 237 254
214 226 241
156 170 171
89 110 83
97 116 93
104 120 108
79 99 73
111 128 117
148 161 163
150 163 167
155 169 172
137 151 152
87 107 81
68 91 53
73 96 56
64 87 49
70 94 54
131 146 142
164 177 182
168 180 186
146 160 161
148 163 163
147 160 160
135 150 146
123 139 126
108 125 110
132 148 141
142 157 157
156 170 173
171 184 190
156 169 172
161 175 182
113 130 116
77 102 60
73 97 57
70 94 54
70 94 54
74 98 58
72 96 55
69 93 53
76 100 59
137 153 148
173 187 196
165 179 184
160 173 175
160 174 176
166 179 184
163 177 179
164 177 181
155 168 172
175 188 195
163 175 180
88 110 75
68 92 52
69 93 54
75 99 58
71 96 56
75 99 58
67 91 51
74 98 58
74 98 57
75 100 59
80 105 62
138 152 146
159 171 174
168 180 184
162 175 178
149 163 162
157 171 173
148 162 161
154 168 169
162 175 180
140 154 153
151 165 164
158 173 172
119 138 122
73 97 57
70 94 54
76 101 59
79 105 62
77 102 61
76 101 60
77 102 61
76 101 60
74 98 58
74 98 57
79 105 62
78 103 60
161 174 178
145 159 155
146 158 156
160 173 176
152 166 169
153 167 168
148 163 161
164 177 181
144 158 159
156 169 171
144 158 157
157 170 172
146 160 156
78 104 61
79 104 62
76 101 60
77 102 59
76 101 59
78 104 61
81 106 64
81 107 64
80 105 62
81 107 63
74 99 58
78 103 62
82 109 65
155 167 167
158 171 172
152 166 166
163 175 179
152 165 166
160 173 175
161 173 176
163 176 176
165 178 182
152 164 167
163 176 179
149 163 163
152 166 167
81 106 66
75 100 59
78 103 61
78 103 61
76 101 60
80 105 63
73 97 56
82 107 63
82 108 65
74 98 58
75 100 59
79 105 63
95 117 90
149 162 164
156 170 173
150 164 164
158 171 171
149 164 162
143 157 159
157 171 171
148 162 159
154 166 167
168 181 185
164 177 180
151 166 165
73 98 58
75 98 57
69 92 54
77 102 60
74 99 57
74 99 58
71 94 55
77 102 60
78 102 60
66 90 51
95 115 92
165 179 186
160 173 176
145 159 160
169 182 189
162 174 179
164 177 184
177 189 197
166 180 186
169 182 190
166 180 188
79 97 76
68 92 52
63 85 48
70 93 54
70 93 54
67 91 52
74 98 57
71 95 55
79 100 70
145 158 159
140 154 154
146 160 162
132 148 143
104 122 104
114 131 120
90 111 84
100 120 101
143 156 156
150 163 162
143 157 158
146 159 160
163 175 181
157 170 178
114 130 123
68 90 55
68 90 51
66 89 51
68 90 53
99 117 95
142 155 156
162 175 180
147 161 162
115 132 122
106 123 108
93 110 95
125 138 131
124 139 134
173 186 193
220 232 249
225 237 254
225 237 254
225 237 254
225 237 254
225 237 254
225 237 254
225 237 254
225 237 254
225 237 254
225 237 254
225 237 254
225 237 254
225 237 254
225 237 254
225 237 254
225 237 254
225 237 254
225 237 254
225 237 254
225 237 254
225 237 254
225 237 254
225 237 254
225 237 254
225 237 254
225 237 254
225 237 254
225 237 254
225 237 254
225 237 254
225 237 254
225 237 254
225 237 254
225 237 254
225 237 254
225 237 254
225 237 254
225 237 254
225 237 254
225 237 254
225 237 254
225 237 254
225 237 254
225 237 254
225 237 254
225 237 254
225 237 254
225 237 254
225 237 254
225 237 254
225 237 254
225 237 254
225 237 254
225 237 254
225 237 254
225 237 254
225 237 254
225 237 254
225 237 254
225 237 254
225 237 254
225 237 254
225 237 254
225 237 254
225 237 254
225 237 254
225 237 254
225 237 254
225 237 254
225 237 254
225 237 254
225 237 254
225 237 254
225 237 254
225 237 254
225 237 254
225 237 254
225 237 254
225 237 254
225 237 254
225 237 254
225 237 254
225 237 254
225 237 254
225 237 254
225 237 254
225 237 254
225 237 254
225 237 254
225 237 254
225 237 254
225 237 254
225 237 254
225 237 254
225 237 254
225 237 254
225 237 254
225 237 254
225 237 254
225 237 254
225 237 254
225 237 254
225 237 254
225 237 254
225 237 254
225 237 254
225 237 254
225 237 254
225 237 254
225 237 254
225 237 254
225 237 254
225 237 254
225 237 254
225 237 254
225 237 254
225 237 254
225 237 254
225 237 254
225 237 254
225 237 254
225 237 254
225 237 254
225 237 254
225 237 254
225 237 254
225 237 254
225 237 254
225 237 254
225 237 254
225 237 254
225 237 254
225 237 254
225 237 254
225 237 254
225 237 254
225 237 254
225 237 254
225 237 254
225 237 254
225 237 254
225 237 254
225 237 254
225 237 254
225 237 254
225 237 254
225 237 254
225 237 254
225 237 254
225 237 254
225 237 254
225 237 254
225 237 254
225 237 254
225 237 254
225 237 254
225 237 254
225 237 254
225 237 254
225 237 254
225 237 254
225 237 254
225 237 254
225 237 254
225 237 254
225 237 254
225 237 254
225 237 254
225 237 254
225 237 254
225 237 254
225 237 254
225 237 254
225 237 254
225 238 254
225 238 254
225 238 254
225 238 254
225 238 254
225 238 254
225 238 254
225 238 254
225 238 254
225 238 254
225 238 254
225 238 254
225 238 254
225 238 254
225 238 254
225 238 254
225 238 254
225 238 254
225 238 254
225 238 254
218 230 245
168 181 185
114 129 120
116 132 125
153 166 170
135 150 146
119 135 127
122 137 128
135 150 148
97 114 97
78 100 67
72 95 55
72 96 56
66 89 51
96 113 96
146 159 160
144 157 156
155 168 171
157 170 174
148 161 163
144 158 158
114 131 119
66 89 51
68 92 53
69 92 53
70 94 54
73 98 58
67 91 52
87 107 83
161 173 174
142 156 155
143 158 157
146 160 158
132 147 142
124 140 131
114 129 118
123 139 129
124 139 128
141 155 151
157 170 171
165 178 185
157 169 171
154 167 172
166 179 187
157 170 173
162 175 179
155 169 173
147 161 161
73 97 56
69 92 53
71 95 54
73 98 57
65 88 50
72 96 55
72 96 55
72 96 55
75 99 58
72 96 55
102 120 101
169 181 188
171 183 188
151 166 166
164 178 183
156 168 171
153 166 169
153 166 168
164 178 183
153 167 168
168 181 187
160 175 180
122 137 129
66 90 50
68 93 53
70 93 54
69 92 53
71 95 55
66 89 49
70 94 53
71 94 54
74 99 58
73 97 56
75 99 58
87 106 80
159 173 176
165 178 181
175 188 195
161 174 180
167 179 185
174 188 194
149 163 164
158 172 176
159 173 176
167 180 185
165 178 185
158 171 174
89 109 83
71 96 56
76 101 59
67 90 51
70 94 54
71 96 55
64 87 48
75 99 58
77 102 59
71 94 54
70 94 54
74 98 57
66 89 50
156 170 172
171 183 190
168 181 185
160 173 178
172 185 192
157 169 170
157 171 174
153 166 170
158 170 174
164 177 182
161 174 180
154 168 172
118 135 124
71 95 55
71 95 55
73 97 56
70 94 55
66 89 51
71 94 54
73 98 57
74 98 57
72 96 55
76 100 59
72 96 55
106 125 108
160 173 178
155 169 172
164 177 184
167 180 186
161 173 177
170 181 187
167 180 185
154 167 167
152 165 166
162 176 182
158 171 175
84 104 80
67 89 50
80 105 62
67 90 51
69 92 53
67 90 52
69 93 52
70 93 53
75 99 57
71 95 55
87 109 80
151 165 167
159 172 177
162 174 180
162 176 181
158 171 175
148 162 163
150 163 166
131 145 141
129 144 140
133 149 147
124 139 132
132 148 142
155 169 168
157 169 170
147 160 160
154 167 169
149 163 163
154 168 172
112 128 117
68 92 52
66 89 51
61 83 47
69 92 53
68 92 53
64 86 49
97 115 97
156 169 172
151 163 168
151 165 168
149 163 167
149 163 166
124 139 132
100 116 101
63 85 47
72 96 56
65 88 51
83 104 73
116 131 122
100 115 103
91 110 88
114 128 120
150 162 167
125 139 136
166 180 184
180 193 201
225 237 253
225 238 254
225 238 254
225 238 254
225 238 254
225 238 254
225 238 254
225 238 254
225 238 254
225 238 254
225 238 254
225 238 254
225 238 254
225 238 254
225 238 254
225 238 254
225 238 254
225 238 254
225 238 254
225 238 254
225 237 254
225 237 254
225 237 254
225 237 254
225 237 254
225 237 254
225 237 254
225 237 254
225 237 254
225 237 254
225 237 254
225 237 254
225 237 254
225 237 254
225 237 254
225 237 254
225 237 254
225 237 254
225 237 254
225 237 254
225 237 254
225 237 254
225 237 254
225 237 254
225 237 254
225 237 254
225 237 254
225 237 254
225 237 254
225 237 254
225 237 254
225 237 254
225 237 254
225 237 254
225 237 254
225 237 254
225 237 254
225 237 254
225 237 254
225 237 254
225 237 254
225 237 254
225 237 254
225 237 254
225 237 254
225 237 254
225 237 254
225 237 254
225 237 254
225 237 254
225 237 254
225 237 254
225 237 254
225 237 254
225 237 254
225 237 254
225 237 254
225 237 254
225 237 254
225 237 254
225 237 254
225 237 254
225 237 254
225 237 254
225 237 254
225 237 254
225 237 254
225 237 254
225 237 254
225 237 254
225 237 254
225 237 254
225 237 254
225 237 254
225 237 254
225 237 254
225 237 254
225 237 254
225 237 254
225 237 254
225 237 254
225 237 254
225 237 254
225 237 254
225 237 254
225 237 254
225 237 254
225 237 254
225 237 254
225 237 254
225 237 254
225 237 254
225 237 254
225 237 254
225 237 254
225 237 254
225 237 254
225 237 254
225 237 254
225 237 254
225 237 254
225 237 254
225 237 254
225 237 254
225 237 254
225 237 254
225 237 254
225 237 254
225 237 254
225 237 254
225 237 254
225 237 254
225 237 254
225 237 254
225 237 254
225 237 254
225 237 254
225 237 254
225 237 254
225 237 254
225 237 254
225 237 254
225 237 254
225 237 254
225 237 254
225 237 254
225 237 254
225 238 254
225 238 254
225 238 254
225 238 254
225 238 254
225 238 254
225 238 254
225 238 254
225 238 254
225 238 254
225 238 254
225 238 254
225 238 254
225 238 254
225 238 254
225 238 254
225 238 254
225 238 254
225 238 254
225 238 254
225 238 254
225 238 254
225 238 254
225 238 254
225 238 254
225 238 254
226 238 254
226 238 254
226 238 254
226 238 254
226 238 254
226 238 254
226 238 254
226 238 254
226 238 254
226 238 254
226 238 254
226 238 254
226 238 254
226 238 254
226 238 254
226 238 254
226 238 254
226 238 254
226 238 254
226 238 254
226 238 254
226 238 254
226 238 254
226 238 254
226 238 254
226 238 254
226 238 254
226 238 254
226 238 254
226 238 254
226 238 254
226 238 254
225 237 253
192 205 215
153 165 169
129 143 140
131 145 144
103 120 104
65 88 50
63 86 48
117 131 124
142 155 155
127 143 138
124 139 133
117 133 122
133 147 144
150 163 165
147 161 164
145 159 159
151 164 168
155 168 169
113 129 117
71 95 54
71 95 54
73 97 56
68 91 52
61 82 46
69 93 54
111 127 113
159 172 175
156 169 171
147 161 163
151 165 167
153 166 169
164 177 182
157 170 172
160 173 180
97 118 94
68 92 54
75 98 58
69 93 54
68 92 52
71 95 55
71 95 55
72 95 55
72 96 56
92 111 88
152 166 168
148 162 163
141 156 154
140 154 150
141 155 150
142 157 155
126 141 135
134 150 145
111 126 115
112 130 116
134 151 148
147 160 159
144 160 159
135 151 147
152 166 166
155 168 171
153 167 167
142 158 160
167 179 183
154 169 174
158 171 176
133 147 141
70 94 54
71 95 55
70 93 55
70 94 54
71 94 54
79 104 61
69 93 53
70 93 53
70 95 54
66 90 50
67 90 51
143 159 161
160 173 178
149 163 164
165 178 184
155 170 173
161 175 178
167 180 188
164 177 182
160 172 177
151 164 168
158 172 175
156 170 172
110 125 113
81 105 62
66 90 51
75 99 58
73 97 56
69 93 54
79 103 60
71 95 55
70 93 54
77 102 60
73 97 56
75 100 58
83 103 77
159 172 177
154 167 169
159 172 177
159 173 178
160 173 177
159 171 177
159 172 177
164 177 181
156 169 174
165 177 182
155 171 177
157 169 173
71 95 55
77 102 59
70 94 53
75 100 58
65 88 49
72 97 56
72 96 55
75 99 58
68 92 51
71 95 54
73 97 57
108 125 108
153 166 169
156 169 170
146 160 158
157 170 171
147 161 163
140 155 152
134 149 146
131 148 143
136 152 148
130 145 139
133 148 143
136 150 144
128 143 136
134 149 146
142 156 155
149 163 163
149 164 163
148 162 165
146 158 158
136 150 148
145 159 157
75 97 62
69 93 53
63 86 49
68 91 53
68 90 52
70 94 54
67 90 52
69 94 54
64 86 52
139 154 153
141 155 158
149 162 164
147 162 163
153 167 173
151 165 169
156 170 176
167 180 187
115 130 120
65 88 50
68 92 54
68 90 52
66 88 50
66 89 51
67 91 52
121 137 127
135 150 147
154 168 172
133 146 143
125 140 135
126 140 136
134 148 150
105 120 110
138 153 153
144 159 161
117 130 127
78 98 74
58 80 45
105 120 107
132 144 144
164 175 181
177 190 196
214 226 240
226 238 254
226 238 254
226 238 254
226 238 254
226 238 254
226 238 254
226 238 254
226 238 254
226 238 254
226 238 254
226 238 254
226 238 254
226 238 254
226 238 254
226 238 254
226 238 254
226 238 254
226 238 254
226 238 254
226 238 254
226 238 254
226 238 254
226 238 254
226 238 254
226 238 254
226 238 254
226 238 254
226 238 254
226 238 254
226 238 254
226 238 254
226 238 254
226 238 254
225 238 254
225 238 254
225 238 254
225 238 254
225 238 254
225 238 254
225 238 254
225 238 254
225 238 254
225 238 254
225 238 254
225 238 254
225 238 254
225 238 254
225 238 254
225 238 254
225 238 254
225 238 254
225 238 254
225 238 254
225 238 254
225 238 254
225 238 254
225 238 254
225 238 254
225 238 254
225 237 254
225 237 254
225 237 254
225 237 254
225 237 254
225 237 254
225 237 254
225 237 254
225 237 254
225 237 254
225 237 254
225 237 254
225 237 254
225 237 254
225 237 254
225 237 254
225 237 254
225 237 254
225 237 254
225 237 254
225 237 254
225 237 254
225 237 254
225 237 254
225 237 254
225 237 254
225 237 254
225 237 254
225 237 254
225 237 254
225 237 254
225 237 254
225 237 254
225 237 254
225 237 254
225 237 254
225 237 254
225 237 254
225 237 254
225 237 254
225 237 254
225 237 254
225 237 254
225 237 254
225 237 254
225 237 254
225 237 254
225 237 254
225 237 254
225 237 254
225 237 254
225 237 254
225 237 254
225 237 254
225 237 254
225 237 254
225 237 254
225 237 254
225 237 254
225 237 254
225 237 254
225 237 254
225 237 254
225 237 254
225 237 254
225 238 254
225 238 254
225 238 254
225 238 254
225 238 254
225 238 254
225 238 254
225 238 254
225 238 254
225 238 254
225 238 254
225 238 254
225 238 254
225 238 254
225 238 254
225 238 254
225 238 254
225 238 254
225 238 254
225 238 254
225 238 254
226 238 254
226 238 254
226 238 254
226 238 254
226 238 254
226 238 254
226 238 254
226 238 254
226 238 254
226 238 254
226 238 254
226 238 254
226 238 254
226 238 254
226 238 254
226 238 254
226 238 254
226 238 254
226 238 254
226 238 254
226 238 254
226 238 254
226 238 254
226 238 254
226 238 254
226 238 254
226 238 254
226 238 254
226 238 254
226 238 254
226 238 254
226 238 254
226 238 254
226 238 254
226 238 254
226 238 254
226 238 254
226 238 254
226 238 254
226 238 254
226 238 254
226 238 254
226 238 254
226 238 254
226 238 254
226 238 254
226 238 254
226 238 254
226 238 254
226 238 254
226 238 254
226 238 254
226 238 254
226 238 254
226 238 254
226 238 254
226 238 254
226 238 254
226 238 254
226 238 254
226 238 254
226 238 254
226 238 254
226 238 254
226 238 254
226 238 254
226 238 254
226 238 254
226 238 254
226 238 254
226 238 254
221 233 249
187 199 208
163 176 180
97 114 97
80 100 73
66 90 52
101 120 102
121 136 131
142 156 157
138 152 152
148 161 166
94 112 96
67 89 51
61 85 47
70 93 56
81 101 76
72 94 62
102 119 103
105 121 108
94 113 95
80 102 71
70 94 55
68 91 52
104 120 108
151 165 167
144 158 160
146 160 161
150 162 163
149 162 164
149 162 162
157 170 173
129 143 139
72 96 56
71 95 55
67 91 53
67 90 52
70 94 54
67 89 51
70 94 54
67 90 52
112 129 115
153 167 172
168 181 188
167 180 187
171 184 193
158 172 177
156 169 175
166 178 184
150 162 162
160 175 179
146 159 160
68 91 52
66 88 50
73 98 57
66 89 50
70 94 54
68 91 53
69 92 53
64 87 49
75 99 59
70 93 54
105 122 108
164 177 184
159 172 176
158 172 177
160 174 179
160 172 174
145 160 160
166 179 184
154 167 169
161 174 177
156 169 172
148 161 161
69 93 53
73 97 56
65 87 49
67 91 51
76 101 59
77 101 60
72 96 56
78 103 61
72 96 55
69 93 54
69 92 54
90 111 84
155 168 172
147 160 160
155 169 170
146 159 158
149 163 163
147 160 160
162 175 177
148 162 162
148 162 165
152 166 165
157 170 174
108 125 111
70 94 56
72 95 56
70 93 55
72 96 56
72 96 56
69 93 53
71 95 56
73 96 57
77 102 60
73 97 56
75 100 59
151 164 167
158 172 173
149 163 167
154 168 170
153 167 168
153 165 169
159 172 175
174 187 194
146 160 162
180 192 199
150 163 162
102 119 99
71 94 54
63 85 47
71 95 54
68 90 52
60 83 46
72 96 55
67 90 52
66 89 51
74 97 56
73 98 58
159 171 176
159 172 180
161 173 178
150 164 166
154 167 169
154 168 169
146 160 160
150 163 164
162 174 180
141 155 157
70 93 53
68 92 53
65 88 50
68 92 53
63 85 48
65 88 51
72 95 55
67 90 51
108 126 113
156 170 177
148 163 166
145 160 163
152 165 170
152 165 168
142 156 157
145 158 158
111 128 115
67 91 53
90 108 88
93 113 94
115 132 120
116 132 123
106 122 114
84 103 79
65 87 50
67 90 52
69 92 54
74 92 70
131 145 145
155 167 173
148 161 162
137 150 147
104 120 107
76 97 69
61 83 48
113 128 121
169 182 188
205 217 231
226 238 254
226 238 254
226 238 254
226 238 254
226 238 254
226 238 254
226 238 254
226 238 254
226 238 254
226 238 254
226 238 254
226 238 254
226 238 254
226 238 254
226 238 254
226 238 254
226 238 254
226 238 254
226 238 254
226 238 254
226 238 254
226 238 254
226 238 254
226 238 254
226 238 254
226 238 254
226 238 254
226 238 254
226 238 254
226 238 254
226 238 254
226 238 254
226 238 254
226 238 254
226 238 254
226 238 254
226 238 254
226 238 254
226 238 254
226 238 254
226 238 254
226 238 254
226 238 254
226 238 254
226 238 254
226 238 254
226 238 254
226 238 254
226 238 254
226 238 254
226 238 254
226 238 254
226 238 254
226 238 254
226 238 254
226 238 254
226 238 254
226 238 254
226 238 254
226 238 254
226 238 254
226 238 254
226 238 254
226 238 254
226 238 254
226 238 254
226 238 254
226 238 254
226 238 254
226 238 254
226 238 254
225 238 254
225 238 254
225 238 254
225 238 254
225 238 254
225 238 254
225 238 254
225 238 254
225 238 254
225 238 254
225 238 254
225 238 254
225 238 254
225 238 254
225 238 254
225 238 254
225 238 254
225 238 254
225 238 254
225 238 254
225 238 254
225 237 254
225 237 254
225 237 254
225 237 254
225 237 254
225 237 254
225 237 254
225 237 254
225 237 254
225 237 254
225 237 254
225 237 254
225 237 254
225 237 254
225 237 254
225 237 254
225 237 254
225 237 254
225 237 254
225 238 254
225 238 254
225 238 254
225 238 254
225 238 254
225 238 254
225 238 254
225 238 254
225 238 254
225 238 254
225 238 254
225 238 254
225 238 254
225 238 254
226 238 254
226 238 254
226 238 254
226 238 254
226 238 254
226 238 254
226 238 254
226 238 254
226 238 254
226 238 254
226 238 254
226 238 254
226 238 254
226 238 254
226 238 254
226 238 254
226 238 254
226 238 254
226 238 254
226 238 254
226 238 254
226 238 254
226 238 254
226 238 254
226 238 254
226 238 254
226 238 254
226 238 254
226 238 254
226 238 254
226 238 254
226 238 254
226 238 254
226 238 254
226 238 254
226 238 254
226 238 254
226 238 254
226 238 254
226 238 254
226 238 254
226 238 254
226 238 254
226 238 254
226 238 254
226 238 254
226 238 254
226 238 254
226 238 254
226 238 254
226 238 254
226 238 254
226 238 254
226 238 254
226 238 254
226 238 254
226 238 254
226 238 254
226 238 254
226 238 254
226 238 254
226 238 254
226 238 254
226 238 254
226 238 254
226 238 254
226 238 254
226 238 254
226 238 254
226 238 254
226 238 254
226 238 254
226 238 254
226 238 254
226 238 254
226 238 254
226 238 254
226 238 254
226 238 254
226 238 254
226 238 254
226 238 254
226 238 254
226 238 254
226 238 254
226 238 254
226 238 254
226 238 254
226 238 254
226 238 254
226 238 254
226 238 254
226 238 254
226 238 254
226 238 254
226 238 254
226 238 254
226 238 254
226 238 254
226 238 254
226 238 254
226 238 254
226 238 254
225 236 253
200 211 224
159 171 175
131 146 143
125 140 134
122 135 135
129 144 140
129 142 140
125 139 136
100 118 100
73 95 61
71 95 56
58 80 45
62 84 48
118 133 126
129 144 140
141 156 155
138 151 150
143 157 156
154 167 169
135 150 147
82 102 75
64 86 49
72 93 63
80 101 75
106 123 109
98 117 100
120 133 127
82 105 70
95 115 95
80 100 74
71 95 56
66 90 52
66 90 51
73 97 57
66 89 51
75 97 63
145 158 159
147 160 165
155 168 172
155 169 173
152 165 168
156 169 175
150 162 165
150 162 164
152 166 169
115 132 120
67 90 51
64 88 49
71 94 54
73 96 56
58 80 43
67 90 51
64 87 50
67 91 52
67 90 51
86 105 81
157 170 175
155 168 173
151 165 167
167 179 183
162 176 181
148 161 164
165 179 186
154 166 168
151 165 170
155 168 171
134 148 144
76 100 59
67 90 51
71 95 55
71 95 54
69 92 53
71 95 56
67 90 52
75 99 57
67 90 52
68 91 52
75 99 59
153 166 169
165 178 184
160 173 176
154 166 169
166 178 185
161 174 177
167 179 186
148 161 162
165 178 183
151 164 168
148 162 164
60 82 46
71 95 55
67 91 52
70 94 54
72 95 56
74 98 56
68 91 52
60 82 46
70 92 54
68 91 52
66 90 51
152 166 170
152 165 168
159 173 179
158 171 178
139 153 151
162 175 182
138 153 153
147 161 161
144 159 159
153 167 170
142 155 152
71 93 57
77 102 60
72 95 56
63 85 48
66 88 51
64 86 49
67 90 51
65 88 50
65 88 50
69 92 53
139 153 154
151 164 167
155 168 170
158 171 174
134 149 148
142 155 158
154 166 172
139 153 154
161 174 179
123 138 131
69 92 53
70 93 53
65 87 51
72 95 58
98 116 97
89 109 89
104 122 106
93 110 95
104 119 108
107 125 110
92 108 91
67 88 54
64 86 49
63 86 49
82 100 79
116 130 124
136 149 150
149 162 167
152 164 168
140 152 156
130 144 140
106 120 114
63 85 49
62 83 49
66 89 51
81 98 79
101 115 105
119 132 127
98 113 104
136 150 150
115 129 124
161 173 180
183 195 204
212 224 238
226 238 254
226 238 254
226 238 254
226 238 254
226 238 254
226 238 254
226 238 254
226 238 254
226 238 254
226 238 254
226 238 254
226 238 254
226 238 254
226 238 254
226 238 254
226 238 254
226 238 254
226 238 254
226 238 254
226 238 254
226 238 254
226 238 254
226 238 254
226 238 254
226 238 254
226 238 254
226 238 254
226 238 254
226 238 254
226 238 254
226 238 254
226 238 254
226 238 254
226 238 254
226 238 254
226 238 254
226 238 254
226 238 254
226 238 254
226 238 254
226 238 254
226 238 254
226 238 254
226 238 254
226 238 254
226 238 254
226 238 254
226 238 254
226 238 254
226 238 254
226 238 254
226 238 254
226 238 254
226 238 254
226 238 254
226 238 254
226 238 254
226 238 254
226 238 254
226 238 254
226 238 254
226 238 254
226 238 254
226 238 254
226 238 254
226 238 254
226 238 254
226 238 254
226 238 254
226 238 254
226 238 254
226 238 254
226 238 254
226 238 254
226 238 254
226 238 254
226 238 254
226 238 254
226 238 254
226 238 254
226 238 254
226 238 254
226 238 254
226 238 254
226 238 254
226 238 254
226 238 254
226 238 254
226 238 254
226 238 254
226 238 254
226 238 254
226 238 254
226 238 254
226 238 254
226 238 254
226 238 254
226 238 254
226 238 254
226 238 254
226 238 254
226 238 254
226 238 254
226 238 254
225 238 254
225 238 254
225 238 254
225 238 254
225 238 254
225 238 254
225 238 254
225 238 254
225 238 254
225 238 254
225 238 254
225 238 254
225 238 254
226 238 254
226 238 254
226 238 254
226 238 254
226 238 254
226 238 254
226 238 254
226 238 254
226 238 254
226 238 254
226 238 254
226 238 254
226 238 254
226 238 254
226 238 254
226 238 254
226 238 254
226 238 254
226 238 254
226 238 254
226 238 254
226 238 254
226 238 254
226 238 254
226 238 254
226 238 254
226 238 254
226 238 254
226 238 254
226 238 254
226 238 254
226 238 254
226 238 254
226 238 254
226 238 254
226 238 254
226 238 254
226 238 254
226 238 254
226 238 254
226 238 254
226 238 254
226 238 254
226 238 254
226 238 254
226 238 254
226 238 254
226 238 254
226 238 254
226 238 254
226 238 254
226 238 254
226 238 254
226 238 254
226 238 254
226 238 254
226 238 254
226 238 254
226 238 254
226 238 254
226 238 254
226 238 254
226 238 254
226 238 254
226 238 254
226 238 254
226 238 254
226 238 254
226 238 254
226 238 254
226 238 254
226 238 254
226 238 254
226 238 254
226 238 254
226 238 254
226 238 254
226 238 254
226 238 254
226 238 254
226 238 254
226 238 254
226 238 254
226 238 254
226 238 254
226 238 254
226 238 254
226 238 254
226 238 254
226 238 254
226 238 254
226 238 254
226 238 254
226 238 254
226 238 254
226 238 254
226 238 254
226 238 254
226 238 254
226 238 254
226 238 254
226 238 254
226 238 254
226 238 254
226 238 254
226 238 254
226 238 254
226 238 254
226 238 254
226 238 254
226 238 254
226 238 254
226 238 254
226 238 254
226 238 254
226 238 254
226 238 254
226 238 254
226 238 254
226 238 254
226 238 254
226 238 254
226 238 254
226 238 254
216 227 243
203 216 228
167 179 186
128 140 139
80 97 80
61 81 50
91 107 92
94 110 94
122 137 132
106 123 108
98 116 95
121 135 128
115 130 123
130 145 143
132 145 144
144 158 161
134 149 146
93 110 96
58 78 44
65 88 50
65 88 50
67 90 52
65 86 49
73 94 61
116 130 122
155 168 172
145 158 161
144 158 160
142 155 157
156 168 171
151 164 167
146 159 160
101 117 105
66 88 50
62 85 49
62 84 46
76 97 66
87 106 85
83 103 77
89 107 88
94 113 89
91 111 90
125 140 132
112 128 114
111 128 112
102 119 108
101 120 101
89 108 90
86 105 82
75 99 64
73 96 62
133 147 145
151 165 164
145 158 157
149 161 165
133 147 145
153 164 166
134 149 146
151 163 166
146 159 160
139 153 154
99 116 101
67 90 52
71 94 54
66 89 51
75 100 59
73 97 56
72 96 57
68 91 53
71 95 56
66 89 51
68 92 53
152 165 169
145 159 161
163 176 182
145 159 160
160 173 177
145 159 160
150 163 167
152 164 167
150 162 165
146 159 162
148 162 166
71 95 56
71 95 56
68 91 52
68 91 52
69 92 54
69 93 54
62 84 48
69 93 54
65 88 51
66 89 50
126 141 138
148 162 162
144 157 161
150 163 166
146 159 164
137 151 149
149 162 164
132 146 146
135 148 147
126 139 135
140 153 153
93 112 91
101 118 100
97 116 96
98 117 100
119 136 125
108 123 111
131 145 140
114 132 122
122 137 134
75 96 65
94 113 88
76 98 64
74 96 59
62 84 48
60 81 46
64 87 49
67 90 52
67 87 61
140 152 154
147 160 166
145 158 159
141 154 156
147 160 164
143 156 158
151 164 168
125 139 137
71 91 62
69 92 53
70 93 54
62 84 48
65 88 51
65 88 50
94 111 94
129 143 143
136 150 148
130 145 143
126 139 137
127 140 137
115 129 123
112 128 118
111 128 117
113 126 119
93 111 95
65 87 53
97 111 103
146 160 160
190 201 214
197 210 221
226 238 254
226 238 254
226 238 254
226 238 254
226 238 254
226 238 254
226 238 254
226 238 254
226 238 254
226 238 254
226 238 254
226 238 254
226 238 254
226 238 254
226 238 254
226 238 254
226 238 254
226 238 254
226 238 254
226 238 254
226 238 254
226 238 254
226 238 254
226 238 254
226 238 254
226 238 254
226 238 254
226 238 254
226 238 254
226 238 254
226 238 254
226 238 254
226 238 254
226 238 254
226 238 254
226 238 254
226 238 254
226 238 254
226 238 254
226 238 254
226 238 254
226 238 254
226 238 254
226 238 254
226 238 254
226 238 254
226 238 254
226 238 254
226 238 254
226 238 254
226 238 254
226 238 254
226 238 254
226 238 254
226 238 254
226 238 254
226 238 254
226 238 254
226 238 254
226 238 254
226 238 254
226 238 254
226 238 254
226 238 254
226 238 254
226 238 254
226 238 254
226 238 254
226 238 254
226 238 254
226 238 254
226 238 254
226 238 254
226 238 254
226 238 254
226 238 254
226 238 254
226 238 254
226 238 254
226 238 254
226 238 254
226 238 254
226 238 254
226 238 254
226 238 254
226 238 254
226 238 254
226 238 254
226 238 254
226 238 254
226 238 254
226 238 254
226 238 254
226 238 254
226 238 254
226 238 254
226 238 254
226 238 254
226 238 254
226 238 254
226 238 254
226 238 254
226 238 254
226 238 254
226 238 254
226 238 254
226 238 254
226 238 254
226 238 254
226 238 254
226 238 254
226 238 254
226 238 254
226 238 254
226 238 254
226 238 254
226 238 254
226 238 254
226 238 254
226 238 254
226 238 254
226 238 254
226 238 254
226 238 254
226 238 254
226 238 254
226 238 254
226 238 254
226 238 254
226 238 254
226 238 254
226 238 254
226 238 254
226 238 254
226 238 254
226 238 254
226 238 254
226 238 254
226 238 254
226 238 254
226 238 254
226 238 254
226 238 254
226 238 254
226 238 254
226 238 254
226 238 254
226 238 254
226 238 254
226 238 254
226 238 254
226 238 254
226 238 254
226 238 254
226 238 254
226 238 254
226 238 254
226 238 254
226 238 254
226 238 254
226 238 254
226 238 254
226 238 254
226 238 254
226 238 254
226 238 254
226 238 254
226 238 254
226 238 254
226 238 254
226 238 254
226 238 254
226 238 254
226 238 254
226 238 254
226 238 254
226 238 254
226 238 254
226 238 254
226 238 254
226 238 254
226 238 254
226 238 254
226 238 254
226 238 254
226 238 254
226 238 254
226 238 254
226 238 254
226 238 254
226 238 254
226 238 254
226 238 254
226 238 254
226 238 254
226 238 254
226 238 254
226 238 254
226 238 254
226 238 254
226 238 254
226 238 254
226 238 254
226 238 254
226 238 254
226 238 254
226 238 254
226 238 254
226 238 254
226 238 254
226 238 254
226 238 254
226 238 254
226 238 254
226 238 254
226 238 254
226 238 254
226 238 254
226 238 254
226 238 254
226 238 254
226 238 254
226 238 254
226 238 254
226 238 254
226 238 254
226 238 254
226 238 254
226 238 254
226 238 254
226 238 254
226 238 254
226 238 254
226 238 254
226 238 254
226 238 254
226 238 254
226 238 254
226 238 254
226 238 254
226 238 254
226 238 254
226 238 254
226 238 254
226 238 254
226 238 254
226 238 254
226 238 254
222 234 251
187 199 209
142 154 157
94 109 102
95 108 105
82 96 87
61 76 59
66 78 69
72 87 74
63 80 59
64 83 57
80 98 80
102 117 108
124 137 132
132 146 146
115 128 121
95 112 100
69 89 59
59 80 45
85 104 82
55 77 42
93 111 91
109 125 113
109 124 114
83 102 79
78 100 71
60 81 46
109 124 115
122 137 133
137 151 149
141 155 155
142 155 154
128 142 141
149 162 164
118 132 125
67 87 57
58 79 44
67 90 51
65 87 50
61 83 47
65 87 51
68 91 53
59 80 45
133 146 145
153 167 170
149 162 163
138 152 150
148 162 161
147 159 161
138 152 152
155 168 173
148 162 165
109 125 117
66 89 50
64 87 49
66 89 51
66 89 51
64 87 50
67 89 52
64 86 49
65 87 50
64 87 49
148 162 166
150 163 167
148 162 167
141 155 158
151 165 169
147 160 164
141 155 157
157 169 172
147 160 161
149 162 162
76 97 66
70 94 54
64 86 49
63 84 48
60 82 45
72 96 57
69 92 53
67 90 51
65 87 50
67 90 52
115 130 122
150 163 168
143 157 159
158 172 177
136 150 150
140 153 155
147 160 163
158 172 178
148 162 167
150 164 168
99 118 100
71 94 55
61 83 47
64 86 49
68 91 52
65 88 50
70 93 53
66 89 51
68 91 54
64 87 49
146 159 163
146 158 162
146 159 161
130 145 145
140 153 155
160 174 178
152 164 166
151 164 168
145 157 159
82 99 78
65 87 50
69 92 53
61 83 47
69 92 54
64 86 49
63 85 49
65 87 51
119 133 126
137 150 149
140 153 155
126 139 137
136 150 150
142 155 155
134 149 144
106 122 112
82 101 78
82 99 82
96 112 98
102 119 105
115 129 124
103 118 109
72 91 63
56 77 43
51 71 38
66 83 61
97 113 103
132 144 144
103 117 109
110 125 120
90 104 94
78 91 83
74 87 81
73 85 78
56 69 58
60 75 60
65 79 68
67 80 72
111 122 123
172 184 193
205 216 231
226 238 254
226 238 254
226 238 254
226 238 254
226 238 254
226 238 254
226 238 254
226 238 254
226 238 254
226 238 254
226 238 254
226 238 254
226 238 254
226 238 254
226 238 254
226 238 254
226 238 254
226 238 254
226 238 254
226 238 254
226 238 254
226 238 254
226 238 254
226 238 254
226 238 254
226 238 254
226 238 254
226 238 254
226 238 254
226 238 254
226 238 254
226 238 254
226 238 254
226 238 254
226 238 254
226 238 254
226 238 254
226 238 254
226 238 254
226 238 254
226 238 254
226 238 254
226 238 254
226 238 254
226 238 254
226 238 254
226 238 254
226 238 254
226 238 254
226 238 254
226 238 254
226 238 254
226 238 254
226 238 254
226 238 254
226 238 254
226 238 254
226 238 254
226 238 254
226 238 254
226 238 254
226 238 254
226 238 254
226 238 254
226 238 254
226 238 254
226 238 254
226 238 254
226 238 254
226 238 254
226 238 254
226 238 254
226 238 254
226 238 254
226 238 254
226 238 254
226 238 254
226 238 254
226 238 254
226 238 254
226 238 254
226 238 254
226 238 254
226 238 254
226 238 254
226 238 254
226 238 254
226 238 254
226 238 254
226 238 254
226 238 254
226 238 254
226 238 254
226 238 254
226 238 254
226 238 254
226 238 254
226 238 254
226 238 254
226 238 254
226 238 254
226 238 254
226 238 254
226 238 254
226 238 254
226 238 254
226 238 254
226 238 254
226 238 254
226 238 254
226 238 254
226 238 254
226 238 254
226 238 254
226 238 254
226 238 254
226 238 254
226 238 254
226 238 254
226 238 254
226 238 254
226 238 254
226 238 254
226 238 254
226 238 254
226 238 254
226 238 254
226 238 254
226 238 254
226 238 254
226 238 254
226 238 254
226 238 254
226 238 254
226 238 254
226 238 254
226 238 254
226 238 254
226 238 254
226 238 254
226 238 254
226 238 254
226 238 254
226 238 254
226 238 254
226 238 254
226 238 254
226 238 254
226 238 254
226 238 254
226 238 254
226 238 254
226 238 254
226 238 254
226 238 254
226 238 254
226 238 254
226 238 254
226 238 254
226 238 254
226 238 254
226 238 254
226 238 254
226 238 254
226 238 254
226 238 254
226 238 254
226 238 254
226 238 254
226 238 254
226 238 254
226 238 254
226 238 254
226 238 254
226 238 254
226 238 254
226 238 254
226 238 254
226 238 254
226 238 254
226 238 254
226 238 254
226 238 254
226 238 254
226 238 254
226 238 254
226 238 254
226 238 254
226 238 254
226 238 254
226 238 254
226 238 254
226 238 254
226 238 254
226 238 254
226 238 254
226 238 254
226 238 254
226 238 254
226 238 254
226 238 254
226 238 254
226 238 254
226 238 254
226 238 254
226 238 254
226 238 254
226 238 254
226 238 254
226 238 254
226 238 254
226 238 254
226 238 254
226 238 254
226 238 254
226 238 254
226 238 254
226 238 254
226 238 254
226 238 254
226 238 254
226 238 254
226 238 254
226 238 254
226 238 254
226 238 254
226 238 254
226 238 254
226 238 254
226 238 254
226 238 254
226 238 254
226 238 254
226 238 254
226 238 254
226 238 254
226 238 254
226 238 254
226 238 254
226 238 254
226 238 254
226 238 254
226 238 254
217 229 245
161 172 179
109 123 119
74 90 75
98 111 107
86 101 90
94 109 103
85 100 93
71 85 73
45 60 40
52 68 48
62 77 60
48 65 40
46 59 43
49 64 45
77 89 84
64 75 70
80 92 87
57 69 59
63 75 67
56 67 59
49 63 44
80 93 84
62 75 61
82 97 84
80 96 79
60 80 52
65 85 53
81 101 73
67 88 58
101 118 103
123 137 134
138 150 150
132 145 144
130 143 143
140 153 153
101 118 105
62 84 48
62 84 47
58 79 43
54 75 42
62 84 48
83 100 79
118 132 129
126 141 138
129 144 138
117 131 128
106 122 108
101 118 103
97 112 100
122 136 133
125 140 134
128 142 140
126 139 134
128 142 139
135 150 150
135 149 145
138 150 149
134 148 146
76 98 67
67 89 52
67 89 52
67 90 53
67 89 52
63 86 49
64 86 50
68 90 52
62 84 47
142 154 157
136 149 147
140 154 155
127 142 138
127 141 139
129 145 142
142 154 154
145 158 161
144 158 161
117 132 126
64 86 50
64 86 50
68 91 53
68 90 53
63 85 49
70 94 55
64 86 49
62 84 48
61 83 48
140 153 155
141 154 155
130 144 141
136 148 149
146 159 160
145 159 158
133 146 147
149 163 168
120 135 129
93 111 92
67 90 52
68 90 52
67 89 52
70 93 55
66 89 52
69 93 54
63 86 49
67 90 52
118 134 125
118 133 129
136 150 150
139 152 151
130 144 141
127 140 137
113 129 120
117 131 127
135 148 148
99 117 101
106 122 109
110 125 117
118 133 129
130 143 141
119 133 130
112 125 119
93 108 95
58 79 44
53 73 41
61 82 47
69 92 54
72 91 64
96 111 101
128 142 141
131 144 147
127 141 142
134 147 149
103 116 108
76 93 74
80 99 76
81 98 79
51 70 39
71 87 66
71 84 72
52 66 49
76 85 86
28 40 22
46 58 42
72 82 82
58 69 62
73 84 80
61 72 66
64 75 68
61 73 64
37 52 29
58 71 59
63 74 68
52 68 47
55 69 56
73 85 78
80 93 88
66 79 70
78 90 84
84 98 94
87 100 96
143 155 160
195 207 219
226 238 254
226 238 254
226 238 254
226 238 254
226 238 254
226 238 254
226 238 254
226 238 254
226 238 254
226 238 254
226 238 254
226 238 254
226 238 254
226 238 254
226 238 254
226 238 254
226 238 254
226 238 254
226 238 254
226 238 254
226 238 254
226 238 254
226 238 254
226 238 254
226 238 254
226 238 254
226 238 254
226 238 254
226 238 254
226 238 254
226 238 254
226 238 254
226 238 254
226 238 254
226 238 254
226 238 254
226 238 254
226 238 254
226 238 254
226 238 254
226 238 254
226 238 254
226 238 254
226 238 254
226 238 254
226 238 254
226 238 254
226 238 254
226 238 254
226 238 254
226 238 254
226 238 254
226 238 254
226 238 254
226 238 254
226 238 254
226 238 254
226 238 254
226 238 254
226 238 254
226 238 254
226 238 254
226 238 254
226 238 254
226 238 254
226 238 254
226 238 254
226 238 254
226 238 254
226 238 254
226 238 254
226 238 254
226 238 254
226 238 254
226 238 254
226 238 254
226 238 254
226 238 254
226 238 254
226 238 254
226 238 254
226 238 254
226 238 254
226 238 254
226 238 254
226 238 254
226 238 254
226 238 254
226 238 254
226 238 254
226 238 254
226 238 254
226 238 254
226 238 254
226 238 254
226 238 254
226 238 254
226 238 254
226 238 254
226 238 254
226 238 254
226 238 254
226 238 254
226 238 254
226 238 254
226 238 254
226 238 254
226 238 254
226 238 254
226 238 254
226 238 254
226 238 254
226 238 254
226 238 254
226 238 254
226 238 254
226 238 254
226 238 254
226 238 254
226 238 254
226 238 254
226 238 254
226 238 254
226 238 254
226 238 254
226 238 254
226 238 254
226 238 254
226 238 254
226 238 254
226 238 254
226 238 254
226 238 254
226 238 254
226 238 254
226 238 254
226 238 254
226 238 254
226 238 254
226 238 254
226 238 254
226 238 254
226 238 254
226 238 254
226 238 254
226 238 254
226 238 254
226 238 254
226 238 254
226 238 254
226 238 254
226 238 254
226 238 254
226 238 254
226 238 254
226 238 254
226 238 254
226 238 254
226 238 254
226 238 254
226 238 254
226 238 254
226 238 254
226 238 254
226 238 254
226 238 254
226 238 254
226 238 254
226 238 254
226 238 254
226 238 254
226 238 254
226 238 254
226 238 254
226 238 254
226 238 254
226 238 254
226 238 254
226 238 254
226 238 254
226 238 254
226 238 254
226 238 254
226 238 254
226 238 254
226 238 254
226 238 254
226 238 254
226 238 254
226 238 254
226 238 254
226 238 254
226 238 254
226 238 254
226 238 254
226 238 254
226 238 254
226 238 254
226 238 254
226 238 254
226 238 254
226 238 254
226 238 254
226 238 254
226 238 254
226 238 254
226 238 254
226 238 254
226 238 254
226 238 254
226 238 254
226 238 254
226 238 254
226 238 254
226 238 254
226 238 254
226 238 254
226 238 254
226 238 254
226 238 254
226 238 254
226 238 254
226 238 254
226 238 254
226 238 254
226 238 254
226 238 254
226 238 254
226 238 254
226 238 254
226 238 254
226 238 254
226 238 254
201 213 226
162 175 182
97 112 107
88 104 94
63 78 63
66 81 67
47 64 40
61 76 58
61 78 57
69 85 68
102 115 112
95 107 107
90 103 99
66 80 67
40 56 31
84 97 92
73 84 78
63 78 64
43 60 33
55 68 55
64 77 66
78 90 83
81 92 91
74 85 78
65 77 69
54 64 56
35 48 27
71 80 79
79 89 88
42 53 41
40 50 39
36 49 27
44 55 45
64 74 70
52 61 55
60 69 64
54 68 51
53 65 52
83 91 89
90 102 97
96 109 103
89 105 91
67 84 62
61 79 56
79 95 80
58 77 47
76 95 72
82 99 79
98 114 100
73 91 68
76 97 67
98 113 103
130 143 143
130 144 143
119 132 131
135 148 146
133 145 145
132 145 143
81 98 79
58 79 45
60 82 46
61 83 47
57 78 44
64 87 50
58 79 45
72 91 65
123 137 135
125 139 138
133 146 145
134 147 148
126 140 139
129 141 140
149 161 164
134 147 147
72 91 67
60 81 46
59 80 45
65 88 51
54 75 41
63 84 48
67 89 53
63 85 48
57 78 43
121 136 132
144 158 162
146 158 162
137 151 152
126 141 141
145 158 162
135 147 151
134 148 150
112 127 121
61 83 47
57 78 44
58 79 44
61 83 48
65 87 51
53 73 40
58 79 45
61 83 47
125 139 141
132 146 145
144 158 160
135 148 148
137 151 154
131 144 143
131 145 144
121 136 130
102 119 107
62 85 49
55 75 42
61 82 48
62 84 48
57 78 44
59 80 45
81 99 76
117 128 126
123 137 132
106 119 115
119 133 128
121 135 131
118 131 128
92 107 97
82 99 82
90 108 90
85 102 85
97 111 101
70 88 66
65 85 57
67 87 60
72 89 69
82 99 81
95 106 101
94 105 102
71 82 72
42 53 40
49 59 49
62 69 70
52 61 56
45 55 46
50 59 53
34 46 29
29 41 22
48 56 52
38 50 34
55 65 59
33 46 26
48 59 47
58 68 61
81 92 91
81 92 92
72 83 79
64 75 69
54 67 55
44 57 43
45 59 42
65 77 72
51 64 50
45 59 39
44 55 42
65 79 66
70 82 76
76 87 84
77 88 84
49 64 46
54 72 47
67 81 71
75 89 81
71 84 78
73 87 78
151 164 172
190 201 215
224 236 252
226 238 254
226 238 254
226 238 254
226 238 254
226 238 254
226 238 254
226 238 254
226 238 254
226 238 254
226 238 254
226 238 254
226 238 254
226 238 254
226 238 254
226 238 254
226 238 254
226 238 254
226 238 254
226 238 254
226 238 254
226 238 254
226 238 254
226 238 254
226 238 254
226 238 254
226 238 254
226 238 254
226 238 254
226 238 254
226 238 254
226 238 254
226 238 254
226 238 254
226 238 254
226 238 254
226 238 254
226 238 254
226 238 254
226 238 254
226 238 254
226 238 254
226 238 254
226 238 254
226 238 254
226 238 254
226 238 254
226 238 254
226 238 254
226 238 254
226 238 254
226 238 254
226 238 254
226 238 254
226 238 254
226 238 254
226 238 254
226 238 254
226 238 254
226 238 254
226 238 254
226 238 254
226 238 254
226 238 254
226 238 254
226 238 254
226 238 254
226 238 254
226 238 254
226 238 254
226 238 254
226 238 254
226 238 254
226 238 254
226 238 254
226 238 254
226 238 254
226 238 254
226 238 254
226 238 254
226 238 254
226 238 254
226 238 254
226 238 254
226 238 254
226 238 254
226 238 254
226 238 254
226 238 254
226 238 254
226 238 254
226 238 254
226 238 254
226 238 254
226 238 254
226 238 254
226 238 254
226 238 254
226 238 254
226 238 254
226 238 254
226 238 254
226 238 254
226 238 254
226 238 254
226 238 254
226 238 254
226 238 254
226 238 254
226 238 254
226 238 254
226 238 254
226 238 254
226 238 254
226 238 254
226 238 254
226 238 254
226 238 254
226 238 254
226 238 254
226 238 254
226 238 254
226 238 254
226 238 254
226 238 254
226 238 254
226 238 254
226 238 254
226 238 254
226 238 254
226 238 254
226 238 254
226 238 254
226 238 254
226 238 254
226 238 254
226 238 254
226 238 254
226 238 254
226 238 254
226 238 254
226 238 254
226 238 254
226 238 254
226 238 254
226 238 254
226 238 254
226 238 254
226 238 254
226 238 254
226 238 254
226 238 254
226 238 254
226 238 254
226 238 254
226 238 254
226 238 254
226 238 254
226 238 254
226 238 254
226 238 254
226 238 254
226 238 254
226 238 254
226 238 254
226 238 254
226 238 254
226 238 254
226 238 254
226 238 254
226 238 254
226 238 254
226 238 254
226 238 254
226 238 254
226 238 254
226 238 254
226 238 254
226 238 254
226 238 254
226 238 254
226 238 254
226 238 254
226 238 254
226 238 254
226 238 254
226 238 254
226 238 254
226 238 254
226 238 254
226 238 254
226 238 254
226 238 254
226 238 254
226 238 254
226 238 254
226 238 254
226 238 254
226 238 254
226 238 254
226 238 254
226 238 254
226 238 254
226 238 254
226 238 254
226 238 254
226 238 254
226 238 254
226 238 254
226 238 254
226 238 254
226 238 254
226 238 254
226 238 254
226 238 254
226 238 254
226 238 254
226 238 254
226 238 254
226 238 254
226 238 254
226 238 254
226 238 254
221 233 249
165 178 184
102 118 107
90 108 94
72 89 74
100 115 109
96 111 105
93 107 101
80 94 85
96 110 106
81 98 85
77 91 82
56 74 49
55 70 51
79 91 87
98 110 109
83 98 90
69 81 72
69 81 73
88 100 98
86 97 98
89 101 95
75 88 79
43 58 37
44 61 34
45 59 39
65 77 69
55 66 57
68 78 73
83 95 91
67 79 71
48 60 48
68 76 75
77 88 86
65 75 70
54 65 57
47 60 45
44 56 41
56 66 61
58 67 64
65 75 72
50 60 52
55 64 59
37 49 33
31 43 25
42 52 41
52 62 56
56 63 62
60 70 63
34 46 30
43 51 45
71 78 80
60 69 65
54 64 56
51 61 52
59 70 59
77 90 81
96 109 104
99 110 108
94 108 101
82 97 84
78 94 77
55 73 45
48 67 36
57 77 43
57 77 44
83 99 83
99 114 104
124 138 137
120 133 131
109 122 117
129 141 141
110 123 119
103 117 108
79 96 78
68 86 63
88 104 90
86 102 87
92 108 93
95 110 100
70 89 65
101 116 107
90 107 90
97 113 103
102 117 107
95 109 98
108 123 111
98 114 103
100 114 107
97 111 102
93 107 98
91 106 94
97 113 99
109 125 115
90 105 94
97 111 102
103 118 109
102 118 105
94 109 98
82 99 83
102 118 106
97 114 101
85 100 85
75 92 72
75 92 71
93 110 94
91 108 94
84 100 84
78 95 76
82 99 79
106 121 115
124 136 137
114 128 124
125 138 138
122 135 134
125 138 134
115 128 126
86 102 86
51 70 39
56 75 43
57 78 44
74 92 71
72 88 68
94 107 99
70 81 75
95 106 104
65 76 66
46 55 46
41 51 40
48 55 53
44 50 48
55 63 58
55 63 59
39 48 38
54 62 58
46 51 51
51 59 55
35 45 32
25 36 19
27 38 21
37 48 33
54 62 58
78 87 88
53 61 58
48 59 50
31 40 29
29 41 23
47 58 47
62 72 67
67 74 75
68 78 75
42 53 42
51 62 54
73 84 81
80 91 90
74 84 82
71 82 76
53 64 54
42 58 34
39 54 31
59 71 59
70 80 78
69 81 74
94 105 107
71 83 76
64 72 68
85 98 95
88 99 98
68 81 73
48 64 42
40 56 31
65 79 68
66 78 70
82 95 90
67 82 71
73 88 78
91 104 102
88 104 96
81 97 86
58 75 55
132 145 145
194 206 219
226 238 254
226 238 254
226 238 254
226 238 254
226 238 254
226 238 254
226 238 254
226 238 254
226 238 254
226 238 254
226 238 254
226 238 254
226 238 254
226 238 254
226 238 254
226 238 254
226 238 254
226 238 254
226 238 254
226 238 254
226 238 254
226 238 254
226 238 254
226 238 254
226 238 254
226 238 254
226 238 254
226 238 254
226 238 254
226 238 254
226 238 254
226 238 254
226 238 254
226 238 254
226 238 254
226 238 254
226 238 254
226 238 254
226 238 254
226 238 254
226 238 254
226 238 254
226 238 254
226 238 254
226 238 254
226 238 254
226 238 254
226 238 254
226 238 254
226 238 254
226 238 254
226 238 254
226 238 254
226 238 254
226 238 254
226 238 254
226 238 254
226 238 254
226 238 254
226 238 254
226 238 254
226 238 254
226 238 254
226 238 254
226 238 254
226 238 254
226 238 254
226 238 254
226 238 254
226 238 254
226 238 254
226 238 254
226 238 254
226 238 254
226 238 254
226 238 254
226 238 254
226 238 254
226 238 254
226 238 254
226 238 254
226 238 254
226 238 254
226 238 254
226 238 254
226 238 254
226 238 254
226 238 254
226 238 254
226 238 254
226 238 254
226 238 254
226 238 254
226 238 254
226 238 254
226 238 254
226 238 254
226 238 254
226 238 254
226 238 254
226 238 254
226 238 254
226 238 254
226 238 254
226 238 254
226 238 254
226 238 254
226 238 254
226 238 254
226 238 254
226 238 254
226 238 254
226 238 254
226 238 254
226 238 254
226 238 254
226 238 254
226 238 254
226 238 254
226 238 254
226 238 254
226 238 254
226 238 254
226 238 254
226 238 254
226 238 254
226 238 254
226 238 254
226 238 254
226 238 254
226 238 254
226 238 254
226 238 254
226 238 254
226 238 254
226 238 254
226 238 254
226 238 254
226 238 254
226 238 254
226 238 254
226 238 254
226 238 254
226 238 254
226 238 254
226 238 254
226 238 254
226 238 254
226 238 254
226 238 254
226 238 254
226 238 254
226 238 254
226 238 254
226 238 254
226 238 254
226 238 254
226 238 254
226 238 254
226 238 254
226 238 254
226 238 254
226 238 254
226 238 254
226 238 254
226 238 254
226 238 254
226 238 254
226 238 254
226 238 254
226 238 254
226 238 254
226 238 254
226 238 254
226 238 254
226 238 254
226 238 254
226 238 254
226 238 254
226 238 254
226 238 254
226 238 254
226 238 254
226 238 254
226 238 254
226 238 254
226 238 254
226 238 254
226 238 254
226 238 254
226 238 254
226 238 254
226 238 254
226 238 254
226 238 254
226 238 254
226 238 254
226 238 254
226 238 254
226 238 254
226 238 254
226 238 254
226 238 254
226 238 254
226 238 254
226 238 254
226 238 254
226 238 254
226 238 254
226 238 254
226 238 254
226 238 254
226 238 254
226 238 254
200 212 225
143 157 157
100 117 108
107 120 120
100 115 106
78 94 79
70 87 69
55 72 46
86 102 91
103 116 117
73 87 75
71 86 75
71 84 75
109 122 125
91 103 101
80 94 87
52 66 50
43 60 34
49 67 41
65 79 67
82 95 89
58 71 60
47 60 43
76 88 83
88 100 95
89 102 98
68 78 75
58 71 59
75 87 79
32 45 24
31 44 23
40 53 35
60 73 63
74 85 80
69 81 73
78 91 86
36 48 31
74 84 83
63 74 67
73 85 78
69 79 73
35 45 30
26 37 20
45 55 46
50 61 52
54 64 57
75 85 82
59 69 62
51 59 56
38 49 35
28 39 22
45 55 46
59 70 63
61 69 66
58 66 63
32 41 30
33 43 30
50 59 54
33 43 31
30 42 23
31 44 24
42 49 43
49 59 48
36 46 33
30 39 28
33 42 31
22 31 16
36 42 40
52 57 58
24 31 25
35 44 33
29 40 23
30 39 28
38 44 41
51 58 56
25 35 20
20 29 16
38 48 38
43 54 41
41 54 37
52 63 50
68 77 72
98 107 109
86 97 94
74 87 80
76 87 82
66 75 69
57 68 58
68 80 72
61 74 61
62 76 58
68 84 65
69 82 70
96 109 102
82 93 86
94 107 101
74 86 77
80 93 83
89 99 98
61 76 58
56 70 52
53 67 48
63 75 63
49 64 41
52 68 47
57 70 54
70 81 72
79 90 87
88 96 98
62 72 64
54 64 57
37 49 34
49 60 49
46 56 47
24 33 19
20 29 15
41 47 44
43 50 47
26 36 21
22 31 17
17 25 13
32 38 34
55 63 59
36 43 38
29 40 23
19 29 12
40 48 42
47 54 50
51 57 57
40 49 41
27 37 22
18 26 13
27 34 27
68 77 75
44 52 47
40 49 40
54 61 58
70 79 78
48 56 52
59 68 65
27 38 21
33 46 26
32 41 30
61 71 66
57 67 60
55 65 58
49 59 52
47 55 51
27 39 20
41 54 37
50 62 50
49 59 52
66 77 71
69 80 75
53 64 55
78 86 89
53 61 58
81 92 91
68 80 75
53 65 54
32 45 26
33 46 25
47 60 45
54 67 55
75 85 84
83 94 94
72 84 79
70 81 77
46 60 43
80 92 89
93 106 105
73 87 76
53 67 53
40 56 32
49 63 44
69 84 71
88 100 100
97 110 109
92 104 104
72 85 78
97 111 109
99 111 112
77 92 83
62 81 54
74 89 79
85 99 93
101 113 115
90 103 100
108 122 121
152 164 170
221 232 248
226 238 254
226 238 254
226 238 254
226 238 254
226 238 254
226 238 254
226 238 254
226 238 254
226 238 254
226 238 254
226 238 254
226 238 254
226 238 254
226 238 254
226 238 254
226 238 254
226 238 254
226 238 254
226 238 254
226 238 254
226 238 254
226 238 254
226 238 254
226 238 254
226 238 254
226 238 254
226 238 254
226 238 254
226 238 254
226 238 254
226 238 254
226 238 254
226 238 254
226 238 254
226 238 254
226 238 254
226 238 254
226 238 254
226 238 254
226 238 254
226 238 254
226 238 254
226 238 254
226 238 254
226 238 254
226 238 254
226 238 254
226 238 254
226 238 254
226 238 254
226 238 254
226 238 254
226 238 254
226 238 254
226 238 254
226 238 254
226 238 254
226 238 254
226 238 254
226 238 254
226 238 254
226 238 254
226 238 254
226 238 254
226 238 254
226 238 254
226 238 254
226 238 254
226 238 254
226 238 254
226 238 254
226 238 254
226 238 254
226 238 254
226 238 254
226 238 254
226 238 254
226 238 254
226 238 254
226 238 254
226 238 254
226 238 254
226 238 254
226 238 254
226 238 254
226 238 254
226 238 254
226 238 254
226 238 254
226 238 254
226 238 254
226 238 254
226 238 254
226 238 254
226 238 254
226 238 254
226 238 254
226 238 254
226 238 254
226 238 254
226 238 254
226 238 254
226 238 254
226 238 254
226 238 254
226 238 254
226 238 254
226 238 254
226 238 254
226 238 254
226 238 254
226 238 254
226 238 254
226 238 254
226 238 254
226 238 254
226 238 254
226 238 254
226 238 254
226 238 254
226 238 254
226 238 254
226 238 254
226 238 254
226 238 254
226 238 254
226 238 254
226 238 254
226 238 254
226 238 254
226 238 254
226 238 254
226 238 254
226 238 254
226 238 254
226 238 254
226 238 254
226 238 254
226 238 254
226 238 254
226 238 254
226 238 254
226 238 254
226 238 254
226 238 254
226 238 254
226 238 254
226 238 254
226 238 254
226 238 254
226 238 254
226 238 254
226 238 254
226 238 254
226 238 254
226 238 254
226 238 254
226 238 254
226 238 254
226 238 254
226 238 254
226 238 254
226 238 254
226 238 254
226 238 254
226 238 254
226 238 254
226 238 254
226 238 254
226 238 254
226 238 254
226 238 254
226 238 254
226 238 254
226 238 254
226 238 254
226 238 254
226 238 254
226 238 254
226 238 254
226 238 254
226 238 254
226 238 254
226 238 254
226 238 254
226 238 254
226 238 254
226 238 254
226 238 254
226 238 254
226 238 254
226 238 254
226 238 254
226 238 254
226 238 254
226 238 254
226 238 254
226 238 254
226 238 254
226 238 254
226 238 254
226 238 254
226 238 254
226 238 254
219 231 246
178 191 199
110 127 119
83 100 84
71 90 67
58 76 55
75 91 74
75 89 79
98 112 110
103 118 115
105 119 114
82 99 86
51 71 41
77 93 78
90 105 97
63 77 63
49 68 39
53 68 50
77 90 83
86 99 94
104 115 118
102 115 114
81 96 84
51 65 49
45 61 35
50 66 42
94 106 104
72 85 77
49 66 42
45 61 35
60 74 57
70 81 74
70 81 76
76 88 81
74 85 80
72 85 78
48 62 44
43 59 34
43 56 37
64 74 70
61 71 65
85 95 95
73 84 78
52 62 56
51 62 52
60 70 65
79 89 88
64 75 67
40 53 34
35 49 28
43 58 37
49 60 52
53 64 53
81 91 92
62 71 67
65 75 70
32 43 28
23 34 18
46 55 49
51 60 54
71 80 80
74 83 82
54 62 59
33 45 26
41 53 37
50 60 51
32 42 30
25 35 18
44 52 46
61 67 68
49 57 51
50 59 53
18 26 12
21 30 16
45 53 49
60 67 68
35 43 35
37 46 36
20 29 15
30 39 30
43 52 44
51 56 56
29 36 29
21 31 15
17 27 11
24 28 24
42 49 45
30 37 29
19 28 14
15 22 12
30 37 29
52 57 60
37 43 37
24 33 19
22 30 17
28 34 27
48 54 54
23 32 17
25 34 20
38 47 38
40 47 42
33 39 34
25 35 19
28 38 21
33 41 30
62 69 71
15 22 12
26 35 21
24 33 19
49 56 54
45 52 49
22 31 18
17 26 12
41 50 41
39 45 43
35 43 35
16 23 12
24 33 19
47 54 52
57 63 63
49 56 54
26 37 20
23 32 17
21 30 15
48 56 51
55 62 60
35 43 36
24 33 20
27 38 21
43 51 43
52 59 57
42 48 46
47 52 52
25 35 20
43 53 42
59 67 66
17 27 12
27 38 21
45 55 46
39 45 40
59 65 65
64 72 71
41 51 40
21 31 15
22 32 17
40 50 40
44 55 45
71 81 79
79 89 87
64 73 70
28 40 22
30 43 23
40 50 39
51 60 55
67 77 73
61 72 65
61 70 66
55 66 55
62 72 67
66 76 72
59 69 65
60 71 65
46 59 44
36 50 28
42 56 38
46 59 44
76 88 82
87 99 98
75 84 84
84 94 94
65 77 69
46 60 43
38 53 30
58 71 61
68 82 70
48 64 45
43 59 34
57 71 54
74 87 79
81 92 94
87 101 97
81 95 88
72 84 78
66 82 67
43 60 34
53 65 54
67 80 70
48 65 42
51 70 41
55 70 55
92 104 104
104 116 118
84 100 90
68 82 71
49 67 39
83 98 87
83 101 89
94 108 106
136 150 154
204 216 230
226 238 254
226 238 254
226 238 254
226 238 254
226 238 254
226 238 254
226 238 254
226 238 254
226 238 254
226 238 254
226 238 254
226 238 254
226 238 254
226 238 254
226 238 254
226 238 254
226 238 254
226 238 254
226 238 254
226 238 254
226 238 254
226 238 254
226 238 254
226 238 254
226 238 254
226 238 254
226 238 254
226 238 254
226 238 254
226 238 254
226 238 254
226 238 254
226 238 254
226 238 254
226 238 254
226 238 254
226 238 254
226 238 254
226 238 254
226 238 254
226 238 254
226 238 254
226 238 254
226 238 254
226 238 254
226 238 254
226 238 254
226 238 254
226 238 254
226 238 254
226 238 254
226 238 254
226 238 254
226 238 254
226 238 254
226 238 254
226 238 254
226 238 254
226 238 254
226 238 254
226 238 254
226 238 254
226 238 254
226 238 254
226 238 254
226 238 254
226 238 254
226 238 254
226 238 254
226 238 254
226 238 254
226 238 254
226 238 254
226 238 254
226 238 254
226 238 254
226 238 254
226 238 254
226 238 254
226 238 254
226 238 254
226 238 254
226 238 254
226 238 254
226 238 254
226 238 254
226 238 254
226 238 254
226 238 254
226 238 254
226 238 254
226 238 254
226 238 254
226 238 254
226 238 254
226 238 254
226 238 254
226 238 254
226 238 254
226 238 254
226 238 254
226 238 254
226 238 254
226 238 254
226 238 254
226 238 254
226 238 254
226 238 254
226 238 254
226 238 254
226 238 254
226 238 254
226 238 254
226 238 254
226 238 254
226 238 254
226 238 254
226 238 254
226 238 254
226 238 254
226 238 254
226 238 254
226 238 254
226 238 254
226 238 254
226 238 254
226 238 254
226 238 254
226 238 254
226 238 254
226 238 254
226 238 254
226 238 254
226 238 254
226 238 254
226 238 254
226 238 254
226 238 254
226 238 254
226 238 254
226 238 254
226 238 254
226 238 254
226 238 254
226 238 254
226 238 254
226 238 254
226 238 254
226 238 254
226 238 254
226 238 254
226 238 254
226 238 254
226 238 254
226 238 254
226 238 254
226 238 254
226 238 254
226 238 254
226 238 254
226 238 254
226 238 254
226 238 254
226 238 254
226 238 254
226 238 254
226 238 254
226 238 254
226 238 254
226 238 254
226 238 254
226 238 254
226 238 254
226 238 254
226 238 254
226 238 254
226 238 254
226 238 254
226 238 254
226 238 254
226 238 254
226 238 254
226 238 254
226 238 254
226 238 254
226 238 254
226 238 254
226 238 254
226 238 254
226 238 254
226 238 254
226 238 254
226 238 254
226 238 254
226 238 254
226 238 254
222 234 250
158 171 177
95 113 101
86 104 90
98 113 109
111 126 126
101 116 112
105 122 116
117 130 133
100 115 111
81 98 81
52 71 41
72 89 71
104 117 116
96 109 107
107 120 120
85 99 93
104 118 116
112 125 124
107 120 119
75 89 79
77 92 80
52 69 47
42 58 33
57 73 53
75 88 81
81 95 83
98 111 108
88 100 96
75 89 79
85 96 93
90 103 100
99 112 108
80 93 87
57 71 56
43 61 34
41 57 31
37 52 28
72 86 75
78 89 87
87 99 97
73 86 77
59 75 58
36 50 27
37 52 29
36 51 28
72 82 78
76 87 83
50 60 52
36 50 28
55 64 59
63 73 69
77 88 85
88 98 99
62 72 66
30 40 28
36 50 28
32 45 24
64 75 70
58 68 61
75 84 83
53 65 51
47 58 47
40 55 32
38 53 30
50 59 51
58 69 62
66 74 72
55 63 61
37 46 37
22 32 17
35 49 28
33 42 30
55 63 61
39 46 42
31 39 29
46 56 47
66 75 73
39 46 42
32 43 25
26 37 19
31 38 33
55 62 60
58 67 61
33 42 29
18 26 13
31 43 25
49 60 48
65 72 73
49 57 51
25 35 19
21 31 16
23 33 18
53 60 59
54 61 60
44 53 45
19 29 14
24 34 18
62 71 67
50 60 52
27 34 28
24 35 19
29 40 22
60 69 64
45 51 49
56 62 62
19 28 14
19 26 14
31 40 30
68 75 78
54 62 59
22 31 16
14 22 9
33 40 36
45 53 49
53 62 56
34 40 36
22 32 17
20 29 14
48 54 52
57 66 60
33 39 36
27 38 21
27 38 21
40 46 42
59 66 67
51 58 58
48 56 52
26 36 20
25 36 20
49 59 49
54 61 59
54 61 59
49 59 52
55 62 61
54 60 60
60 70 64
23 34 17
31 44 25
35 48 27
50 58 54
46 54 49
56 65 60
44 54 46
35 47 27
32 46 25
38 49 34
63 74 68
65 75 72
65 73 72
62 74 66
33 44 31
30 43 23
33 46 25
41 53 37
61 71 65
74 84 81
76 86 84
69 81 73
47 58 47
60 71 63
76 86 84
68 78 73
48 61 45
38 53 29
34 47 26
61 73 62
64 75 68
83 95 92
72 83 79
73 84 79
52 65 50
42 58 33
36 50 28
45 57 42
50 63 49
78 87 87
91 103 101
61 74 61
70 83 73
72 84 75
76 89 80
82 92 92
78 90 85
71 83 75
46 62 41
46 63 37
52 67 51
79 92 88
87 100 97
97 109 110
93 107 104
91 105 101
105 118 118
93 108 102
90 105 99
57 72 56
48 67 38
66 82 65
89 102 100
95 108 105
115 130 133
99 113 111
120 134 139
87 103 93
79 96 83
119 134 133
183 195 205
226 238 254
226 238 254
226 238 254
226 238 254
226 238 254
226 238 254
226 238 254
226 238 254
226 238 254
226 238 254
226 238 254
226 238 254
226 238 254
226 238 254
226 238 254
226 238 254
226 238 254
226 238 254
226 238 254
226 238 254
226 238 254
226 238 254
226 238 254
226 238 254
226 238 254
226 238 254
226 238 254
226 238 254
226 238 254
226 238 254
226 238 254
226 238 254
226 238 254
226 238 254
226 238 254
226 238 254
226 238 254
226 238 254
226 238 254
226 238 254
226 238 254
226 238 254
226 238 254
226 238 254
226 238 254
226 238 254
226 238 254
226 238 254
226 238 254
226 238 254
226 238 254
226 238 254
226 238 254
226 238 254
226 238 254
226 238 254
226 238 254
226 238 254
226 238 254
226 238 254
226 238 254
226 238 254
226 238 254
226 238 254
226 238 254
226 238 254
226 238 254
226 238 254
226 238 254
226 238 254
226 238 254
226 238 254
226 238 254
226 238 254
226 238 254
226 238 254
226 238 254
226 238 254
226 238 254
226 238 254
226 238 254
226 238 254
226 238 254
226 238 254
226 238 254
226 238 254
226 238 254
226 238 254
226 238 254
226 238 254
226 238 254
226 238 254
226 238 254
226 238 254
226 238 254
226 238 254
226 238 254
226 238 254
226 238 254
226 238 254
226 238 254
226 238 254
226 238 254
226 238 254
226 238 254
226 238 254
226 238 254
226 238 254
226 238 254
226 238 254
226 238 254
226 238 254
226 238 254
226 238 254
226 238 254
226 238 254
226 238 254
226 238 254
226 238 254
226 238 254
226 238 254
226 238 254
226 238 254
226 238 254
226 238 254
226 238 254
226 238 254
226 238 254
226 238 254
226 238 254
226 238 254
226 238 254
226 238 254
226 238 254
226 238 254
226 238 254
226 238 254
226 238 254
226 238 254
226 238 254
226 238 254
226 238 254
226 238 254
226 238 254
226 238 254
226 238 254
226 238 254
226 238 254
226 238 254
226 238 254
226 238 254
226 238 254
226 238 254
226 238 254
226 238 254
226 238 254
226 238 254
226 238 254
226 238 254
226 238 254
226 238 254
226 238 254
226 238 254
226 238 254
226 238 254
226 238 254
226 238 254
226 238 254
226 238 254
226 238 254
226 238 254
226 238 254
226 238 254
226 238 254
226 238 254
226 238 254
226 238 254
226 238 254
226 238 254
226 238 254
226 238 254
226 238 254
226 238 254
226 238 254
226 238 254
226 238 254
226 238 254
226 238 254
215 227 242
155 169 171
81 98 83
89 107 94
112 128 126
115 128 127
78 95 80
58 78 49
86 103 91
79 95 80
53 73 43
72 89 70
102 116 111
106 119 114
105 117 118
89 105 95
66 84 62
54 74 43
41 59 32
73 89 75
62 78 60
45 62 36
43 60 34
67 85 61
91 105 97
93 106 104
100 112 113
94 106 103
63 78 64
47 64 41
43 60 33
49 67 38
64 78 64
94 106 106
83 93 92
44 62 35
58 73 55
72 85 77
85 97 93
88 100 98
67 79 71
58 70 60
47 62 45
41 57 32
40 56 31
46 59 44
74 85 79
89 99 99
78 90 83
93 104 103
50 63 49
36 50 28
37 53 29
36 48 33
65 76 69
65 75 69
38 53 29
29 42 22
62 71 68
86 96 96
68 78 75
71 80 79
65 75 70
28 40 21
30 43 23
34 44 31
43 54 40
69 79 74
65 75 70
51 60 53
38 52 31
31 45 24
27 38 21
62 71 66
66 75 73
53 64 54
57 68 59
39 49 38
30 42 23
27 38 21
43 55 41
72 80 79
67 76 74
47 56 49
36 49 27
32 45 25
35 46 32
69 77 77
63 73 66
25 31 25
43 52 45
39 47 43
35 43 36
42 52 42
23 33 17
41 51 39
41 50 42
57 65 61
52 60 56
22 32 17
23 33 17
38 47 37
43 52 44
54 61 59
25 35 19
21 30 17
26 37 20
70 78 79
52 61 57
31 40 29
26 37 19
27 39 20
22 31 17
58 66 64
45 55 46
57 64 64
31 42 24
27 39 21
54 62 60
56 64 60
43 52 44
50 57 55
34 43 31
44 54 44
55 62 61
53 62 57
50 59 52
37 48 34
57 65 64
62 70 70
61 68 69
26 37 20
28 38 22
45 55 46
48 57 51
63 74 67
46 54 49
37 49 33
26 37 20
33 46 26
54 61 59
69 78 78
69 76 78
61 69 66
33 43 31
30 41 23
30 42 24
43 55 42
72 80 82
71 82 75
56 64 61
39 49 37
32 45 25
27 38 20
38 50 35
70 82 74
72 82 79
74 85 82
55 67 57
31 45 24
48 58 48
62 73 66
67 78 73
48 59 48
35 50 27
34 47 27
53 65 53
57 68 62
80 91 90
68 78 74
98 108 112
48 59 50
40 55 36
45 62 36
34 48 26
58 68 61
78 90 83
96 107 105
94 104 105
76 87 84
62 73 64
50 65 47
88 99 99
85 97 96
66 78 71
60 72 64
41 57 33
43 60 34
57 72 54
75 88 83
78 90 85
95 108 106
89 101 97
62 76 64
53 71 45
42 58 33
62 78 60
81 96 88
59 74 57
47 65 38
57 73 53
67 83 68
101 115 115
110 124 128
101 113 114
69 84 72
50 69 41
67 85 66
84 97 90
50 67 44
80 95 87
98 113 109
106 121 117
91 108 99
108 122 118
186 199 207
226 238 254
226 238 254
226 238 254
226 238 254
226 238 254
226 238 254
226 238 254
226 238 254
226 238 254
226 238 254
226 238 254
226 238 254
226 238 254
226 238 254
226 238 254
226 238 254
226 238 254
226 238 254
226 238 254
226 238 254
226 238 254
226 238 254
226 238 254
226 238 254
226 238 254
226 238 254
226 238 254
226 238 254
226 238 254
226 238 254
226 238 254
226 238 254
226 238 254
226 238 254
226 238 254
226 238 254
226 238 254
226 238 254
226 238 254
226 238 254
226 238 254
226 238 254
226 238 254
226 238 254
226 238 254
226 238 254
226 238 254
226 238 254
226 238 254
226 238 254
226 238 254
226 238 254
226 238 254
226 238 254
226 238 254
226 238 254
226 238 254
226 238 254
226 238 254
226 238 254
226 238 254
226 238 254
226 238 254
226 238 254
226 238 254
226 238 254
226 238 254
226 238 254
226 238 254
226 238 254
226 238 254
226 238 254
226 238 254
226 238 254
226 238 254
226 238 254
226 238 254
226 238 254
226 238 254
226 238 254
226 238 254
226 238 254
226 238 254
226 238 254
226 238 254
226 238 254
226 238 254
226 238 254
226 238 254
226 238 254
226 238 254
226 238 254
226 238 254
226 238 254
226 238 254
226 238 254
226 238 254
226 238 254
226 238 254
226 238 254
226 238 254
226 238 254
226 238 254
226 238 254
226 238 254
226 238 254
226 238 254
226 238 254
226 238 254
226 238 254
226 238 254
226 238 254
226 238 254
226 238 254
226 238 254
226 238 254
226 238 254
226 238 254
226 238 254
226 238 254
226 238 254
226 238 254
226 238 254
226 238 254
226 238 254
226 238 254
226 238 254
226 238 254
226 238 254
226 238 254
226 238 254
226 238 254
226 238 254
226 238 254
226 238 254
226 238 254
226 238 254
226 238 254
226 238 254
226 238 254
226 238 254
226 238 254
226 238 254
226 238 254
226 238 254
226 238 254
226 238 254
226 238 254
226 238 254
226 238 254
226 238 254
226 238 254
226 238 254
226 238 254
226 238 254
226 238 254
226 238 254
226 238 254
226 238 254
226 238 254
226 238 254
226 238 254
226 238 254
226 238 254
226 238 254
226 238 254
226 238 254
226 238 254
226 238 254
226 238 254
226 238 254
226 238 254
226 238 254
226 238 254
226 238 254
226 238 254
226 238 254
226 238 254
226 238 254
226 238 254
221 233 248
168 181 187
111 128 124
112 128 123
126 141 142
107 124 116
61 82 51
77 95 79
107 123 122
119 133 132
103 118 112
112 127 125
116 131 131
108 121 118
99 113 108
62 79 58
59 80 47
60 78 56
79 93 83
103 117 115
109 122 121
106 120 119
85 99 90
91 105 101
110 124 120
107 121 119
103 116 114
65 81 65
53 72 46
48 66 37
46 62 40
71 86 71
93 106 102
97 111 107
104 117 115
96 110 107
79 93 84
42 58 36
39 56 30
55 72 48
75 89 81
63 79 61
46 63 36
43 60 35
49 64 44
75 88 81
80 94 86
96 109 106
91 103 103
64 76 67
47 62 43
35 49 27
46 63 36
50 61 51
62 72 67
91 101 103
75 86 83
72 84 79
61 74 62
39 54 31
37 52 29
40 56 31
56 67 58
56 67 57
47 60 43
36 50 28
61 69 67
72 82 77
80 91 90
74 87 78
52 63 53
31 44 23
26 38 19
37 51 28
61 71 66
64 74 70
67 76 76
52 61 56
37 50 32
34 48 27
27 40 19
60 71 64
73 83 81
72 83 79
59 69 63
39 54 31
31 44 23
36 50 29
45 55 47
67 79 72
71 82 76
60 67 68
23 33 18
27 39 21
26 36 20
67 76 74
78 87 86
70 79 78
42 50 44
20 29 14
37 52 29
44 55 42
56 64 61
58 67 61
54 63 59
20 31 14
21 30 15
22 32 17
78 87 87
62 70 69
58 67 62
22 32 16
27 39 20
26 36 20
79 86 90
64 74 71
63 71 69
36 46 33
29 40 22
30 41 23
41 48 44
54 62 58
46 57 47
51 58 55
33 45 26
25 35 19
22 32 15
62 72 66
56 65 62
67 75 72
32 45 25
30 41 24
28 39 21
49 60 48
61 70 67
58 68 61
53 62 57
34 47 27
27 38 20
36 48 32
65 73 73
62 72 66
54 64 57
45 54 46
36 49 28
30 42 22
36 50 29
52 62 55
55 65 59
60 70 63
53 63 56
49 61 49
25 36 20
30 43 23
55 67 56
62 71 68
55 66 58
73 82 81
69 78 77
41 54 37
46 59 44
77 89 85
67 77 71
42 51 44
36 51 27
37 52 28
52 65 49
73 84 78
81 92 90
63 73 70
74 84 83
62 72 67
38 53 30
39 54 30
32 46 26
68 78 73
72 84 79
80 91 86
80 91 89
79 92 85
64 77 68
37 52 29
39 55 30
48 65 42
61 73 62
49 65 43
43 59 34
42 58 34
61 74 60
72 85 77
88 99 99
88 99 97
76 88 83
66 79 72
54 69 51
50 69 40
48 66 39
58 72 59
78 89 86
94 106 109
81 95 89
88 101 97
87 100 97
94 106 106
108 120 125
102 115 113
76 90 80
67 84 65
50 67 40
58 77 52
101 116 114
104 117 118
116 130 133
98 113 108
89 104 101
107 121 121
89 103 97
87 103 94
62 83 53
101 115 112
107 121 120
94 109 105
142 156 158
198 210 221
226 238 254
226 238 254
226 238 254
226 238 254
226 238 254
226 238 254
226 238 254
226 238 254
226 238 254
226 238 254
226 238 254
226 238 254
226 238 254
226 238 254
226 238 254
226 238 254
226 238 254
226 238 254
226 238 254
226 238 254
226 238 254
226 238 254
226 238 254
226 238 254
226 238 254
226 238 254
226 238 254
226 238 254
226 238 254
226 238 254
226 238 254
226 238 254
226 238 254
226 238 254
226 238 254
226 238 254
226 238 254
226 238 254
226 238 254
226 238 254
226 238 254
226 238 254
226 238 254
226 238 254
226 238 254
226 238 254
226 238 254
226 238 254
226 238 254
226 238 254
226 238 254
226 238 254
226 238 254
226 238 254
226 238 254
226 238 254
226 238 254
226 238 254
226 238 254
226 238 254
226 238 254
226 238 254
226 238 254
226 238 254
226 238 254
226 238 254
226 238 254
226 238 254
226 238 254
226 238 254
226 238 254
226 238 254
226 238 254
226 238 254
226 238 254
226 238 254
226 238 254
226 238 254
226 238 254
226 238 254
226 238 254
226 238 254
226 238 254
226 238 254
226 238 254
226 238 254
226 238 254
226 238 254
226 238 254
226 238 254
226 238 254
226 238 254
226 238 254
226 238 254
226 238 254
226 238 254
226 238 254
226 238 254
226 238 254
226 238 254
226 238 254
226 238 254
226 238 254
226 238 254
226 238 254
226 238 254
226 238 254
226 238 254
226 238 254
226 238 254
226 238 254
226 238 254
226 238 254
226 238 254
226 238 254
226 238 254
226 238 254
226 238 254
226 238 254
226 238 254
226 238 254
226 238 254
226 238 254
226 238 254
226 238 254
226 238 254
226 238 254
226 238 254
226 238 254
226 238 254
226 238 254
226 238 254
226 238 254
226 238 254
226 238 254
226 238 254
226 238 254
226 238 254
226 238 254
226 238 254
226 238 254
226 238 254
226 238 254
226 238 254
226 238 254
226 238 254
226 238 254
226 238 254
226 238 254
226 238 254
226 238 254
226 238 254
226 238 254
226 238 254
226 238 254
226 238 254
226 238 254
226 238 254
226 238 254
226 238 254
226 238 254
226 238 254
226 238 254
226 238 254
226 238 254
226 238 254
226 238 254
226 238 254
226 238 254
226 238 254
226 238 254
226 238 254
226 238 254
196 208 220
142 157 161
101 119 110
75 96 72
82 101 82
68 91 58
96 114 101
111 125 123
126 142 143
96 113 102
65 83 62
55 77 43
69 87 64
77 94 76
56 77 44
55 76 44
73 90 71
102 117 112
133 145 151
111 125 123
92 105 100
68 84 65
50 70 39
46 63 36
57 76 46
80 96 82
57 74 54
51 70 40
52 72 41
66 81 64
90 103 98
97 111 108
104 116 117
102 114 111
71 85 73
52 67 47
47 65 36
49 68 38
53 70 49
80 93 84
84 95 94
96 110 105
95 107 105
79 92 84
71 85 75
94 106 105
78 90 83
91 103 101
72 88 72
48 65 37
48 66 38
48 66 38
49 64 45
69 82 72
97 107 109
71 84 76
74 85 81
76 88 81
38 53 30
38 53 29
37 52 28
51 65 50
80 93 86
66 77 70
72 83 75
66 77 73
48 61 43
37 52 28
34 47 26
39 54 31
62 75 63
80 92 89
43 55 42
32 44 24
78 88 86
79 88 89
74 85 80
78 88 88
53 65 55
39 53 31
35 49 27
29 42 22
62 71 68
78 88 87
65 76 69
74 84 83
40 50 40
34 48 26
32 46 25
38 51 34
68 78 74
80 90 88
63 72 67
45 57 43
30 43 22
31 43 24
41 53 36
59 71 60
68 76 77
62 73 64
33 47 26
35 48 28
25 38 18
40 52 36
70 80 78
62 71 68
56 64 63
36 47 34
35 48 27
34 47 27
49 58 52
82 93 90
63 72 70
75 85 82
26 36 20
24 35 17
32 45 25
49 60 47
79 87 89
70 79 78
61 70 66
31 44 24
30 43 23
31 44 24
53 62 57
68 76 76
61 70 67
60 71 63
31 44 23
24 34 18
34 47 26
64 74 70
76 84 85
57 67 58
51 60 54
40 54 32
36 50 29
29 41 22
67 77 73
55 64 60
50 58 54
52 63 52
19 29 13
35 49 28
32 45 24
57 66 62
88 99 99
50 61 51
73 82 80
23 33 17
33 46 26
33 46 26
44 56 42
58 68 63
68 77 74
85 95 95
63 74 66
42 56 37
52 65 51
62 72 67
52 63 53
50 64 47
38 52 30
27 39 20
50 62 48
65 76 69
61 72 63
85 94 93
85 96 96
54 68 52
39 54 30
33 47 25
40 55 31
64 77 68
89 100 99
79 90 88
68 79 72
90 101 101
62 73 64
40 56 32
42 58 33
38 53 28
54 67 55
88 101 95
80 93 87
69 80 77
49 68 39
71 83 76
87 100 96
91 103 100
97 110 107
96 108 106
64 78 65
42 59 33
42 59 33
52 71 42
63 77 66
77 91 83
80 93 85
87 100 96
97 110 110
77 90 85
50 64 47
42 58 33
78 94 83
90 103 99
62 77 63
47 66 37
47 65 36
60 77 59
92 106 103
100 114 111
99 111 111
103 115 114
90 105 95
55 72 48
55 76 44
63 81 62
78 94 83
58 79 47
56 76 45
97 113 106
102 117 116
112 125 126
98 114 106
76 95 74
92 108 98
79 97 77
96 112 106
163 176 184
216 227 243
226 238 254
226 238 254
226 238 254
226 238 254
226 238 254
226 238 254
226 238 254
226 238 254
226 238 254
226 238 254
226 238 254
226 238 254
226 238 254
226 238 254
226 238 254
226 238 254
226 238 254
226 238 254
226 238 254
226 238 254
226 238 254
226 238 254
226 238 254
226 238 254
226 238 254
226 238 254
226 238 254
226 238 254
226 238 254
226 238 254
226 238 254
226 238 254
226 238 254
226 238 254
226 238 254
226 238 254
226 238 254
226 238 254
226 238 254
226 238 254
226 238 254
226 238 254
226 238 254
226 238 254
226 238 254
226 238 254
226 238 254
226 238 254
226 238 254
226 238 254
226 238 254
226 238 254
226 238 254
226 238 254
226 238 254
226 238 254
226 238 254
226 238 254
226 238 254
226 238 254
226 238 254
226 238 254
226 238 254
226 238 254
226 238 254
226 238 254
226 238 254
226 238 254
226 238 254
226 238 254
226 238 254
226 238 254
226 238 254
226 238 254
226 238 254
226 238 254
226 238 254
226 238 254
226 238 254
226 238 254
226 238 254
226 238 254
226 238 254
226 238 254
226 238 254
226 238 254
226 238 254
226 238 254
226 238 254
226 238 254
226 238 254
226 238 254
226 238 254
226 238 254
226 238 254
226 238 254
226 238 254
226 238 254
226 238 254
226 238 254
226 238 254
226 238 254
226 238 254
226 238 254
226 238 254
226 238 254
226 238 254
226 238 254
226 238 254
226 238 254
226 238 254
226 238 254
226 238 254
226 238 254
226 238 254
226 238 254
226 238 254
226 238 254
226 238 254
226 238 254
226 238 254
226 238 254
226 238 254
226 238 254
226 238 254
226 238 254
226 238 254
226 238 254
226 238 254
226 238 254
226 238 254
226 238 254
226 238 254
226 238 254
226 238 254
226 238 254
226 238 254
226 238 254
226 238 254
226 238 254
226 238 254
226 238 254
226 238 254
226 238 254
226 238 254
226 238 254
226 238 254
226 238 254
226 238 254
226 238 254
226 238 254
226 238 254
226 238 254
226 238 254
226 238 254
226 238 254
226 238 254
226 238 254
226 238 254
226 238 254
226 238 254
226 238 254
226 238 254
226 238 254
226 238 254
217 229 244
155 169 170
96 115 99
87 105 89
122 137 137
109 125 121
126 141 142
139 155 159
111 127 123
98 114 105
60 83 48
55 75 43
100 116 109
121 135 137
108 122 118
120 135 136
96 111 101
110 124 126
106 121 118
114 129 128
103 118 113
54 74 43
52 71 40
59 80 47
75 91 76
89 103 93
119 132 137
100 117 108
108 124 122
75 89 78
85 99 88
96 111 100
109 121 122
100 113 110
74 90 74
43 61 32
44 61 34
38 56 28
61 78 56
89 102 97
93 107 101
105 119 116
101 113 112
93 106 100
63 79 61
43 60 33
42 58 33
42 59 33
70 86 70
101 114 111
90 103 98
57 72 53
54 69 49
72 84 76
105 116 118
83 97 90
94 105 103
66 79 72
54 70 51
36 51 28
38 55 30
42 56 36
66 79 68
89 101 97
72 84 76
69 80 76
90 102 100
41 57 32
32 46 25
37 53 29
36 52 28
65 77 68
64 75 66
74 85 84
75 87 80
73 86 76
33 47 26
40 56 31
41 56 32
48 62 45
73 82 80
69 81 75
66 76 70
35 47 31
80 91 90
89 100 100
63 72 68
62 74 65
35 49 28
34 47 27
30 43 23
36 49 28
72 82 78
76 86 84
69 81 74
58 67 62
38 52 30
32 45 25
32 44 24
55 66 57
72 83 79
62 72 65
67 77 73
36 49 33
31 43 24
39 53 31
29 42 22
68 79 72
73 82 82
69 78 76
56 65 60
27 38 21
30 42 23
35 48 28
68 78 76
79 89 87
66 77 69
63 74 69
25 36 19
27 40 19
39 53 31
77 86 86
61 70 67
70 80 77
71 82 77
33 45 26
27 39 21
36 50 28
37 49 34
66 75 70
73 83 81
65 74 70
51 62 53
28 40 21
33 46 26
32 44 25
66 75 70
72 83 80
90 100 103
53 62 56
32 46 24
36 51 28
31 44 24
55 68 55
72 84 76
84 93 95
76 86 83
74 85 81
40 55 31
38 52 30
38 53 30
52 62 55
72 84 76
83 93 93
70 81 78
36 50 28
60 71 64
58 68 63
73 86 78
50 63 49
27 39 20
30 43 23
35 50 26
46 60 44
74 85 83
72 82 79
64 76 68
90 100 101
52 64 52
35 49 26
38 53 28
33 47 26
55 68 55
79 91 86
85 96 93
87 100 96
62 75 66
45 57 41
40 55 31
39 54 30
37 52 28
75 88 82
79 92 85
89 100 100
79 92 87
79 92 85
60 74 63
72 83 75
89 101 98
79 91 85
96 109 108
46 60 42
37 53 28
39 55 31
38 54 29
70 85 71
96 108 106
92 104 104
91 104 97
90 102 100
74 87 82
47 65 36
48 67 38
37 52 29
60 75 61
77 92 80
100 113 112
100 114 112
53 72 42
71 85 72
90 105 96
105 117 118
108 121 122
97 111 109
78 93 83
50 67 44
57 77 46
45 63 36
72 88 74
105 119 117
98 114 110
121 135 140
95 110 106
99 113 110
110 122 127
112 125 127
94 109 102
59 77 53
57 78 46
82 99 85
106 122 119
116 130 132
103 118 113
116 130 132
106 121 119
73 94 69
106 122 117
186 198 208
226 238 254
226 238 254
226 238 254
226 238 254
226 238 254
226 238 254
226 238 254
226 238 254
226 238 254
226 238 254
226 238 254
226 238 254
226 238 254
226 238 254
226 238 254
226 238 254
226 238 254
226 238 254
226 238 254
226 238 254
226 238 254
226 238 254
226 238 254
226 238 254
226 238 254
226 238 254
226 238 254
226 238 254
226 238 254
226 238 254
226 238 254
226 238 254
226 238 254
226 238 254
226 238 254
226 238 254
226 238 254
226 238 254
226 238 254
226 238 254
226 238 254
226 238 254
226 238 254
226 238 254
226 238 254
226 238 254
226 238 254
226 238 254
226 238 254
226 238 254
226 238 254
226 238 254
226 238 254
226 238 254
226 238 254
226 238 254
226 238 254
226 238 254
226 238 254
226 238 254
226 238 254
226 238 254
226 238 254
226 238 254
226 238 254
226 238 254
226 238 254
226 238 254
226 238 254
226 238 254
226 238 254
226 238 254
226 238 254
226 238 254
226 238 254
226 238 254
226 238 254
226 238 254
226 238 254
226 238 254
226 238 254
226 238 254
226 238 254
226 238 254
226 238 254
226 238 254
226 238 254
226 238 254
226 238 254
226 238 254
226 238 254
226 238 254
226 238 254
226 238 254
226 238 254
226 238 254
226 238 254
226 238 254
226 238 254
226 238 254
226 238 254
226 238 254
226 238 254
226 238 254
226 238 254
226 238 254
226 238 254
226 238 254
226 238 254
226 238 254
226 238 254
226 238 254
226 238 254
226 238 254
226 238 254
226 238 254
226 238 254
226 238 254
226 238 254
226 238 254
226 238 254
226 238 254
226 238 254
226 238 254
226 238 254
226 238 254
226 238 254
226 238 254
226 238 254
226 238 254
226 238 254
226 238 254
226 238 254
226 238 254
226 238 254
226 238 254
226 238 254
226 238 254
226 238 254
226 238 254
226 238 254
226 238 254
226 238 254
226 238 254
226 238 254
226 238 254
226 238 254
226 238 254
226 238 254
226 238 254
226 238 254
226 238 254
226 238 254
226 238 254
226 238 254
226 238 254
226 238 254
226 238 254
226 238 254
174 187 193
108 126 113
79 98 75
124 140 142
112 128 125
92 110 96
62 85 50
75 96 71
91 110 93
57 79 46
73 92 70
102 120 108
122 138 137
131 145 147
108 123 117
90 107 94
56 76 44
60 81 48
105 120 116
81 98 81
58 79 47
48 67 37
50 71 39
87 102 95
96 110 106
123 136 137
122 135 141
105 120 113
91 106 97
49 69 38
47 66 37
53 73 41
70 85 72
97 111 108
66 83 65
53 73 42
47 66 37
76 93 75
92 105 101
108 121 120
105 117 116
100 115 110
81 94 85
51 69 44
43 61 34
49 68 39
46 64 35
76 89 83
75 88 80
90 103 101
98 111 110
92 105 104
86 100 95
47 64 40
44 60 34
37 53 28
55 71 53
69 81 75
42 58 32
52 71 41
40 55 31
53 67 50
74 87 79
106 118 120
101 112 110
85 97 94
80 91 89
38 51 32
41 57 31
38 54 29
43 60 33
73 86 76
91 102 101
79 91 86
84 94 94
75 86 80
47 61 43
42 58 33
34 49 25
37 51 28
72 85 76
68 78 76
84 95 94
83 95 89
68 80 73
43 59 33
35 48 27
34 48 26
41 55 37
84 95 94
73 84 79
71 83 76
65 75 73
32 46 24
61 73 62
59 71 60
59 70 62
54 67 52
33 46 26
28 40 21
32 46 24
81 92 89
71 82 77
82 93 90
73 84 78
41 55 37
32 46 25
32 46 25
37 52 29
92 102 102
68 80 74
78 88 85
72 83 78
36 50 28
34 47 28
34 48 27
36 50 27
68 77 74
70 80 76
66 77 72
72 82 79
37 52 29
29 42 21
32 46 25
44 55 41
93 103 105
86 97 97
67 77 73
39 50 38
30 43 22
36 50 28
34 48 26
61 73 64
78 87 87
66 77 74
80 92 87
39 52 35
35 50 27
27 39 20
31 44 24
61 71 66
74 83 81
73 83 79
74 84 83
31 42 29
40 56 31
36 48 33
41 54 37
64 77 68
44 54 46
42 56 37
37 50 33
67 79 71
72 82 80
74 84 82
81 91 92
61 73 63
35 50 28
41 57 33
28 40 21
50 64 48
71 81 78
83 95 91
70 81 74
83 94 92
50 63 50
36 50 28
41 57 32
41 57 33
45 58 41
74 87 78
65 75 69
63 74 65
70 81 75
57 71 53
40 56 32
34 49 26
35 49 27
58 71 59
81 93 89
90 101 100
76 88 83
92 102 103
59 72 59
39 54 30
42 59 34
46 64 37
83 95 92
61 76 60
45 62 35
43 60 34
40 56 31
60 74 61
90 102 103
89 103 99
96 108 107
102 115 116
81 95 87
58 74 55
44 62 35
46 64 37
52 71 42
63 77 65
88 101 98
89 102 98
105 118 117
101 113 113
84 98 93
47 63 39
41 57 32
83 96 90
94 108 101
81 96 86
43 59 38
50 69 40
48 66 38
44 62 34
87 102 94
107 121 120
105 119 118
106 121 120
97 111 108
72 87 76
52 72 41
53 73 42
61 79 54
81 95 87
59 80 48
55 76 43
62 80 58
87 103 94
124 139 143
102 116 115
108 122 120
72 92 68
57 79 47
65 86 59
82 101 87
54 74 43
98 114 106
126 141 144
102 119 112
96 114 103
152 165 170
215 226 241
226 238 254
226 238 254
226 238 254
226 238 254
226 238 254
226 238 254
226 238 254
226 238 254
226 238 254
226 238 254
226 238 254
226 238 254
226 238 254
226 238 254
226 238 254
226 238 254
226 238 254
226 238 254
226 238 254
226 238 254
226 238 254
226 238 254
226 238 254
226 238 254
226 238 254
226 238 254
226 238 254
226 238 254
226 238 254
226 238 254
226 238 254
226 238 254
226 238 254
226 238 254
226 238 254
226 238 254
226 238 254
226 238 254
226 238 254
226 238 254
226 238 254
226 238 254
226 238 254
226 238 254
226 238 254
226 238 254
226 238 254
226 238 254
226 238 254
226 238 254
226 238 254
226 238 254
226 238 254
226 238 254
226 238 254
226 238 254
226 238 254
226 238 254
226 238 254
226 238 254
226 238 254
226 238 254
226 238 254
226 238 254
226 238 254
226 238 254
226 238 254
226 238 254
226 238 254
226 238 254
226 238 254
226 238 254
226 238 254
226 238 254
226 238 254
226 238 254
226 238 254
226 238 254
226 238 254
226 238 254
226 238 254
226 238 254
226 238 254
226 238 254
226 238 254
226 238 254
226 238 254
226 238 254
226 238 254
226 238 254
226 238 254
226 238 254
226 238 254
226 238 254
226 238 254
226 238 254
226 238 254
226 238 254
226 238 254
226 238 254
226 238 254
226 238 254
226 238 254
226 238 254
226 238 254
226 238 254
226 238 254
226 238 254
226 238 254
226 238 254
226 238 254
226 238 254
226 238 254
226 238 254
226 238 254
226 238 254
226 238 254
226 238 254
226 238 254
226 238 254
226 238 254
226 238 254
226 238 254
226 238 254
226 238 254
226 238 254
226 238 254
226 238 254
226 238 254
226 238 254
226 238 254
226 238 254
226 238 254
226 238 254
226 238 254
226 238 254
226 238 254
226 238 254
226 238 254
226 238 254
226 238 254
226 238 254
226 238 254
226 238 254
226 238 254
226 238 254
226 238 254
226 238 254
226 238 254
226 238 254
226 238 254
220 232 247
162 176 181
133 149 151
132 148 149
136 151 153
101 119 106
63 87 51
83 103 82
125 141 142
124 140 142
75 95 71
106 123 116
130 144 149
130 144 144
103 118 112
73 91 71
56 77 44
55 76 43
83 101 86
113 129 125
121 136 135
120 135 136
61 81 51
100 115 108
112 124 127
109 123 121
115 129 127
112 126 123
71 88 73
47 66 36
51 71 40
50 69 40
83 100 86
104 119 114
113 126 125
115 128 126
114 126 127
96 110 104
58 76 51
80 95 85
113 126 126
89 103 96
91 104 99
64 81 60
45 64 35
44 62 33
47 65 37
67 83 66
100 114 111
92 105 102
111 123 123
115 127 130
75 91 76
58 73 56
47 66 38
45 63 34
53 71 42
56 72 53
103 116 115
107 120 120
103 116 114
86 99 94
77 90 82
46 64 36
71 86 71
64 77 64
98 110 110
73 86 78
46 63 36
41 58 32
44 61 34
48 66 39
61 73 64
90 102 98
89 100 100
85 98 94
84 96 92
52 67 50
41 57 32
38 53 30
37 52 28
42 56 36
79 92 86
82 93 90
87 98 97
79 92 86
60 72 61
36 50 27
42 58 33
37 53 28
42 56 37
84 95 94
78 91 84
93 105 103
80 89 92
58 71 57
38 53 29
39 56 29
35 49 27
54 64 58
93 105 103
73 85 78
71 83 78
72 83 77
43 59 33
31 45 24
36 51 28
40 55 31
82 92 90
79 89 86
82 94 90
79 87 89
39 52 35
36 50 27
31 44 24
45 57 43
69 79 76
67 78 72
69 81 74
70 81 76
72 83 76
59 72 61
51 63 50
55 67 58
69 79 76
63 74 67
69 79 74
55 67 54
57 69 60
49 59 50
48 60 46
52 63 52
57 70 56
60 70 64
71 81 79
73 84 82
73 83 79
43 56 40
36 48 32
40 56 31
38 53 30
82 93 88
75 87 79
89 101 99
73 84 79
45 59 42
30 43 23
29 43 21
36 50 28
58 71 59
71 82 77
82 93 90
97 109 107
62 72 69
40 56 32
34 48 25
42 57 33
37 52 28
84 96 93
82 94 90
83 93 94
81 92 89
57 67 61
36 50 28
38 54 30
33 47 25
33 46 25
73 87 77
92 104 104
82 93 92
68 81 72
67 78 72
40 56 31
40 56 32
34 48 25
34 49 26
65 75 69
84 95 92
92 104 103
85 97 97
79 91 87
54 66 54
42 58 33
41 57 31
40 56 30
53 69 51
95 107 108
77 91 83
45 60 40
48 65 38
72 86 77
100 112 110
95 108 105
87 100 96
101 115 111
84 96 94
46 62 39
49 67 38
46 63 36
38 53 29
69 85 69
86 98 96
93 105 103
103 116 117
99 112 113
81 94 87
50 65 44
37 52 28
44 63 34
43 60 33
87 101 92
95 108 104
97 110 109
43 59 33
49 68 40
71 85 75
114 128 131
103 117 116
115 128 130
103 116 117
84 98 92
67 83 68
46 64 36
48 67 37
50 68 43
92 107 103
111 125 126
112 126 127
117 129 133
101 114 114
87 101 93
106 119 118
114 127 131
119 133 135
93 108 102
59 80 51
60 82 48
66 87 59
96 111 107
118 133 132
125 139 143
120 136 138
117 132 132
107 123 121
115 130 131
96 113 104
56 78 45
99 116 109
126 141 146
113 130 127
139 154 158
197 208 221
226 238 254
226 238 254
226 238 254
226 238 254
226 238 254
226 238 254
226 238 254
226 238 254
226 238 254
226 238 254
226 238 254
226 238 254
226 238 254
226 238 254
226 238 254
226 238 254
226 238 254
226 238 254
226 238 254
226 238 254
226 238 254
226 238 254
226 238 254
226 238 254
226 238 254
226 238 254
226 238 254
226 238 254
226 238 254
226 238 254
226 238 254
226 238 254
226 238 254
226 238 254
226 238 254
226 238 254
226 238 254
226 238 254
226 238 254
226 238 254
226 238 254
226 238 254
226 238 254
226 238 254
226 238 254
226 238 254
226 238 254
226 238 254
226 238 254
226 238 254
226 238 254
226 238 254
226 238 254
226 238 254
226 238 254
226 238 254
226 238 254
226 238 254
226 238 254
226 238 254
226 238 254
226 238 254
226 238 254
226 238 254
226 238 254
226 238 254
226 238 254
226 238 254
226 238 254
226 238 254
226 238 254
226 238 254
226 238 254
226 238 254
226 238 254
226 238 254
226 238 254
226 238 254
226 238 254
226 238 254
226 238 254
226 238 254
226 238 254
226 238 254
226 238 254
226 238 254
226 238 254
226 238 254
226 238 254
226 238 254
226 238 254
226 238 254
226 238 254
226 238 254
226 238 254
226 238 254
226 238 254
226 238 254
226 238 254
226 238 254
226 238 254
226 238 254
226 238 254
226 238 254
226 238 254
226 238 254
226 238 254
226 238 254
226 238 254
226 238 254
226 238 254
226 238 254
226 238 254
226 238 254
226 238 254
226 238 254
226 238 254
226 238 254
226 238 254
226 238 254
226 238 254
226 238 254
226 238 254
226 238 254
226 238 254
226 238 254
226 238 254
226 238 254
226 238 254
226 238 254
226 238 254
226 238 254
226 238 254
226 238 254
226 238 254
226 238 254
226 238 254
226 238 254
226 238 254
226 238 254
226 238 254
226 238 254
226 238 254
226 238 254
226 238 254
205 217 229
128 144 142
108 125 118
67 90 59
116 134 127
69 92 61
88 107 88
109 124 121
127 143 144
118 134 131
94 111 100
64 88 52
128 143 148
117 134 131
78 98 73
67 91 55
58 80 47
72 92 68
125 140 141
114 129 125
122 137 139
129 143 149
106 122 115
53 70 47
55 76 43
125 140 141
108 122 119
82 98 84
56 77 45
51 71 40
60 81 47
69 88 68
102 118 108
122 136 139
102 117 111
119 134 136
113 127 125
67 82 67
47 67 37
48 67 36
43 61 32
66 85 60
102 116 110
108 121 120
68 84 67
46 64 35
58 75 51
91 104 102
95 110 104
92 106 100
93 105 103
99 111 109
67 82 70
45 62 34
46 65 35
50 69 39
40 57 30
66 80 68
90 102 99
105 118 116
100 114 110
93 106 103
88 101 95
51 68 44
46 64 36
40 57 30
47 65 37
60 73 62
87 100 94
104 117 114
81 95 89
99 112 110
58 74 55
77 91 83
90 102 98
94 107 103
83 96 90
62 76 65
46 61 39
37 53 27
48 66 38
41 57 32
58 73 57
87 99 98
83 97 91
101 113 115
92 104 100
49 61 48
45 63 36
35 49 27
44 61 35
44 59 39
80 91 87
90 102 101
72 84 79
88 98 96
81 93 87
36 50 28
41 58 32
38 53 29
37 53 28
70 81 76
73 85 78
79 90 85
76 88 83
63 73 66
36 52 28
35 50 27
34 49 26
44 61 34
81 93 86
88 98 99
79 89 86
80 91 89
66 76 71
34 48 27
38 53 29
39 55 30
41 57 32
64 76 68
88 100 96
91 101 103
88 100 96
37 52 29
36 51 27
33 46 25
35 50 27
63 74 66
75 85 81
86 98 96
88 100 97
81 93 88
35 50 26
38 53 29
37 52 27
37 52 28
67 77 73
93 104 103
79 90 88
90 101 99
65 77 68
41 57 32
37 52 29
36 51 27
39 53 30
88 99 99
86 97 94
80 91 88
74 86 79
54 65 56
34 48 26
36 51 28
42 58 33
40 56 31
78 90 85
83 95 92
74 87 78
80 93 87
73 85 79
45 61 35
40 56 32
37 51 28
41 55 36
84 95 92
75 87 81
67 79 72
90 102 99
69 81 72
33 48 24
42 58 33
41 57 32
38 53 29
72 83 78
75 86 80
82 94 91
111 122 127
84 97 94
54 67 53
43 60 34
41 57 32
40 56 31
57 72 53
85 96 95
92 104 103
81 94 86
69 84 72
45 58 43
81 94 89
87 99 94
96 108 106
96 107 109
83 95 91
54 70 49
45 62 35
41 57 32
37 53 28
53 69 49
93 105 102
93 106 102
104 117 116
92 104 103
87 101 95
49 66 42
41 57 33
45 63 35
47 65 36
46 64 36
96 109 105
104 117 115
102 115 114
116 129 131
101 115 116
86 100 95
44 62 34
98 111 109
86 98 93
101 115 112
75 89 82
48 66 38
48 67 38
54 74 44
59 80 47
89 102 96
108 122 123
108 121 122
106 120 121
115 128 130
109 121 124
56 75 48
49 68 39
52 72 40
59 76 54
84 100 92
75 92 74
53 73 42
51 70 41
70 89 68
106 121 120
120 133 136
116 130 131
121 136 137
93 108 103
60 81 51
60 81 48
63 84 57
84 100 90
99 115 107
60 83 48
75 94 77
112 128 126
138 154 160
117 133 136
73 92 72
58 80 47
78 101 72
72 94 66
113 130 130
177 190 199
226 238 254
226 238 254
226 238 254
226 238 254
226 238 254
226 238 254
226 238 254
226 238 254
226 238 254
226 238 254
226 238 254
226 238 254
226 238 254
226 238 254
226 238 254
226 238 254
226 238 254
226 238 254
226 238 254
226 238 254
226 238 254
226 238 254
226 238 254
226 238 254
226 238 254
226 238 254
226 238 254
226 238 254
226 238 254
226 238 254
226 238 254
226 238 254
226 238 254
226 238 254
226 238 254
226 238 254
226 238 254
226 238 254
226 238 254
226 238 254
226 238 254
226 238 254
226 238 254
226 238 254
226 238 254
226 238 254
226 238 254
226 238 254
226 238 254
226 238 254
226 238 254
226 238 254
226 238 254
226 238 254
226 238 254
226 238 254
226 238 254
226 238 254
226 238 254
226 238 254
226 238 254
226 238 254
226 238 254
226 238 254
226 238 254
226 238 254
226 238 254
226 238 254
226 238 254
226 238 254
226 238 254
226 238 254
226 238 254
226 238 254
226 238 254
226 238 254
226 238 254
226 238 254
226 238 254
226 238 254
226 238 254
226 238 254
226 238 254
226 238 254
226 238 254
226 238 254
226 238 254
226 238 254
226 238 254
226 238 254
226 238 254
226 238 254
226 238 254
226 238 254
226 238 254
226 238 254
226 238 254
226 238 254
226 238 254
226 238 254
226 238 254
226 238 254
226 238 254
226 238 254
226 238 254
226 238 254
226 238 254
226 238 254
226 238 254
226 238 254
226 238 254
226 238 254
226 238 254
226 238 254
226 238 254
226 238 254
226 238 254
226 238 254
226 238 254
226 238 254
226 238 254
226 238 254
226 238 254
226 238 254
226 238 254
226 238 254
226 238 254
226 238 254
226 238 254
226 238 254
226 238 254
226 238 254
226 238 254
226 238 254
226 238 254
226 238 254
226 238 254
226 238 254
226 238 254
199 212 226
139 156 157
90 111 90
84 105 82
123 139 139
83 104 77
102 120 111
136 151 156
141 156 161
110 128 120
67 91 55
64 88 52
94 112 100
113 130 123
60 84 48
63 86 50
78 95 79
105 121 119
126 140 141
126 141 142
124 140 137
89 106 94
53 74 42
57 79 45
59 81 47
65 83 62
88 105 92
122 136 138
110 124 123
54 75 43
67 87 61
95 110 105
108 121 121
120 135 134
120 135 136
106 120 117
84 99 90
57 78 46
57 78 45
57 78 45
45 63 35
84 99 89
117 132 130
121 133 138
115 129 129
101 117 111
72 87 73
60 76 57
44 61 34
88 103 94
103 117 111
100 114 111
76 93 74
53 74 42
50 69 39
42 60 32
55 75 43
79 93 82
106 120 121
99 112 109
91 105 99
101 114 113
94 106 106
53 72 43
49 68 38
48 67 38
49 67 39
66 80 69
98 111 108
102 114 115
86 98 95
111 123 125
82 95 89
46 62 38
47 65 36
45 63 35
40 57 30
48 67 37
89 101 97
92 105 101
83 97 89
75 87 83
64 80 64
86 98 93
83 96 89
98 111 109
81 93 90
94 107 105
67 81 70
36 52 28
37 52 28
34 49 26
41 57 33
77 89 83
103 115 115
81 95 86
78 90 84
87 98 98
55 71 50
44 61 33
39 54 30
34 50 26
49 63 50
81 94 87
82 93 90
85 98 93
91 103 101
45 57 44
35 49 26
37 52 28
44 61 34
43 59 34
84 96 89
76 87 79
85 97 97
75 88 81
74 88 80
33 48 25
36 51 28
39 55 30
33 48 25
76 87 82
83 93 91
82 94 89
75 87 82
81 91 91
43 60 33
45 62 35
40 57 31
34 49 26
80 92 88
83 94 90
85 96 94
82 94 89
79 91 86
40 55 30
36 51 27
40 56 31
42 58 33
51 61 53
70 81 75
83 93 93
81 93 89
70 80 77
38 53 30
36 51 27
44 61 34
34 48 26
47 62 45
86 98 94
87 99 95
87 99 98
89 101 99
62 76 62
34 49 26
47 64 37
43 60 34
41 58 32
86 98 95
90 102 100
82 95 89
63 76 66
79 90 87
35 50 26
37 52 29
46 63 36
44 60 36
54 66 54
88 100 97
80 92 86
83 95 91
90 102 101
62 75 64
29 43 22
43 60 35
50 69 40
40 56 31
72 86 76
80 91 87
92 104 102
95 109 105
83 94 92
42 59 33
87 99 95
92 104 102
81 95 88
105 117 118
69 81 73
41 57 31
51 70 40
45 61 35
46 63 36
63 76 65
92 105 101
95 107 103
100 112 113
97 110 108
91 103 100
44 60 39
48 66 38
41 57 32
47 65 38
54 68 55
107 119 120
87 99 94
98 112 108
96 109 106
106 119 119
68 82 71
48 67 39
51 70 40
54 74 43
49 68 38
67 82 68
77 90 87
49 68 39
53 72 43
48 66 37
71 86 74
92 105 102
117 130 132
97 110 108
113 125 126
103 116 115
79 95 83
50 70 40
51 69 40
50 69 39
60 81 49
87 101 92
104 117 117
113 126 128
110 124 126
107 121 119
93 109 103
49 68 39
119 132 134
119 133 135
108 121 121
88 102 95
50 69 40
60 82 48
51 70 40
63 82 55
96 112 103
101 115 111
117 131 135
112 125 128
97 114 106
60 82 48
113 128 129
120 134 135
70 87 71
51 72 41
53 74 43
89 109 93
125 141 142
129 144 148
103 119 115
109 126 119
111 129 124
71 91 67
95 112 105
172 185 195
219 231 246
226 238 254
226 238 254
226 238 254
226 238 254
226 238 254
226 238 254
226 238 254
226 238 254
226 238 254
226 238 254
226 238 254
226 238 254
226 238 254
226 238 254
226 238 254
226 238 254
226 238 254
226 238 254
226 238 254
226 238 254
226 238 254
226 238 254
226 238 254
226 238 254
226 238 254
226 238 254
226 238 254
226 238 254
226 238 254
226 238 254
226 238 254
226 238 254
226 238 254
226 238 254
226 238 254
226 238 254
226 238 254
226 238 254
226 238 254
226 238 254
226 238 254
226 238 254
226 238 254
226 238 254
226 238 254
226 238 254
226 238 254
226 238 254
226 238 254
226 238 254
226 238 254
226 238 254
226 238 254
226 238 254
226 238 254
226 238 254
226 238 254
226 238 254
226 238 254
226 238 254
226 238 254
226 238 254
226 238 254
226 238 254
226 238 254
226 238 254
226 238 254
226 238 254
226 238 254
226 238 254
226 238 254
226 238 254
226 238 254
226 238 254
226 238 254
226 238 254
226 238 254
226 238 254
226 238 254
226 238 254
226 238 254
226 238 254
226 238 254
226 238 254
226 238 254
226 238 254
226 238 254
226 238 254
226 238 254
226 238 254
226 238 254
226 238 254
226 238 254
226 238 254
226 238 254
226 238 254
226 238 254
226 238 254
226 238 254
226 238 254
226 238 254
226 238 254
226 238 254
226 238 254
226 238 254
226 238 254
226 238 254
226 238 254
226 238 254
226 238 254
226 238 254
226 238 254
226 238 254
226 238 254
226 238 254
226 238 254
226 238 254
226 238 254
226 238 254
226 238 254
226 238 254
226 238 254
227 238 254
227 238 254
227 238 254
227 238 254
227 238 254
227 238 254
227 238 254
227 238 254
227 238 254
227 238 254
185 197 206
111 128 118
79 103 75
122 138 136
135 151 154
116 132 131
126 141 143
144 159 164
105 121 118
80 101 75
61 85 49
66 89 53
112 130 123
132 146 147
123 138 139
131 146 148
115 131 128
127 142 143
119 133 131
121 137 136
96 111 101
59 80 49
54 75 43
53 73 41
57 79 46
104 120 115
126 141 145
128 142 143
120 134 134
120 134 136
98 112 105
53 73 42
112 127 124
113 126 130
122 136 136
104 119 113
52 71 40
57 79 45
54 74 42
55 76 44
78 96 78
94 110 102
113 128 126
105 118 116
105 119 117
104 117 117
93 107 100
53 73 41
54 73 43
53 73 42
48 67 37
69 86 67
92 107 102
105 120 115
111 124 125
82 97 88
55 71 52
101 114 111
85 99 93
111 125 125
104 117 116
109 123 121
87 101 94
49 68 39
48 65 38
51 71 41
47 65 37
54 71 49
86 102 92
113 126 127
99 113 110
109 121 121
99 112 111
72 87 74
46 64 35
44 61 34
47 66 37
46 65 37
67 81 69
84 96 89
86 98 95
85 98 91
96 108 107
92 105 101
48 66 38
43 60 33
43 61 34
42 59 33
45 61 40
97 110 108
100 113 109
89 102 98
81 94 88
67 82 68
70 84 71
94 106 104
96 108 108
101 113 114
83 96 90
65 78 67
44 61 34
43 60 34
41 57 31
41 58 31
82 95 88
86 97 93
96 106 109
95 107 107
90 102 103
53 67 54
34 49 25
39 55 30
38 54 31
40 56 31
72 85 77
92 104 101
95 107 107
87 100 95
90 101 100
37 53 28
45 63 35
41 56 32
42 58 33
40 56 31
77 89 84
80 91 86
84 97 92
87 97 98
69 81 72
37 52 29
46 63 36
43 60 33
42 59 32
71 84 72
85 97 93
79 92 87
65 75 68
81 92 88
45 62 36
39 55 30
30 46 21
43 60 33
35 50 26
89 101 99
89 101 101
92 102 102
100 111 112
79 92 85
36 51 28
36 51 28
39 54 30
38 53 29
59 74 60
99 111 111
86 97 97
86 98 95
88 99 97
59 72 59
45 61 35
41 58 32
42 59 33
42 58 33
80 93 84
99 112 109
101 111 114
98 109 110
78 90 84
56 70 56
38 54 28
36 52 29
47 65 37
41 58 32
90 102 98
78 89 85
80 93 87
91 102 100
87 100 95
58 72 58
73 86 78
85 97 94
106 119 118
99 112 111
77 90 84
48 67 38
46 63 36
49 67 38
48 66 38
67 82 68
91 104 100
95 108 104
83 96 89
101 113 113
97 108 108
43 59 33
45 62 35
45 63 35
38 55 28
49 67 39
79 92 84
91 103 98
93 106 103
93 106 104
95 107 107
91 104 99
44 62 35
45 63 36
50 69 39
47 65 38
74 89 76
98 111 111
93 104 102
89 102 99
110 123 125
86 99 95
61 74 63
106 118 119
97 110 106
99 113 109
104 119 114
88 100 99
58 73 54
48 67 37
57 77 45
51 71 41
48 66 38
75 90 78
108 124 122
111 126 126
109 123 122
107 121 123
94 109 104
58 74 55
49 68 39
60 81 48
49 69 38
52 70 44
97 112 107
120 134 135
62 79 56
52 72 41
75 92 78
101 116 113
115 128 132
103 118 115
117 130 132
101 117 111
80 96 84
57 78 46
56 77 45
56 77 44
77 94 79
131 146 152
110 125 122
127 142 146
66 83 65
118 134 134
116 131 132
129 143 151
125 140 143
87 105 92
63 85 51
63 86 51
110 128 121
137 152 158
85 102 89
112 130 127
124 140 144
105 122 116
73 95 68
130 145 142
212 223 237
227 238 254
227 238 254
227 238 254
227 238 254
227 238 254
227 238 254
227 238 254
227 238 254
227 238 254
226 238 254
226 238 254
226 238 254
226 238 254
226 238 254
226 238 254
226 238 254
226 238 254
226 238 254
226 238 254
226 238 254
226 238 254
226 238 254
226 238 254
226 238 254
226 238 254
226 238 254
226 238 254
226 238 254
226 238 254
226 238 254
226 238 254
226 238 254
226 238 254
226 238 254
226 238 254
226 238 254
226 238 254
226 238 254
226 238 254
226 238 254
226 238 254
226 238 254
226 238 254
226 238 254
226 238 254
226 238 254
226 238 254
226 238 254
226 238 254
226 238 254
226 238 254
226 238 254
226 238 254
226 238 254
226 238 254
226 238 254
226 238 254
226 238 254
226 238 254
226 238 254
226 238 254
226 238 254
226 238 254
226 238 254
226 238 254
226 238 254
226 238 254
226 238 254
226 238 254
226 238 254
226 238 254
226 238 254
226 238 254
226 238 254
226 238 254
226 238 254
226 238 254
226 238 254
226 238 254
226 238 254
226 238 254
226 238 254
226 238 254
226 238 254
226 238 254
226 238 254
226 238 254
226 238 254
226 238 254
226 238 254
226 238 254
226 238 254
226 238 254
226 238 254
226 238 254
227 238 254
227 238 254
227 238 254
227 238 254
227 238 254
227 238 254
227 238 254
227 238 254
227 238 254
227 238 254
227 238 254
227 238 254
227 238 254
227 238 254
227 238 254
227 238 254
227 238 254
227 238 254
227 238 254
227 238 254
227 238 254
227 238 254
227 238 254
227 238 254
227 238 254
227 238 254
227 238 254
227 238 254
227 238 254
227 238 254
227 238 254
187 200 209
96 116 95
88 111 85
118 135 127
146 163 168
96 115 99
63 85 51
62 85 50
101 121 107
62 85 50
67 91 53
104 120 113
124 139 141
138 154 160
133 149 150
113 129 122
64 86 55
64 87 51
60 82 48
116 131 130
84 101 85
64 87 52
61 84 49
65 89 53
97 114 102
119 133 131
121 135 135
131 145 149
115 128 129
114 131 126
69 87 67
59 80 47
59 82 47
54 74 42
64 82 59
107 121 113
80 97 82
52 72 41
60 82 47
51 71 41
104 120 113
114 129 127
107 120 116
106 120 119
118 132 133
91 106 98
69 87 66
52 71 40
51 71 40
55 76 45
57 79 45
91 107 94
115 129 130
115 129 131
123 136 140
111 124 124
111 126 124
68 83 70
53 73 42
51 70 40
55 75 43
64 79 65
94 106 102
47 65 36
51 71 41
48 68 38
56 75 44
52 72 41
88 102 95
102 115 113
96 110 105
101 115 112
113 126 127
90 104 97
53 70 48
47 65 36
41 59 32
47 64 37
48 66 37
89 101 96
97 109 107
97 109 107
102 114 114
105 117 117
98 112 109
47 66 36
42 59 33
46 64 36
42 59 32
45 64 35
81 94 89
93 107 103
91 104 101
97 110 108
100 113 112
67 82 70
44 62 34
39 56 30
50 67 39
41 59 32
48 62 44
101 114 115
97 109 110
85 100 91
90 103 100
77 89 82
73 86 77
75 89 79
83 97 89
81 93 87
92 104 102
44 61 34
33 48 25
38 55 29
35 50 27
38 54 30
82 95 89
107 119 118
93 107 100
90 103 99
92 105 101
49 63 45
47 65 37
50 68 40
49 66 39
40 56 32
90 103 101
90 103 100
73 87 76
98 109 110
92 105 102
47 65 39
44 61 35
40 57 31
44 62 34
47 65 37
102 114 113
88 100 98
86 98 94
79 92 85
101 114 112
40 54 35
39 55 30
42 59 33
34 49 26
42 58 33
78 90 82
94 106 105
87 100 96
88 99 98
74 86 82
59 72 60
39 54 29
37 52 29
48 67 38
42 58 32
87 99 95
93 105 104
100 112 111
83 96 92
104 116 117
70 85 72
43 60 34
36 51 27
42 58 33
37 52 28
66 79 69
95 108 105
77 90 83
60 74 60
83 95 92
63 80 61
92 104 105
86 99 93
92 104 100
109 122 120
86 98 96
45 62 35
46 65 36
49 67 39
47 64 37
39 55 30
88 100 95
106 120 119
94 107 105
92 105 101
106 118 121
63 79 59
46 64 36
47 64 37
45 64 35
39 55 31
53 73 42
97 110 106
108 120 121
97 108 109
106 119 116
103 117 116
62 76 62
47 65 37
49 68 39
50 69 39
47 66 38
73 87 76
99 113 109
99 112 109
95 106 107
114 127 129
94 108 104
77 92 80
43 60 34
43 60 34
51 70 40
47 65 38
73 88 73
67 83 65
48 66 38
52 71 41
49 68 39
53 72 42
80 95 85
100 115 110
114 127 128
103 117 112
99 111 110
83 98 89
72 90 72
49 68 38
53 72 42
49 69 38
50 69 40
65 81 67
109 122 123
106 119 121
93 107 104
108 122 122
108 121 121
76 92 78
55 76 44
59 81 48
99 113 108
113 127 126
94 108 103
48 66 37
51 71 40
54 75 43
51 70 39
82 99 81
115 130 129
113 129 127
124 139 140
121 136 139
106 121 116
74 94 71
57 79 46
59 81 49
58 80 47
93 111 98
59 80 47
59 81 47
61 84 50
80 100 80
127 142 146
139 153 161
123 138 140
97 114 101
66 89 56
61 85 51
71 93 67
83 103 81
64 87 51
86 105 91
129 145 148
118 134 133
93 113 100
138 151 154
219 231 246
227 238 254
227 238 254
227 238 254
227 238 254
227 238 254
227 238 254
227 238 254
227 238 254
227 238 254
227 238 254
227 238 254
227 238 254
227 238 254
227 238 254
227 238 254
227 238 254
227 238 254
227 238 254
227 238 254
227 238 254
227 238 254
227 238 254
227 238 254
227 238 254
227 238 254
227 238 254
227 238 254
227 238 254
227 238 254
227 238 254
227 238 254
226 238 254
226 238 254
226 238 254
226 238 254
226 238 254
226 238 254
226 238 254
226 238 254
226 238 254
226 238 254
226 238 254
226 238 254
226 238 254
226 238 254
226 238 254
226 238 254
226 238 254
226 238 254
226 238 254
226 238 254
226 238 254
226 238 254
226 238 254
226 238 254
226 238 254
226 238 254
226 238 254
226 238 254
226 238 254
226 238 254
226 238 254
226 238 254
226 238 254
226 238 254
226 238 254
226 238 254
226 238 254
226 238 254
226 238 254
227 238 254
227 238 254
227 238 254
227 238 254
227 238 254
227 238 254
227 238 254
227 238 254
227 238 254
227 238 254
227 238 254
227 238 254
227 238 254
227 238 254
227 238 254
227 238 254
227 238 254
227 238 254
227 238 254
227 238 254
227 238 254
227 238 254
227 238 254
227 238 254
227 238 254
227 238 254
227 238 254
227 238 254
227 238 254
227 238 254
227 238 254
227 238 254
227 238 254
227 238 254
227 238 254
227 238 254
227 238 254
227 238 254
227 238 254
227 238 254
227 238 254
227 238 254
227 238 254
227 238 254
227 238 254
227 238 254
227 238 254
227 238 254
227 238 254
227 238 254
183 195 204
129 145 145
137 153 156
142 159 163
123 140 138
84 105 77
64 88 52
98 118 108
142 158 161
114 132 126
74 97 64
130 145 146
133 148 149
143 158 163
131 147 148
90 109 90
64 88 52
62 84 49
62 85 50
107 124 115
139 153 158
126 142 144
59 80 46
67 88 58
109 125 120
135 148 154
125 139 139
128 143 147
130 145 149
99 117 107
58 80 46
60 82 47
61 83 48
57 77 45
99 116 109
110 125 124
128 142 145
127 141 145
114 130 125
111 127 122
82 100 82
131 144 150
116 129 130
115 129 128
96 111 101
96 113 103
56 77 45
53 73 41
58 80 46
55 76 44
54 74 42
102 117 113
120 134 133
110 125 120
124 137 140
121 135 136
104 118 118
79 98 78
52 72 41
54 75 43
50 70 40
52 72 42
59 75 59
101 116 111
106 119 118
121 135 138
112 124 126
122 136 140
65 81 64
109 124 122
119 133 136
119 132 136
110 124 123
96 109 106
69 87 67
52 72 41
47 65 37
50 69 40
51 70 40
54 71 48
98 112 109
106 118 118
108 121 120
91 105 100
98 111 110
91 104 101
49 68 39
50 68 40
49 68 39
42 60 33
45 63 35
105 117 118
100 113 110
92 105 102
109 122 123
98 110 108
96 109 104
47 66 37
47 66 37
46 64 36
50 69 40
51 69 41
90 102 100
88 100 97
107 121 119
95 109 102
109 121 123
85 100 94
47 65 37
51 70 40
41 58 31
44 62 35
41 55 36
92 105 99
88 101 97
96 109 107
88 103 94
73 86 77
55 70 53
42 59 33
39 55 30
46 63 37
46 63 36
86 99 92
97 111 109
79 91 86
89 102 97
83 96 89
75 86 84
65 79 67
76 89 80
68 80 74
72 83 78
80 92 88
73 89 75
59 74 61
62 76 62
68 83 70
60 75 59
84 96 92
79 91 86
89 101 98
86 100 93
83 96 90
64 78 65
67 80 69
59 75 58
42 57 37
78 90 84
76 90 81
78 91 84
67 82 65
74 88 78
52 67 50
61 75 63
79 93 85
89 100 99
89 101 97
74 87 78
95 108 104
39 55 30
47 65 37
41 58 32
45 62 34
45 62 36
80 92 86
86 99 94
82 96 88
91 104 100
98 111 107
86 99 97
46 64 36
44 61 34
45 62 35
48 65 37
41 57 31
111 125 123
94 108 104
108 122 123
78 90 85
87 99 95
91 104 103
45 62 35
45 62 34
42 59 32
40 57 31
52 69 45
90 103 98
106 120 118
107 120 121
91 103 100
111 122 126
67 82 69
40 57 31
43 60 33
44 61 34
45 63 35
46 65 37
92 104 101
85 99 91
104 117 115
105 119 117
83 96 91
103 116 113
41 57 31
45 64 36
55 76 44
54 74 43
54 75 41
85 100 93
111 124 125
94 107 104
86 101 94
75 89 81
70 87 71
84 98 93
99 110 112
95 108 107
102 115 110
99 113 112
98 111 106
54 71 49
46 65 37
49 68 39
48 67 37
54 73 43
87 103 92
112 125 125
115 130 128
113 127 130
118 132 136
119 133 132
76 91 78
47 65 37
50 67 39
53 73 42
53 73 42
77 93 81
103 118 116
110 124 127
109 123 124
102 117 115
62 84 50
82 100 83
111 125 125
128 142 144
113 128 127
109 122 122
109 124 123
68 87 64
53 72 42
57 78 45
54 74 43
50 69 44
101 116 112
124 138 143
123 137 140
123 137 137
116 130 131
98 113 109
103 121 115
131 145 150
130 145 150
101 117 112
74 94 71
62 86 50
56 77 45
66 89 57
96 113 103
140 154 162
132 147 152
121 137 136
98 115 108
138 154 159
128 145 147
100 119 108
63 86 52
85 107 83
111 127 123
132 148 152
120 135 137
143 158 164
211 222 236
227 238 254
227 238 254
227 238 254
227 238 254
227 238 254
227 238 254
227 238 254
227 238 254
227 238 254
227 238 254
227 238 254
227 238 254
227 238 254
227 238 254
227 238 254
227 238 254
227 238 254
227 238 254
227 238 254
227 238 254
227 238 254
227 238 254
227 238 254
227 238 254
227 238 254
227 238 254
227 238 254
227 238 254
227 238 254
227 238 254
227 238 254
227 238 254
227 238 254
227 238 254
227 238 254
227 238 254
227 238 254
227 238 254
227 238 254
227 238 254
227 238 254
227 238 254
227 238 254
227 238 254
227 238 254
227 238 254
227 238 254
227 238 254
227 238 254
226 238 254
226 238 254
226 238 254
226 238 254
226 238 254
226 238 254
226 238 254
226 238 254
226 238 254
227 238 254
227 238 254
227 238 254
227 238 254
227 238 254
227 238 254
227 238 254
227 238 254
227 238 254
227 238 254
227 238 254
227 238 254
227 238 254
227 238 254
227 238 254
227 238 254
227 238 254
227 238 254
227 238 254
227 238 254
227 238 254
227 238 254
227 238 254
227 238 254
227 238 254
227 238 254
227 238 254
227 238 254
227 238 254
227 238 254
227 238 254
227 238 254
227 238 254
227 238 254
227 238 254
227 238 254
227 238 254
227 238 254
227 238 254
227 238 254
227 238 254
227 238 254
227 238 254
227 238 254
227 238 254
227 238 254
227 238 254
227 238 254
227 238 254
227 238 254
227 238 254
227 238 254
227 238 254
227 238 254
227 238 254
227 238 254
188 200 210
134 151 154
120 140 132
115 135 126
122 138 134
64 88 52
69 92 61
110 129 117
138 153 157
140 156 158
121 137 137
88 107 92
133 149 152
131 146 145
111 128 122
76 98 68
64 87 52
64 87 51
85 104 85
101 120 110
143 158 163
131 146 149
138 152 158
119 135 129
73 91 68
110 126 119
123 137 136
131 146 150
112 128 125
68 87 63
61 83 48
58 79 46
53 74 41
67 86 61
109 125 120
126 142 146
127 141 144
126 141 144
131 145 148
102 118 112
61 81 55
52 73 40
60 82 48
60 82 49
52 72 41
114 129 126
59 81 47
53 74 42
57 78 45
52 71 41
56 75 50
88 103 91
121 136 137
115 129 131
109 124 119
116 130 129
108 123 119
78 93 84
57 78 46
57 78 46
48 68 37
53 74 42
65 84 60
111 125 124
102 118 108
113 127 127
100 115 107
114 127 126
103 117 113
59 75 56
54 75 43
48 68 38
50 70 39
55 75 44
67 84 66
103 117 112
89 103 97
63 82 58
47 65 36
46 64 36
77 94 74
114 127 129
87 101 96
110 122 125
103 116 115
110 123 125
81 99 83
50 70 39
44 62 34
52 71 40
40 58 30
52 71 41
86 100 94
105 119 116
100 114 110
83 96 89
89 102 96
90 101 97
49 68 38
50 69 40
44 61 34
44 62 34
50 70 39
70 86 68
84 97 91
98 112 108
115 130 126
100 114 111
108 122 121
51 69 44
43 60 32
47 66 36
40 57 30
45 62 35
56 76 45
109 122 123
86 98 94
91 103 100
85 99 93
91 104 101
63 77 61
43 60 33
40 58 30
41 58 32
43 60 33
45 64 35
96 108 109
97 111 109
102 115 113
82 95 88
109 122 122
53 70 49
43 60 33
40 57 30
44 61 34
44 61 34
57 72 56
94 106 104
91 104 101
97 111 107
91 103 101
81 94 90
46 64 36
40 56 31
44 62 34
42 59 33
39 56 30
67 82 69
93 104 102
110 124 122
106 119 118
100 112 113
96 108 108
43 60 33
44 61 34
46 63 36
45 63 35
43 60 33
79 94 85
108 121 121
81 95 87
92 105 101
96 108 106
92 104 101
52 71 42
46 64 36
49 67 38
41 58 30
45 62 35
80 93 87
102 114 112
97 110 108
85 97 90
97 110 103
96 107 107
41 58 32
49 68 38
46 65 36
44 62 34
47 65 37
75 90 79
99 111 111
100 112 113
89 102 99
95 109 104
81 93 89
46 61 39
45 63 34
43 61 34
46 64 37
43 59 33
58 74 54
110 123 124
99 111 112
100 112 113
102 115 113
97 110 108
88 102 95
45 63 35
46 64 37
46 64 36
50 69 39
50 68 40
90 105 97
87 101 94
111 124 123
95 109 103
105 119 117
87 98 96
65 80 63
48 68 38
70 86 69
94 108 103
97 110 106
102 115 115
57 76 49
50 69 40
52 71 41
49 69 39
49 68 38
70 84 71
116 129 130
119 133 135
110 122 124
105 118 116
108 120 121
95 111 102
47 66 37
53 72 42
53 74 42
59 80 47
56 76 45
81 95 85
105 119 119
108 121 121
114 128 127
123 135 141
118 131 131
85 102 85
53 73 42
57 78 46
58 79 47
88 104 94
112 126 122
73 88 78
54 75 43
59 80 48
55 75 44
53 73 42
69 86 67
113 127 126
116 131 133
131 144 149
122 137 139
113 128 128
95 110 103
59 80 48
57 77 45
55 76 44
52 72 41
84 101 90
127 142 143
115 129 132
60 83 49
58 81 47
85 101 88
111 126 126
122 137 140
121 137 136
130 145 150
94 113 102
64 88 52
56 77 45
63 85 51
83 101 85
112 127 129
129 146 149
62 85 50
101 120 110
138 153 160
143 159 165
125 141 143
69 91 63
69 93 59
100 118 110
73 97 62
110 127 121
148 164 168
215 227 241
227 238 254
227 238 254
227 238 254
227 238 254
227 238 254
227 238 254
227 238 254
227 238 254
227 238 254
227 238 254
227 238 254
227 238 254
227 238 254
227 238 254
227 238 254
227 238 254
227 238 254
227 238 254
227 238 254
227 238 254
227 238 254
227 238 254
227 238 254
227 238 254
227 238 254
227 238 254
227 238 254
227 238 254
227 238 254
227 238 254
227 238 254
227 238 254
227 238 254
227 238 254
227 238 254
227 238 254
227 238 254
227 238 254
227 238 254
227 238 254
227 238 254
227 238 254
227 238 254
227 238 254
227 238 254
227 238 254
227 238 254
227 238 254
227 238 254
227 238 254
227 238 254
227 238 254
227 238 254
227 238 254
227 238 254
227 238 254
227 238 254
227 238 254
227 238 254
227 238 254
227 238 254
227 238 254
227 238 254
227 238 254
227 238 254
227 238 254
227 238 254
227 238 254
227 238 254
227 238 254
227 238 254
227 238 254
227 238 254
227 238 254
227 238 254
227 238 254
227 238 254
227 238 254
227 238 254
227 238 254
227 238 254
227 238 254
227 238 254
227 238 254
227 238 254
227 238 254
227 238 254
227 238 254
227 238 254
227 238 254
227 238 254
227 238 254
227 238 254
227 238 254
227 238 254
227 238 254
227 238 254
227 238 254
227 238 254
227 238 254
227 238 254
227 238 254
227 238 254
227 238 254
227 238 254
227 238 254
227 238 254
227 238 254
210 223 236
154 170 177
111 128 121
72 97 61
105 124 114
72 97 59
79 101 75
127 145 145
141 157 159
143 159 164
100 117 110
72 97 58
68 93 55
73 97 66
103 122 111
64 88 52
65 89 53
63 87 51
110 128 121
127 145 143
128 143 145
140 156 158
127 142 143
108 124 114
63 87 51
58 79 46
63 86 51
67 91 54
115 132 126
62 84 49
56 78 44
56 79 45
53 74 41
88 107 88
108 124 120
139 154 155
123 138 138
123 138 140
122 139 134
106 122 116
56 78 44
58 79 46
59 81 47
59 81 46
55 76 44
98 113 108
130 144 148
112 126 127
111 125 123
106 122 115
120 135 134
103 117 110
109 124 121
125 139 141
111 125 126
118 133 133
119 133 134
90 106 95
55 76 44
57 77 45
57 79 45
51 70 40
50 68 39
94 109 103
100 113 110
127 142 146
107 121 116
99 114 109
115 130 128
86 102 94
56 75 44
53 73 41
57 78 45
52 72 42
54 73 42
88 103 92
113 126 125
116 130 130
126 140 143
120 134 139
103 117 114
91 106 97
51 70 39
48 66 38
52 70 44
74 91 73
106 120 114
76 88 81
49 68 39
54 73 43
49 68 39
47 66 37
51 71 40
90 106 94
111 125 125
111 125 123
102 115 116
103 117 116
105 119 117
55 72 50
47 66 37
57 77 45
53 73 42
53 73 42
41 58 32
98 112 108
94 107 105
96 109 108
98 111 109
106 120 119
102 115 115
51 70 40
47 64 36
50 69 39
46 64 36
51 70 40
62 78 60
97 110 106
111 123 125
107 119 119
99 114 109
93 107 104
72 89 74
46 64 36
42 60 32
44 62 35
46 64 36
39 56 31
97 110 107
89 103 98
106 119 121
87 98 96
101 114 110
87 99 94
39 55 29
48 67 38
41 58 32
42 58 32
49 68 38
82 97 88
88 103 97
115 127 130
96 109 106
93 106 102
91 104 103
42 59 32
49 68 38
49 67 39
50 69 39
40 57 31
53 71 46
104 118 117
87 100 92
97 109 106
100 113 113
97 109 108
51 67 47
43 59 33
47 65 36
45 62 35
46 63 36
51 69 40
86 98 96
102 114 114
98 112 108
100 112 112
110 121 123
85 98 93
44 62 35
50 69 39
42 58 32
46 64 36
49 68 39
87 100 95
103 115 114
104 117 117
94 106 104
106 119 119
113 125 127
49 66 42
44 62 34
50 68 38
46 64 36
47 65 36
59 75 53
104 116 116
90 103 100
92 105 102
101 113 113
105 117 118
87 100 93
50 68 39
45 62 34
42 60 32
46 64 35
48 67 37
72 86 76
96 110 106
104 116 115
92 105 101
117 130 132
98 111 109
84 96 92
46 64 36
54 74 43
47 66 36
55 75 44
69 87 66
106 120 118
75 90 79
49 67 38
54 73 42
52 71 41
57 78 46
90 105 98
107 121 117
101 113 111
96 109 105
101 114 109
110 124 123
76 93 77
49 67 38
47 66 36
52 72 42
48 67 38
52 72 41
79 94 84
109 123 125
109 122 123
111 124 125
110 124 125
108 123 118
85 102 89
56 77 45
54 74 42
50 70 39
54 75 43
54 74 43
101 117 112
112 127 129
122 136 137
114 127 129
108 122 120
80 97 85
95 110 104
111 126 126
116 130 129
118 131 135
108 124 121
109 123 122
95 109 105
58 79 46
55 77 45
55 75 44
57 78 47
67 90 57
105 119 115
109 125 121
108 124 121
131 146 149
115 129 129
102 117 114
59 80 48
53 75 43
54 75 42
74 94 72
126 141 142
83 101 86
59 81 47
63 87 51
57 78 45
66 87 58
106 123 118
121 135 138
132 147 154
125 140 143
102 118 114
68 87 63
61 84 49
61 84 49
77 97 76
96 115 103
59 82 48
62 86 51
81 101 81
122 138 138
134 148 153
128 144 146
84 104 86
93 112 97
111 130 122
68 93 56
120 139 138
170 185 195
226 238 254
227 238 254
227 238 254
227 238 254
227 238 254
227 238 254
227 238 254
227 238 254
227 238 254
227 238 254
227 238 254
227 238 254
227 238 254
227 238 254
227 238 254
227 238 254
227 238 254
227 238 254
227 238 254
227 238 254
227 238 254
227 238 254
227 238 254
227 238 254
227 238 254
227 238 254
227 238 254
227 238 254
227 238 254
227 238 254
227 238 254
227 238 254
227 238 254
227 238 254
227 238 254
227 238 254
227 238 254
227 238 254
227 238 254
227 238 254
227 238 254
227 238 254
227 238 254
227 238 254
227 238 254
227 238 254
227 238 254
227 238 254
227 238 254
227 238 254
227 238 254
227 238 254
227 238 254
227 238 254
227 238 254
227 238 254
227 238 254
227 238 254
227 238 254
227 238 254
227 238 254
227 238 254
227 238 254
227 238 254
227 238 254
227 238 254
227 238 254
227 238 254
227 238 254
227 238 254
227 238 254
227 238 254
227 238 254
227 238 254
227 238 254
227 238 254
227 238 254
227 238 254
227 238 254
227 238 254
227 238 254
227 238 254
227 238 254
227 238 254
227 238 254
227 238 254
227 238 254
227 238 254
227 238 254
227 238 254
227 238 254
227 238 254
227 238 254
227 238 254
227 238 254
227 238 254
227 238 254
227 238 254
227 238 254
227 238 254
227 238 254
227 238 254
227 238 254
217 229 244
156 173 179
106 125 113
69 93 58
123 140 136
161 176 187
107 125 115
130 148 143
141 157 162
138 155 157
79 99 77
65 90 54
67 91 54
85 106 86
142 157 163
144 159 165
91 112 91
72 95 62
119 136 130
143 159 164
133 150 151
133 148 153
132 148 149
89 108 93
62 85 50
62 85 50
68 92 55
65 88 55
113 130 123
142 157 164
123 139 136
134 149 151
110 126 121
78 97 76
117 133 130
125 140 142
120 136 135
128 142 145
124 138 138
103 118 112
60 81 48
61 84 49
57 79 45
55 77 44
57 78 46
103 118 113
120 135 133
121 137 136
126 140 142
134 149 152
117 133 131
91 107 96
56 76 44
59 81 47
55 76 43
59 81 47
94 112 98
85 101 90
56 76 44
59 81 48
51 71 40
51 71 39
50 71 39
81 97 83
120 133 132
122 136 136
107 122 118
119 134 134
130 142 146
104 120 114
57 78 46
56 78 44
56 76 44
52 73 41
53 73 42
61 77 59
118 132 131
102 117 115
107 122 120
105 119 114
109 125 123
109 123 120
63 79 62
49 68 39
55 74 43
52 72 40
55 75 44
50 70 39
88 103 94
107 119 122
120 134 135
104 118 114
119 134 135
106 119 119
69 87 67
81 95 89
90 105 96
84 98 92
99 113 108
123 137 139
88 102 96
57 77 45
45 64 34
51 70 40
52 71 40
54 75 43
63 80 61
115 128 128
104 118 114
107 120 121
107 120 118
104 119 112
105 118 118
54 74 43
48 67 39
48 66 38
47 65 37
52 70 40
78 93 82
96 109 106
106 120 117
117 131 130
110 124 123
97 111 104
71 86 75
52 71 41
44 63 34
48 67 37
44 62 34
56 75 44
91 106 99
107 120 120
99 113 110
80 94 87
88 101 99
94 107 102
57 73 54
43 62 34
47 67 37
52 71 41
48 66 38
43 60 33
87 100 95
106 120 117
127 140 146
95 109 107
109 123 123
98 111 109
47 64 37
47 65 35
53 73 42
47 65 36
46 65 36
43 60 33
94 108 103
99 112 110
97 110 108
99 111 110
110 123 124
98 111 108
46 64 36
45 63 35
41 58 31
52 71 41
45 63 34
78 91 84
102 114 114
97 110 107
101 116 113
94 106 104
93 105 100
71 87 74
48 66 38
47 64 37
44 62 34
51 71 42
47 65 37
93 105 102
97 110 108
104 117 113
99 111 110
102 115 112
99 114 108
54 70 49
48 67 38
48 67 37
42 60 33
46 64 34
50 69 40
96 110 104
117 131 133
86 100 92
98 112 109
118 131 133
109 122 123
56 73 49
53 72 42
50 70 39
51 70 41
51 70 40
51 71 40
93 107 101
108 121 120
99 111 111
83 99 89
72 88 72
55 74 46
82 96 89
110 123 126
97 110 107
99 114 111
86 99 94
108 120 123
75 89 75
41 59 31
55 75 43
47 65 36
51 69 40
51 71 41
84 100 92
121 135 136
114 127 130
120 134 135
106 121 120
113 127 125
93 107 100
52 73 41
56 76 45
53 73 42
54 74 43
51 71 40
56 75 47
113 126 127
114 128 129
128 142 148
113 126 129
121 134 137
112 125 124
77 94 78
55 75 45
49 68 38
53 73 41
52 72 41
75 91 79
81 95 87
48 68 38
58 80 46
56 76 45
49 68 38
57 78 46
99 114 107
123 137 140
110 126 124
120 135 134
124 139 140
119 134 136
87 103 91
51 72 40
59 80 47
65 89 53
60 81 49
62 84 53
101 118 112
131 146 151
126 140 142
116 130 133
127 142 147
106 119 116
121 136 134
124 138 139
134 149 155
129 144 150
129 143 146
108 126 121
60 81 47
59 82 49
62 84 50
63 85 54
105 119 115
131 146 151
136 151 157
131 146 149
121 137 141
91 108 95
135 150 154
130 145 148
125 140 142
95 114 101
60 82 48
59 82 48
73 93 70
132 149 152
125 142 145
122 138 139
116 134 133
146 163 171
121 139 139
63 85 56
112 129 126
180 194 202
227 238 254
227 238 254
227 238 254
227 238 254
227 238 254
227 238 254
227 238 254
227 238 254
227 238 254
227 238 254
227 238 254
227 238 254
227 238 254
227 238 254
227 238 254
227 238 254
227 238 254
227 238 254
227 238 254
227 238 254
227 238 254
227 238 254
227 238 254
227 238 254
227 238 254
227 238 254
227 238 254
227 238 254
227 238 254
227 238 254
227 238 254
227 238 254
227 238 254
227 238 254
227 238 254
227 238 254
227 238 254
227 238 254
227 238 254
227 238 254
227 238 254
227 238 254
227 238 254
227 238 254
227 238 254
227 238 254
227 238 254
227 238 254
227 238 254
227 238 254
227 238 254
227 238 254
227 238 254
227 238 254
227 238 254
227 238 254
227 238 254
227 238 254
227 238 254
227 238 254
227 238 254
227 238 254
227 238 254
227 238 254
227 238 254
227 238 254
227 238 254
227 238 254
227 238 254
227 238 254
227 238 254
227 238 254
227 238 254
227 238 254
227 238 254
227 238 254
227 238 254
227 238 254
227 238 254
227 238 254
227 238 254
227 238 254
227 238 254
227 238 254
227 238 254
227 238 254
227 238 254
227 238 254
227 238 254
227 238 254
227 238 254
227 238 254
227 238 254
227 238 254
227 238 254
227 238 254
227 238 254
224 236 252
157 172 173
96 117 100
80 103 73
115 133 127
156 173 182
125 142 139
78 102 69
138 154 157
128 145 143
84 104 86
71 95 57
69 93 56
95 116 95
139 155 157
142 157 161
140 156 163
130 147 146
99 118 103
134 149 152
137 151 156
134 148 148
122 139 138
71 92 65
63 86 50
64 88 50
64 87 51
72 93 65
119 135 131
132 147 150
137 152 156
134 148 153
131 147 147
103 120 111
63 87 51
65 89 53
81 100 82
125 139 143
124 140 139
91 110 93
63 86 51
60 82 47
64 87 51
59 81 47
68 91 57
100 117 107
128 144 143
124 140 139
122 136 137
120 136 135
124 139 140
97 115 102
55 76 44
55 76 43
60 82 48
60 81 47
55 75 43
92 109 99
121 135 135
126 140 144
114 128 126
120 135 137
96 111 107
73 91 69
107 123 118
117 133 131
118 132 132
108 123 118
122 137 135
122 136 138
84 102 86
53 73 41
60 82 48
56 77 44
49 69 37
51 70 40
74 92 74
112 126 124
107 121 122
109 124 121
118 132 132
105 118 116
117 131 130
55 73 49
57 78 46
52 72 41
52 71 41
54 75 43
51 70 40
105 120 114
112 127 126
119 132 132
116 132 131
112 127 126
101 116 110
88 103 95
54 74 43
49 69 39
53 74 42
52 71 42
54 75 42
49 68 39
96 109 104
106 119 119
111 124 124
102 116 111
83 96 90
82 97 89
90 103 98
94 108 104
104 118 113
113 126 124
100 113 110
104 118 117
75 92 73
52 72 42
44 61 35
49 67 38
53 73 42
54 74 43
78 94 81
98 112 106
85 99 93
121 135 136
104 118 114
94 107 100
95 110 101
54 74 42
50 69 39
48 67 38
52 71 42
45 63 35
64 79 63
108 121 122
109 123 122
99 111 107
92 105 100
90 105 98
102 115 115
49 68 39
49 67 38
47 66 38
52 72 41
44 61 33
53 73 42
94 108 102
107 119 120
100 114 114
98 112 108
89 103 99
98 111 111
43 60 33
48 66 38
44 62 33
47 66 36
56 76 44
46 64 36
100 113 110
98 111 106
99 111 109
105 118 118
114 126 129
105 120 119
41 58 32
50 69 40
47 66 36
45 64 35
49 67 39
42 59 32
101 113 112
94 108 102
109 122 123
105 119 117
93 105 103
102 116 113
45 62 35
47 65 36
47 65 37
47 65 37
55 75 44
45 64 36
100 113 110
94 108 103
104 118 116
87 101 93
95 110 105
97 110 108
70 84 75
48 66 38
50 68 39
43 61 33
54 75 43
50 69 40
76 90 79
95 109 106
116 128 130
116 129 129
96 109 105
91 105 99
74 89 73
94 107 102
101 115 111
122 135 136
105 118 118
115 129 130
103 116 116
53 71 45
50 69 39
50 69 39
47 66 37
45 63 35
45 63 34
91 105 100
118 131 131
112 126 124
103 118 113
110 123 123
111 124 123
87 102 94
50 69 39
49 67 37
53 73 41
48 65 37
58 79 47
72 88 71
102 114 115
114 128 130
107 121 121
110 124 124
118 133 133
121 134 135
74 89 73
54 74 43
54 74 43
50 70 39
49 69 40
48 67 37
81 96 86
118 132 131
109 122 121
135 150 150
126 139 144
121 135 135
87 103 93
112 126 126
115 129 132
116 131 130
115 128 128
114 126 126
112 125 125
73 90 74
63 85 51
60 81 48
58 80 47
59 81 47
54 74 42
102 117 111
123 138 141
112 126 124
119 133 133
122 138 139
130 143 146
107 123 120
57 78 47
60 82 48
50 70 41
58 80 47
60 82 48
97 113 108
121 135 139
58 80 47
57 79 46
57 79 46
66 88 58
102 119 112
131 146 151
121 136 136
137 152 157
132 146 152
112 126 125
57 79 46
61 84 49
58 80 47
60 83 48
88 105 92
123 139 140
128 144 145
81 100 82
61 84 49
114 131 127
133 149 155
134 149 156
141 156 161
107 124 118
61 85 49
66 90 54
72 95 64
122 139 137
113 130 128
67 89 60
120 137 136
131 147 150
113 131 126
76 99 69
87 109 88
194 207 217
227 238 254
227 238 254
227 238 254
227 238 254
227 238 254
227 238 254
227 238 254
227 238 254
227 238 254
227 238 254
227 238 254
227 238 254
227 238 254
227 238 254
227 238 254
227 238 254
227 238 254
227 238 254
227 238 254
227 238 254
227 238 254
227 238 254
227 238 254
227 238 254
227 238 254
227 238 254
227 238 254
227 238 254
227 238 254
227 238 254
227 238 254
227 238 254
227 238 254
227 238 254
227 238 254
227 238 254
227 238 254
227 238 254
227 238 254
227 238 254
227 238 254
227 238 254
227 238 254
227 238 254
227 238 254
227 238 254
227 238 254
227 238 254
227 238 254
227 238 254
227 238 254
227 238 254
227 238 254
227 238 254
227 238 254
227 238 254
227 238 254
227 238 254
227 238 254
227 238 254
227 238 254
227 238 254
227 238 254
227 238 254
227 238 254
227 238 254
227 238 254
227 238 254
227 238 254
227 238 254
227 238 254
227 238 254
227 238 254
227 238 254
227 238 254
227 238 254
227 238 254
227 238 254
227 238 254
227 238 254
227 238 254
227 238 254
227 238 254
227 238 254
227 238 254
227 238 254
227 238 254
227 238 254
227 238 254
227 238 254
227 238 254
227 238 254
183 196 203
110 130 117
105 126 112
126 143 144
161 178 187
125 144 139
70 93 61
72 98 58
92 112 92
77 98 73
67 91 54
73 98 59
113 130 123
134 150 149
142 158 161
133 149 149
137 154 155
83 103 85
73 99 59
69 93 56
65 88 52
116 131 127
73 95 68
60 83 47
66 90 53
62 86 50
76 96 74
128 143 146
136 151 155
137 152 155
136 151 152
133 148 148
111 128 119
65 89 52
68 93 55
60 82 48
62 86 50
59 81 47
106 123 118
126 142 145
75 97 72
59 82 48
62 85 50
57 79 45
114 130 126
134 150 153
130 144 146
125 139 141
135 150 152
127 142 141
101 117 109
59 81 47
57 79 45
64 87 52
62 85 50
58 79 46
72 90 74
122 137 136
126 139 139
120 135 135
128 142 144
118 133 133
117 131 132
101 118 108
60 82 47
56 77 44
56 78 44
64 85 54
97 113 105
110 125 122
58 78 50
54 75 42
56 77 44
52 71 41
55 75 44
49 69 38
113 129 123
113 127 128
118 133 133
126 139 141
117 131 133
114 129 127
84 99 90
52 73 41
61 83 49
51 70 40
50 70 40
53 74 42
54 74 43
97 114 106
110 123 122
117 130 132
108 123 120
108 123 119
123 137 140
104 117 116
56 77 44
49 67 37
61 83 50
56 76 44
56 77 45
52 72 41
105 119 117
110 125 122
103 117 113
111 125 125
113 126 126
113 126 125
91 106 98
49 69 38
52 71 41
47 67 36
54 74 42
43 61 34
51 70 39
110 126 123
118 130 132
119 133 136
101 114 113
88 102 97
98 113 106
86 101 92
75 92 76
92 106 100
107 122 118
103 117 116
110 124 121
101 115 113
48 67 38
51 71 40
55 75 43
51 70 40
50 69 39
48 67 38
111 124 123
101 115 114
100 114 110
101 117 111
111 124 124
109 123 122
68 86 66
50 69 39
49 68 38
50 69 40
51 71 40
46 64 36
65 81 63
106 118 119
106 117 116
112 125 124
96 108 106
111 124 126
108 121 118
46 64 37
45 63 36
45 64 34
47 66 36
50 70 39
47 66 36
111 125 122
111 124 125
107 121 121
109 122 121
113 126 127
98 112 109
57 74 53
48 68 37
46 65 36
49 68 38
54 73 43
46 64 36
76 92 76
111 126 126
92 105 102
94 108 104
87 99 96
103 116 115
103 116 115
47 65 35
48 67 38
41 59 31
49 68 39
48 67 37
51 70 40
103 116 113
90 103 96
92 106 101
93 106 102
75 90 79
81 97 85
78 93 81
104 117 115
114 129 127
98 110 108
98 113 106
97 110 106
99 112 109
48 67 38
48 66 38
47 66 37
46 64 35
54 74 42
50 69 39
104 118 113
114 128 126
101 114 113
106 119 117
99 112 110
116 129 129
91 106 100
43 62 33
44 62 34
50 69 38
49 68 38
49 69 38
62 82 52
101 115 111
119 133 136
117 130 131
108 122 123
111 126 126
107 123 119
92 106 101
44 62 35
51 70 40
51 71 40
53 74 43
51 71 40
62 80 58
122 136 139
112 126 126
113 128 127
98 113 108
120 133 136
110 125 123
88 107 94
50 69 39
58 79 46
50 70 38
53 73 42
45 64 35
78 92 82
80 97 80
51 72 40
51 71 40
55 75 44
51 70 40
57 78 45
94 110 102
111 126 123
116 129 133
135 149 157
112 127 125
126 140 142
113 128 127
70 89 65
56 78 44
55 75 43
58 79 48
55 76 44
60 80 50
105 121 116
134 149 150
137 152 158
129 144 150
119 133 138
119 133 136
93 111 100
55 76 44
58 79 46
106 122 114
123 138 139
118 133 134
89 106 94
56 78 45
58 79 46
57 80 46
58 80 46
69 91 61
117 133 132
130 146 147
130 144 148
140 154 160
131 145 151
104 120 115
65 86 58
61 83 50
63 87 51
66 89 54
102 121 112
63 84 55
69 93 56
59 81 48
61 83 49
101 118 114
142 158 164
137 154 157
148 164 174
121 138 138
70 93 60
70 95 58
82 104 80
94 113 102
62 85 51
72 97 59
104 122 115
139 155 160
110 128 123
114 132 126
143 158 159
219 231 246
227 238 254
227 238 254
227 238 254
227 238 254
227 238 254
227 238 254
227 238 254
227 238 254
227 238 254
227 238 254
227 238 254
227 238 254
227 238 254
227 238 254
227 238 254
227 238 254
227 238 254
227 238 254
227 238 254
227 238 254
227 238 254
227 238 254
227 238 254
227 238 254
227 238 254
227 238 254
227 238 254
227 238 254
227 238 254
227 238 254
227 238 254
227 238 254
227 238 254
227 238 254
227 238 254
227 238 254
227 238 254
227 238 254
227 238 254
227 238 254
227 238 254
227 238 254
227 238 254
227 238 254
227 238 254
227 238 254
227 238 254
227 238 254
227 238 254
227 238 254
227 238 254
227 238 254
227 238 254
227 238 254
227 238 254
227 238 254
227 238 254
227 238 254
227 238 254
227 238 254
227 238 254
227 238 254
227 238 254
227 238 254
227 238 254
227 238 254
227 238 254
227 238 254
227 238 254
227 238 254
227 238 254
227 238 254
227 238 254
227 238 254
227 238 254
227 238 254
227 238 254
227 238 254
227 238 254
227 238 254
227 238 254
227 238 254
227 238 254
227 238 254
227 238 254
227 238 254
208 220 233
116 135 124
147 163 167
138 154 157
152 168 175
122 141 139
81 106 73
72 97 58
104 123 104
150 166 174
137 154 156
70 95 57
113 131 124
143 159 161
143 160 164
148 163 170
136 152 154
83 105 78
64 88 52
70 95 57
66 90 54
108 127 117
133 148 151
138 154 153
69 93 58
62 85 49
83 104 83
127 142 143
130 146 147
131 147 148
137 152 158
140 154 159
98 115 105
61 84 49
65 88 52
64 87 51
61 85 49
60 83 48
105 121 115
135 149 151
137 152 157
125 141 142
129 144 145
128 143 141
91 108 95
140 155 159
126 141 143
130 145 148
127 143 143
131 147 151
131 147 148
65 87 58
62 85 50
64 86 51
53 74 42
62 85 49
61 83 48
96 112 102
118 133 130
112 128 128
131 145 148
110 124 123
111 127 125
113 128 126
57 77 48
51 71 40
56 77 44
60 82 47
58 79 45
57 78 45
103 120 113
116 131 128
126 140 142
119 132 134
119 134 133
111 127 121
71 88 69
113 128 128
113 126 127
114 127 127
124 138 140
113 126 126
111 126 124
99 114 107
54 75 43
57 78 45
56 77 45
56 76 44
55 75 43
54 74 42
99 114 107
128 143 146
111 126 123
119 132 133
112 126 125
114 128 129
115 129 128
64 82 58
52 72 41
54 75 43
56 77 44
55 75 45
55 75 43
76 93 79
120 135 133
111 124 123
105 120 117
111 126 122
114 129 127
122 136 137
72 90 71
56 76 44
51 71 40
47 65 37
50 69 39
53 73 41
63 82 56
115 129 128
116 129 129
119 133 133
105 117 117
105 118 114
131 145 148
77 92 78
51 70 41
44 63 35
50 69 39
54 75 44
49 68 39
47 66 36
94 109 103
96 110 107
118 132 135
120 134 133
114 127 129
109 123 122
84 100 88
52 71 40
55 75 44
44 63 34
53 72 42
56 76 48
54 74 47
106 119 119
108 121 119
88 102 93
110 124 122
87 102 92
89 105 94
75 91 80
79 94 82
82 99 85
89 104 95
98 111 107
86 100 94
93 109 99
74 92 70
87 101 95
76 92 77
93 106 103
69 85 69
97 111 105
66 80 66
86 101 93
79 94 84
73 89 75
73 86 75
74 89 79
76 92 74
95 109 102
116 132 129
88 102 95
96 110 105
107 121 119
101 114 112
60 79 50
45 63 35
53 73 42
53 73 42
51 71 41
51 70 39
75 90 78
110 124 124
109 122 122
103 117 115
120 134 138
114 128 130
117 131 134
51 70 41
55 75 44
55 76 44
57 79 46
47 65 37
53 73 42
93 108 100
121 134 137
98 112 111
97 111 105
112 128 126
110 124 125
112 126 127
58 77 52
50 70 39
56 77 44
54 74 43
57 77 45
56 78 45
65 84 59
114 127 128
116 129 133
118 132 136
115 128 131
106 120 116
111 125 124
75 93 76
56 76 44
53 73 41
55 76 44
53 72 42
58 79 46
60 77 56
112 126 125
105 119 116
122 136 138
111 127 126
118 132 133
104 118 118
98 112 107
52 72 40
53 73 42
56 76 45
57 78 45
46 65 37
55 76 44
114 128 127
116 131 131
127 141 142
113 128 126
106 119 117
102 116 112
71 88 70
114 127 128
131 146 150
124 138 138
119 133 135
119 134 132
108 122 121
90 106 97
54 75 42
53 72 42
59 81 47
50 70 39
57 78 46
68 89 62
107 122 119
118 134 133
129 144 148
125 139 142
111 124 124
121 135 139
113 127 127
55 75 44
63 85 51
58 79 46
61 83 49
57 79 46
71 89 67
115 130 130
120 135 134
135 150 156
130 145 148
109 124 121
54 74 43
116 130 131
138 154 158
123 138 138
122 136 138
131 146 147
125 140 142
97 114 103
56 78 44
60 82 49
59 82 48
63 87 51
67 89 59
101 117 109
123 138 140
129 144 145
136 152 157
127 143 144
126 142 141
68 88 62
143 158 163
138 154 156
129 145 148
125 141 147
79 100 77
57 80 47
66 90 54
72 97 58
103 120 111
142 157 162
129 145 148
132 148 152
120 137 136
92 111 98
141 156 163
140 157 162
101 120 108
72 97 59
69 94 57
110 128 122
152 169 180
119 138 134
130 148 151
162 176 179
227 238 254
227 238 254
227 238 254
227 238 254
227 238 254
227 238 254
227 238 254
227 238 254
227 238 254
227 238 254
227 238 254
227 238 254
227 238 254
227 238 254
227 238 254
227 238 254
227 238 254
227 238 254
227 238 254
227 238 254
227 238 254
227 238 254
227 238 254
227 238 254
227 238 254
227 238 254
227 238 254
227 238 254
227 238 254
227 238 254
227 238 254
227 238 254
227 238 254
227 238 254
227 238 254
227 238 254
227 238 254
227 238 254
227 238 254
227 238 254
227 238 254
227 238 254
227 238 254
227 238 254
227 238 254
227 238 254
227 238 254
227 238 254
227 238 254
227 238 254
227 238 254
227 238 254
227 238 254
227 238 254
227 238 254
227 238 254
227 238 254
227 238 254
227 238 254
227 238 254
227 238 254
227 238 254
227 238 254
227 238 254
227 238 254
227 238 254
227 238 254
227 238 254
227 238 254
227 238 254
227 238 254
227 238 254
227 238 254
227 238 254
227 238 254
227 238 254
227 238 254
227 238 254
227 238 254
227 238 254
227 238 254
226 238 253
141 157 155
140 157 162
134 151 149
103 124 111
137 152 154
84 107 81
68 93 56
80 101 79
145 161 166
151 167 174
155 170 179
116 133 127
151 168 176
150 165 173
143 159 163
150 166 172
74 97 67
75 101 62
66 90 54
62 85 50
97 116 103
144 160 169
151 165 170
140 155 161
141 158 162
128 145 145
95 115 102
142 158 162
135 150 155
154 170 180
146 160 167
116 133 131
65 88 55
64 87 51
71 96 58
67 92 55
66 90 54
110 128 120
128 143 144
126 141 143
129 144 148
130 146 147
137 152 156
120 137 133
62 84 53
56 78 44
62 85 49
66 90 54
83 103 83
127 143 140
75 94 76
59 81 47
62 84 49
56 78 44
60 81 48
58 79 46
91 110 95
131 145 151
124 139 140
122 136 138
123 137 138
119 135 133
136 152 155
85 101 87
59 81 47
55 76 43
64 87 52
59 81 46
64 87 51
59 80 46
128 144 145
134 149 154
125 138 142
117 131 131
112 126 122
141 155 161
110 125 121
59 81 50
59 80 46
53 74 42
60 81 48
55 75 42
81 99 81
115 130 127
56 77 44
61 84 49
50 70 39
52 72 41
54 74 43
55 76 43
83 99 86
117 132 129
121 135 135
124 138 141
123 136 136
115 129 127
119 132 133
77 94 80
55 75 44
57 78 45
55 75 43
56 77 45
55 76 43
54 75 43
99 113 106
110 126 123
109 124 117
113 128 126
106 120 117
112 125 124
109 123 121
57 78 45
52 71 41
56 76 44
55 75 43
57 77 45
49 69 38
63 82 62
112 127 124
101 113 112
111 126 126
123 137 140
115 129 128
110 122 120
74 90 76
56 77 44
53 73 40
56 77 44
48 67 37
49 68 38
49 69 38
105 120 117
108 122 118
113 126 125
111 126 125
114 127 128
102 116 113
100 115 107
49 69 38
50 69 40
51 70 39
56 77 45
48 67 36
47 66 36
93 108 101
112 126 123
113 127 124
108 122 117
100 114 110
123 137 138
113 126 125
51 70 40
50 70 38
51 70 41
55 76 43
47 66 37
54 75 43
70 87 68
112 125 127
119 133 135
113 127 127
120 132 135
85 99 90
104 119 115
58 78 50
51 70 41
48 66 38
54 74 42
52 72 41
52 72 41
53 73 43
99 112 110
100 113 111
111 126 122
118 132 134
107 119 121
104 120 116
84 98 88
49 68 38
40 58 31
51 70 41
51 70 40
56 76 44
56 75 44
115 129 127
109 123 120
118 132 131
105 118 114
116 129 131
103 118 113
98 111 109
51 71 40
47 65 37
55 75 44
52 71 41
50 69 39
47 65 37
80 96 83
111 126 125
117 131 132
122 136 138
112 127 123
101 115 110
118 132 133
70 86 69
53 73 42
52 72 41
45 64 35
48 66 37
48 67 38
52 71 41
110 124 123
114 129 129
117 130 131
111 127 123
114 128 130
107 121 120
99 113 110
51 70 40
47 65 36
56 76 44
50 70 39
59 81 48
56 76 44
71 87 72
115 129 129
110 126 123
94 109 105
102 117 112
111 125 124
104 119 114
89 105 96
55 76 44
56 77 44
53 75 42
53 74 42
62 80 61
92 107 98
87 103 92
54 75 43
57 78 46
54 75 43
57 78 45
60 82 48
66 84 63
114 128 128
131 146 151
117 130 130
119 134 135
118 133 134
137 152 159
115 130 128
56 76 48
58 79 46
54 73 42
59 81 47
57 79 46
57 77 46
94 111 98
119 133 133
127 142 145
122 136 134
122 135 138
117 131 133
120 134 133
80 98 78
58 80 46
62 85 49
59 81 47
53 74 41
60 82 48
106 122 117
62 84 53
62 85 51
60 82 47
67 91 54
61 84 50
73 95 66
103 119 113
117 131 134
138 153 162
120 135 134
129 143 147
133 148 152
91 110 96
58 80 47
63 86 51
58 81 47
56 79 44
74 95 69
114 130 129
129 144 149
134 151 154
137 153 159
63 86 50
93 112 98
140 154 163
134 149 156
139 154 156
149 165 171
135 151 156
73 94 68
59 82 48
68 92 55
64 88 53
112 131 125
136 153 159
139 156 162
85 106 87
110 128 121
134 150 155
143 160 167
141 157 165
111 131 124
65 89 54
75 100 69
124 140 141
75 99 68
118 137 129
131 149 147
207 220 232
227 238 254
227 238 254
227 238 254
227 238 254
227 238 254
227 238 254
227 238 254
227 238 254
227 238 254
227 238 254
227 238 254
227 238 254
227 238 254
227 238 254
227 238 254
227 238 254
227 238 254
227 238 254
227 238 254
227 238 254
227 238 254
227 238 254
227 238 254
227 238 254
227 238 254
227 238 254
227 238 254
227 238 254
227 238 254
227 238 254
227 238 254
227 238 254
227 238 254
227 238 254
227 238 254
227 238 254
227 238 254
227 238 254
227 238 254
227 238 254
227 238 254
227 238 254
227 238 254
227 238 254
227 238 254
227 238 254
227 238 254
227 238 254
227 238 254
227 238 254
227 238 254
227 238 254
227 238 254
227 238 254
227 238 254
227 238 254
227 238 254
227 238 254
227 238 254
227 238 254
227 238 254
227 238 254
227 238 254
227 238 254
227 238 254
227 238 254
227 238 254
227 238 254
227 238 254
227 238 254
227 238 254
227 238 254
227 238 254
227 238 254
227 238 254
227 238 254
201 214 226
139 158 158
138 155 155
76 100 68
70 93 63
82 106 75
73 99 60
91 114 88
137 154 154
153 170 178
145 162 167
109 128 117
73 97 61
70 95 57
103 122 108
132 148 151
90 112 90
66 90 53
70 95 57
67 91 54
97 119 101
142 158 164
144 161 163
143 159 163
142 157 161
122 140 135
84 105 85
63 86 51
66 91 53
59 82 47
128 144 143
127 143 145
64 87 51
65 88 52
64 87 51
62 85 49
65 88 52
100 119 107
134 150 153
129 145 144
136 150 151
130 146 147
143 158 164
118 133 132
76 97 72
55 77 44
64 87 51
62 84 49
62 84 50
64 86 50
89 104 92
126 141 139
124 140 137
121 137 136
83 101 85
63 85 50
71 91 68
108 125 118
135 150 153
123 137 136
126 141 140
128 144 147
135 149 152
127 143 144
68 91 60
61 84 49
54 76 42
62 85 50
64 87 52
59 81 47
73 91 72
121 137 136
117 131 131
121 135 134
127 141 143
122 136 139
124 140 140
116 131 131
61 84 49
60 81 48
61 83 48
63 85 50
56 77 43
57 78 46
75 95 72
117 132 132
107 121 118
126 141 144
118 132 130
122 137 138
122 138 139
65 85 56
110 125 121
123 138 139
128 141 143
123 137 139
120 133 134
112 126 125
83 98 89
62 84 49
52 71 42
55 76 44
57 78 46
56 77 44
58 79 45
91 109 97
128 142 146
108 123 119
117 132 131
114 129 126
110 123 123
117 131 131
93 109 101
48 67 37
57 78 46
57 78 46
57 79 45
56 77 45
50 69 39
87 103 91
99 113 107
117 131 129
111 126 124
121 134 136
108 122 121
116 131 129
72 90 71
51 71 40
59 80 47
47 66 36
53 73 42
54 74 43
57 77 45
99 112 107
106 120 116
120 133 134
106 121 118
101 116 108
112 127 126
118 131 131
49 69 38
49 68 38
50 70 40
46 65 36
55 75 43
48 67 38
59 80 47
119 133 134
106 120 118
96 110 105
119 133 134
114 127 127
110 124 123
117 131 131
58 80 47
53 73 42
50 69 39
53 73 42
52 71 41
58 79 46
81 95 86
117 131 133
91 106 97
116 130 133
120 133 136
114 128 131
106 121 121
72 87 72
54 74 43
54 74 43
51 71 41
51 70 40
52 73 41
48 67 37
101 114 112
120 133 135
121 136 138
123 136 139
105 119 117
120 135 137
116 129 130
57 78 45
53 72 42
47 67 36
52 71 41
55 75 43
53 73 42
59 79 47
105 119 115
119 134 133
110 123 124
112 126 127
113 127 126
105 119 116
103 118 112
53 73 42
50 70 39
57 78 46
50 69 39
55 75 42
55 75 43
72 89 71
116 129 132
106 121 120
116 130 131
114 127 126
108 122 122
118 132 133
99 115 110
52 71 40
48 68 37
54 74 42
59 81 48
53 73 42
58 80 46
93 108 103
108 123 118
120 133 136
111 125 125
114 128 128
104 118 115
109 123 120
99 112 110
47 66 36
51 71 39
54 75 44
56 77 45
56 78 46
56 77 45
100 115 107
111 127 126
122 137 136
120 135 137
109 123 121
86 102 92
73 92 72
95 109 105
119 133 138
106 120 118
130 144 148
109 124 119
119 134 136
120 134 136
82 100 81
53 73 42
53 73 42
59 80 48
57 78 45
58 80 47
58 79 46
112 127 122
114 128 130
132 146 149
128 143 146
131 145 150
112 124 127
114 129 128
81 98 82
59 82 47
55 76 44
59 80 47
54 74 43
63 85 50
59 80 51
110 126 124
122 137 137
136 151 156
139 154 159
122 136 137
130 145 149
113 129 125
69 90 61
106 123 116
137 152 157
134 149 153
140 154 161
136 151 154
96 113 103
62 85 51
58 80 47
58 80 46
61 84 49
63 86 52
71 90 66
115 131 128
133 148 153
138 152 159
128 143 143
132 146 149
113 130 127
98 114 107
59 81 47
58 79 45
61 83 49
63 85 50
69 90 59
80 99 83
56 78 45
57 79 47
66 91 55
65 88 53
98 117 103
126 142 143
126 142 142
139 153 158
140 156 161
124 141 140
74 96 70
67 91 54
72 97 58
64 87 51
122 140 136
61 84 49
64 88 52
64 88 52
109 127 119
146 162 167
137 153 157
147 164 173
103 122 112
63 87 52
117 134 129
89 110 88
77 99 74
148 166 174
171 186 196
226 237 253
227 238 254
227 238 254
227 238 254
227 238 254
227 238 254
227 238 254
227 238 254
227 238 254
227 238 254
227 238 254
227 238 254
227 238 254
227 238 254
227 238 254
227 238 254
227 238 254
227 238 254
227 238 254
227 238 254
227 238 254
227 238 254
227 238 254
227 238 254
227 238 254
227 238 254
227 238 254
227 238 254
227 238 254
227 238 254
227 238 254
227 238 254
227 238 254
227 238 254
227 238 254
227 238 254
227 238 254
227 238 254
227 238 254
227 238 254
227 238 254
227 238 254
227 238 254
227 238 254
227 238 254
227 238 254
227 238 254
227 238 254
227 238 254
227 238 254
227 238 254
227 238 254
227 238 254
227 238 254
227 238 254
227 238 254
227 238 254
227 238 254
227 238 254
227 238 254
227 238 254
227 238 254
227 238 254
227 238 254
227 238 254
227 238 254
227 238 254
227 238 254
227 238 254
227 238 254
227 238 254
227 238 254
171 185 194
152 170 176
104 124 111
75 101 63
135 153 153
143 159 162
83 107 76
133 151 147
150 167 173
151 167 173
126 143 140
73 96 67
66 90 53
71 96 57
80 105 72
121 137 133
69 95 57
70 95 58
68 93 56
100 121 105
147 164 168
141 156 161
142 158 160
137 152 154
132 149 151
92 113 92
70 95 57
67 92 54
70 94 56
66 90 53
94 113 95
134 150 152
140 155 160
65 87 54
60 83 48
65 89 53
98 117 104
129 145 146
139 152 156
129 145 145
143 158 162
131 146 149
124 140 141
81 100 80
66 89 53
60 83 47
63 87 51
62 84 50
68 91 55
74 93 70
132 148 152
122 138 134
138 153 158
137 154 159
132 148 150
150 164 173
112 128 127
60 82 47
85 103 86
132 148 150
130 144 148
129 146 145
130 145 146
94 112 97
57 79 46
63 86 51
57 79 46
57 78 45
60 81 47
65 89 52
115 132 125
133 148 153
133 147 150
131 145 149
133 148 150
122 136 137
126 141 142
95 112 103
60 83 47
53 74 41
55 75 43
57 80 46
60 83 48
58 80 47
66 82 66
127 142 141
116 130 131
128 143 143
109 124 122
113 128 128
109 124 123
113 128 123
53 74 41
54 74 43
62 84 49
61 83 48
57 78 45
59 81 47
64 83 59
109 125 121
88 104 91
90 108 95
58 80 46
55 75 43
54 74 43
58 80 46
109 126 118
118 132 134
118 132 131
130 144 146
119 134 132
115 128 128
122 136 137
62 80 53
56 76 43
54 76 43
57 78 45
57 78 44
53 74 42
51 71 40
108 123 119
121 135 137
134 147 153
115 129 130
130 144 146
129 143 143
119 134 134
72 89 70
57 78 45
52 72 41
46 66 35
54 75 43
53 74 42
52 72 41
103 120 115
107 123 118
96 109 103
115 128 131
116 130 129
130 144 149
108 123 120
78 92 83
54 75 43
50 70 39
52 72 42
58 79 46
59 81 46
54 75 42
95 109 105
99 112 108
117 130 131
107 123 119
116 130 128
117 132 131
110 124 122
98 112 104
51 70 40
53 73 40
56 77 44
52 72 40
50 69 39
55 75 43
73 87 77
115 128 126
86 100 94
112 126 123
116 129 128
113 127 126
107 123 119
99 117 107
52 72 41
53 73 41
54 75 43
55 75 44
48 67 39
59 80 47
92 107 98
122 136 137
105 119 114
110 124 123
117 132 130
113 128 124
114 128 124
83 99 87
49 69 39
43 61 33
55 75 43
49 69 38
55 75 44
59 80 47
68 85 69
123 137 139
95 109 105
110 126 124
116 129 131
107 121 118
108 124 117
104 119 115
57 78 46
60 81 48
50 70 39
56 77 44
57 78 46
56 77 44
64 83 58
111 124 124
109 123 120
106 120 117
124 138 140
116 130 129
110 125 123
101 116 113
55 75 43
54 75 43
56 76 45
55 76 44
55 77 44
54 74 43
59 80 49
121 136 135
110 125 126
124 138 141
127 141 143
129 143 145
106 120 118
125 140 142
57 77 47
54 75 43
67 84 63
86 101 90
109 124 119
114 127 127
110 124 123
65 85 57
49 69 39
56 76 44
57 78 46
55 76 44
54 75 43
53 73 42
109 123 121
124 138 138
127 141 142
130 144 146
118 132 134
121 136 138
118 133 133
89 105 92
50 70 39
58 80 46
64 86 51
54 75 43
56 77 45
60 82 49
100 117 107
117 132 131
116 132 133
127 141 143
130 145 147
131 145 147
129 144 144
103 117 112
51 71 40
61 84 48
59 81 48
69 93 56
54 75 42
60 82 47
95 110 100
107 121 117
135 148 151
102 116 110
61 83 51
64 87 52
63 87 51
108 125 118
122 136 136
130 145 150
122 137 138
128 144 148
142 157 163
116 131 128
76 94 75
67 90 53
56 78 44
53 74 42
63 87 51
63 87 51
86 104 90
132 148 151
142 157 163
121 137 141
126 141 141
130 146 147
132 147 152
76 97 70
64 87 51
134 151 151
132 148 154
139 153 159
113 130 129
68 89 61
67 91 54
58 81 47
64 88 51
65 87 52
102 120 111
136 154 158
142 158 164
141 158 163
132 148 152
115 133 130
68 92 59
65 89 53
139 155 160
131 147 147
107 127 116
67 92 56
64 88 53
69 94 57
110 129 124
152 168 176
137 154 158
147 165 169
102 121 107
148 164 171
130 147 145
69 94 59
111 128 119
144 162 167
208 220 233
227 238 254
227 238 254
227 238 254
227 238 254
227 238 254
227 238 254
227 238 254
227 238 254
227 238 254
227 238 254
227 238 254
227 238 254
227 238 254
227 238 254
227 238 254
227 238 254
227 238 254
227 238 254
227 238 254
227 238 254
227 238 254
227 238 254
227 238 254
227 238 254
227 238 254
227 238 254
227 238 254
227 238 254
227 238 254
227 238 254
227 238 254
227 238 254
227 238 254
227 238 254
227 238 254
227 238 254
227 238 254
227 238 254
227 238 254
227 238 254
227 238 254
227 238 254
227 238 254
227 238 254
227 238 254
227 238 254
227 238 254
227 238 254
227 238 254
227 238 254
227 238 254
227 238 254
227 238 254
227 238 254
227 238 254
227 238 254
227 238 254
227 238 254
227 238 254
227 238 254
227 238 254
227 238 254
227 238 254
227 238 254
227 238 254
227 238 254
212 224 239
116 134 124
129 147 142
74 100 61
108 128 117
148 164 171
154 170 176
140 157 157
153 170 177
153 169 177
139 158 161
76 99 65
72 97 59
68 93 56
71 96 57
129 146 144
134 150 154
150 166 171
148 163 169
80 103 73
148 163 168
141 158 159
132 146 151
150 165 170
143 158 161
106 125 115
67 92 54
64 88 52
66 90 54
68 92 55
87 109 87
135 152 155
149 165 173
140 155 161
130 146 145
133 150 153
137 154 155
119 137 131
133 148 150
135 150 155
132 148 151
144 160 165
131 147 149
107 124 115
55 77 43
62 85 49
64 87 51
62 85 50
60 83 47
63 86 50
124 140 138
135 152 154
132 148 151
133 150 152
131 147 149
144 159 165
136 150 154
82 104 77
60 82 48
55 76 44
61 84 49
66 89 53
65 89 52
63 85 53
114 131 128
75 94 73
60 82 47
60 82 47
65 88 52
58 80 45
61 83 49
119 135 134
140 154 164
132 147 150
115 128 126
132 148 149
120 136 136
132 147 149
89 106 95
62 84 50
64 87 51
56 78 44
59 81 47
58 79 46
63 86 51
82 101 82
120 136 133
131 147 148
128 143 146
133 148 150
110 124 122
120 135 135
123 137 137
62 84 51
52 72 41
58 79 46
56 77 44
53 74 43
62 84 49
59 81 47
100 115 110
130 145 151
123 138 140
119 133 134
117 132 131
133 148 153
134 148 153
87 103 93
57 79 46
58 81 47
61 81 55
71 89 68
92 107 98
111 125 121
127 141 145
54 74 43
59 80 46
57 78 45
56 77 44
59 81 47
49 69 38
58 79 46
116 131 127
109 123 123
123 137 139
107 122 119
122 136 139
119 134 135
116 129 129
87 104 91
58 79 47
43 61 33
54 75 43
55 75 43
48 67 38
54 75 43
85 102 88
110 124 123
111 124 126
112 126 127
123 137 139
121 137 137
112 126 128
113 128 125
52 72 41
50 70 39
53 73 42
53 73 41
52 72 41
59 80 48
53 74 42
113 129 126
118 133 135
116 130 132
107 122 117
120 134 135
105 118 117
118 131 132
57 78 48
52 72 41
57 78 45
56 77 45
54 75 43
53 72 41
55 75 43
88 103 94
109 122 121
103 116 113
115 129 131
109 124 121
114 128 131
112 126 126
112 126 124
55 76 44
56 76 44
56 76 44
49 69 38
57 78 44
59 80 47
56 77 44
115 130 130
114 128 131
107 121 120
115 129 130
120 135 135
114 127 127
126 140 143
54 74 42
51 72 40
53 74 42
54 74 43
50 69 39
55 75 44
56 77 45
102 116 110
111 126 123
112 126 125
133 147 152
121 135 136
119 133 135
109 122 121
98 113 109
54 74 41
56 76 44
56 77 44
53 74 42
57 79 46
49 69 39
78 96 79
110 124 121
126 140 142
123 137 139
116 132 130
116 131 130
116 130 130
123 135 139
58 78 46
53 74 42
55 76 44
57 77 45
57 78 45
55 76 44
53 72 43
108 122 121
100 115 109
81 98 82
59 79 50
55 76 44
50 69 39
52 71 41
97 113 106
117 132 135
115 130 128
119 133 134
124 140 142
127 141 146
122 136 139
110 125 125
60 82 48
58 79 47
54 76 43
57 78 46
56 77 46
57 78 45
56 77 44
121 135 137
117 132 131
118 133 135
121 136 135
128 143 143
129 143 147
111 124 126
87 102 92
51 71 40
58 80 47
55 76 44
57 79 46
59 81 47
62 85 49
98 115 103
122 136 138
130 145 149
114 129 127
134 148 152
122 137 138
129 144 145
119 135 132
68 91 58
59 81 47
60 82 49
60 83 49
87 103 91
126 142 142
115 131 131
69 91 63
64 87 53
61 84 50
64 88 52
62 85 50
61 84 49
68 89 62
117 131 133
127 144 147
115 130 128
131 146 149
142 156 164
140 155 160
114 128 129
59 81 50
61 84 50
67 90 54
59 82 47
65 89 53
67 91 55
101 119 110
129 144 147
132 146 149
132 146 148
134 148 152
71 92 64
92 110 96
122 137 137
136 150 155
132 146 150
115 130 129
138 155 160
134 151 153
64 87 51
67 92 56
69 94 57
60 83 48
67 91 55
118 135 134
139 155 162
150 166 172
143 159 166
150 166 174
108 126 120
138 155 158
158 173 181
135 152 156
139 156 161
96 116 102
61 84 50
59 82 47
72 97 59
118 136 134
156 171 181
140 155 161
97 119 105
137 153 155
139 157 163
111 130 124
70 96 58
100 120 107
147 162 159
227 238 254
227 238 254
227 238 254
227 238 254
227 238 254
227 238 254
227 238 254
227 238 254
227 238 254
227 238 254
227 238 254
227 238 254
227 238 254
227 238 254
227 238 254
227 238 254
227 238 254
227 238 254
227 238 254
227 238 254
227 238 254
227 238 254
227 238 254
227 238 254
227 238 254
227 238 254
227 238 254
227 238 254
227 238 254
227 238 254
227 238 254
227 238 254
227 238 254
227 238 254
227 238 254
227 238 254
227 238 254
227 238 254
227 238 254
227 238 254
227 238 254
227 238 254
227 238 254
227 238 254
227 238 254
227 238 254
227 238 254
227 238 254
227 238 254
227 238 254
227 238 254
227 238 254
227 238 254
227 238 254
227 238 254
227 238 254
227 238 254
227 238 254
227 238 254
227 238 254
227 238 254
227 238 254
165 180 184
84 109 80
75 100 65
109 130 116
151 170 178
165 181 192
125 143 142
78 104 67
99 120 104
148 164 171
95 115 94
74 99 59
74 99 60
69 95 56
116 136 126
144 160 165
148 164 172
140 156 158
144 161 165
99 119 102
71 97 57
155 170 180
147 164 170
149 165 173
118 135 131
71 97 58
70 95 57
67 91 54
69 94 55
69 94 56
122 140 137
147 163 170
133 149 150
141 158 161
143 158 164
139 155 157
105 123 108
65 89 52
66 90 53
71 97 58
92 110 95
144 158 164
138 154 158
78 99 71
61 84 49
68 92 53
70 95 57
67 92 55
65 89 53
89 108 91
143 158 164
143 158 161
141 156 160
136 151 154
134 149 152
133 148 150
119 134 131
72 97 59
61 84 49
62 85 50
61 84 49
64 87 51
63 86 51
82 101 83
129 144 144
133 149 150
134 149 150
139 154 156
127 143 145
136 151 154
95 112 100
130 146 150
120 136 135
125 140 141
126 140 143
134 148 152
128 143 144
126 141 141
94 113 98
58 80 46
63 86 51
57 79 44
55 76 42
62 84 50
62 84 49
75 92 76
125 140 140
123 139 136
135 150 153
131 147 149
124 137 139
124 139 138
129 143 145
77 97 77
55 77 44
61 84 49
58 79 45
58 80 46
63 85 50
59 81 47
76 95 76
126 141 142
119 134 136
115 130 127
127 141 141
136 150 156
123 137 139
128 143 145
57 79 46
56 78 44
51 71 40
60 82 48
53 74 42
60 83 48
54 75 42
84 101 84
134 149 152
126 141 144
114 129 127
115 129 130
125 139 140
98 113 107
110 125 123
99 116 105
85 102 90
91 106 99
122 137 137
119 134 133
123 138 138
125 140 143
86 103 90
59 80 47
50 70 40
57 78 46
57 78 46
58 78 46
59 81 47
54 75 42
124 138 139
98 113 108
121 136 135
118 133 131
125 139 141
123 136 140
125 139 140
61 81 54
51 71 40
58 81 47
60 82 48
59 81 47
50 71 40
60 81 47
71 88 71
119 133 132
124 137 138
112 128 123
111 125 123
114 129 123
117 130 130
122 138 138
58 80 47
50 70 39
60 81 48
55 75 44
58 80 47
54 75 43
53 74 43
97 111 105
123 136 139
111 127 122
110 124 121
122 136 138
118 131 133
123 138 141
110 126 123
54 75 43
55 76 43
59 80 46
53 72 42
46 64 35
60 83 49
52 72 41
130 144 146
110 123 126
110 125 123
113 126 127
108 124 120
120 133 135
121 135 138
86 101 91
60 82 48
58 80 46
56 77 44
57 78 46
55 76 43
48 68 37
56 77 43
110 126 121
112 126 124
104 119 112
117 130 128
119 133 133
124 138 140
107 120 117
65 84 59
60 82 48
47 66 36
56 76 45
57 79 44
50 70 40
57 77 45
68 87 64
126 140 143
101 115 111
106 121 116
89 106 94
87 102 93
70 87 71
56 75 50
96 110 104
127 141 144
115 129 127
118 134 133
107 122 120
116 130 130
117 132 130
100 115 112
63 86 50
55 76 44
61 83 49
53 74 41
60 82 48
63 85 50
61 82 53
123 137 141
131 144 149
95 111 103
129 144 148
120 134 138
133 147 148
123 137 140
89 105 91
57 78 45
58 79 47
57 78 45
55 76 44
58 80 46
62 84 50
65 85 60
129 144 144
124 140 142
138 152 158
113 127 124
125 139 140
130 145 147
111 126 127
99 114 107
60 81 48
61 83 49
55 76 43
59 81 47
59 81 47
57 78 46
75 93 76
127 142 143
127 142 144
128 141 144
133 147 152
128 141 141
112 128 124
67 86 60
116 132 131
127 143 147
139 154 160
119 133 133
133 149 153
136 150 155
132 146 151
98 115 102
59 81 48
65 89 53
61 83 49
62 85 50
57 79 45
64 87 52
108 123 123
123 138 138
137 154 157
130 147 150
138 154 156
140 154 162
124 139 142
92 110 100
61 83 48
60 82 48
64 88 52
60 82 49
64 88 51
70 94 59
125 140 143
62 85 50
61 84 50
57 80 46
61 85 50
64 88 51
122 139 137
128 144 146
139 154 162
141 157 166
141 157 162
143 159 163
116 132 130
64 88 52
69 93 56
70 95 58
66 90 53
76 99 69
131 148 150
137 154 157
98 117 105
65 89 53
67 89 56
119 135 133
145 161 167
147 163 171
150 167 174
142 157 163
93 114 99
72 98 59
70 95 58
76 100 70
124 142 144
65 89 54
63 87 51
117 136 131
145 161 167
144 162 167
99 120 104
108 129 117
102 123 106
219 231 246
227 238 254
227 238 254
227 238 254
227 238 254
227 238 254
227 238 254
227 238 254
227 238 254
227 238 254
227 238 254
227 238 254
227 238 254
227 238 254
227 238 254
227 238 254
227 238 254
227 238 254
227 238 254
227 238 254
227 238 254
227 238 254
227 238 254
227 238 254
227 238 254
227 238 254
227 238 254
227 238 254
227 238 254
227 238 254
227 238 254
227 238 254
227 238 254
227 238 254
227 238 254
227 238 254
227 238 254
227 238 254
227 238 254
227 238 254
227 238 254
227 238 254
227 238 254
227 238 254
227 238 254
227 238 254
227 238 254
227 238 254
227 238 254
227 238 254
227 238 254
227 238 254
227 238 254
227 238 254
227 238 254
227 238 254
227 238 254
217 229 243
106 127 109
134 154 155
102 124 105
137 154 156
156 173 180
138 156 157
93 115 89
74 100 60
69 94 55
111 127 121
70 96 57
74 100 60
70 94 56
119 139 131
157 173 182
143 160 163
154 171 180
145 160 165
105 123 112
70 95 57
70 96 57
69 93 55
72 98 59
125 143 138
69 93 59
69 93 56
69 93 56
76 102 61
72 97 59
109 127 117
136 151 153
152 168 175
138 153 155
133 150 151
139 155 158
128 143 143
69 92 59
71 96 58
61 84 48
64 88 51
66 91 53
64 87 52
120 136 134
133 149 151
103 122 108
63 86 51
63 87 52
66 90 53
69 92 57
140 157 160
131 146 146
137 154 157
136 153 157
124 141 141
146 161 167
137 152 158
86 107 87
65 88 52
67 91 54
64 87 51
60 82 47
61 84 49
61 84 48
92 111 100
137 153 156
133 149 150
127 143 144
134 150 150
127 142 144
137 152 155
123 139 136
64 87 52
54 75 42
61 85 49
65 88 52
68 90 57
98 114 104
140 155 158
77 95 75
63 86 51
62 85 49
63 87 50
57 79 45
56 78 45
60 82 48
73 93 70
135 150 153
122 138 137
126 141 145
131 147 149
124 139 139
124 139 139
114 129 125
79 96 79
61 83 49
55 76 43
61 84 49
63 86 50
61 83 48
60 83 47
61 83 51
123 137 140
119 135 133
122 138 137
125 140 141
123 138 137
107 122 118
125 140 141
105 121 115
55 77 43
58 79 47
55 77 43
60 82 48
56 77 44
60 83 48
61 84 49
117 131 132
117 131 130
120 135 133
116 132 127
111 126 121
116 131 130
131 145 147
115 129 131
57 78 45
60 81 47
54 76 43
55 77 44
58 80 47
56 78 45
58 79 46
95 111 102
127 141 140
115 129 130
108 123 119
120 135 134
111 125 123
113 126 124
113 126 123
67 89 58
83 100 87
81 98 83
90 106 96
107 122 119
111 126 123
107 120 123
113 128 125
53 73 42
51 71 40
57 78 45
60 82 48
52 72 40
55 76 44
55 75 43
128 143 146
126 140 140
123 137 137
121 136 138
111 126 125
122 137 139
124 136 138
119 134 135
54 75 44
54 74 44
59 81 48
56 77 44
60 82 48
57 78 45
62 85 49
122 136 136
114 129 127
114 128 126
120 135 133
119 134 133
122 137 136
121 134 134
113 129 124
56 77 45
51 70 39
59 81 48
54 74 42
53 73 41
52 73 41
59 81 47
91 106 94
118 132 132
114 129 127
121 135 136
120 135 133
112 126 125
112 127 124
115 129 129
47 67 37
61 83 49
56 77 45
53 73 42
55 76 44
59 80 47
67 87 61
102 119 112
109 124 117
97 113 105
99 115 108
81 99 85
82 97 83
74 92 75
63 84 54
113 128 127
136 150 155
121 134 137
132 147 150
121 135 134
124 139 139
128 142 143
116 131 130
61 82 49
59 81 48
57 79 44
61 83 49
59 81 46
56 77 45
57 78 46
114 129 126
121 136 138
124 139 138
120 135 136
134 148 152
127 142 141
120 135 136
123 138 139
60 82 48
59 81 47
53 73 41
56 76 44
57 79 46
58 79 46
61 84 48
101 119 108
116 132 131
110 125 124
127 141 143
128 143 146
126 141 143
118 132 130
122 136 139
69 88 63
54 75 42
53 74 42
56 76 45
55 77 43
55 76 43
57 78 46
78 97 80
120 135 136
130 144 146
133 148 150
113 127 125
124 139 139
132 147 152
132 147 151
96 114 100
58 79 45
55 77 44
55 76 44
60 82 48
64 87 51
60 82 48
94 111 97
76 95 77
62 84 50
59 80 46
54 75 42
64 86 51
58 80 46
57 79 46
119 136 131
128 144 145
116 131 131
133 148 153
126 141 142
130 146 147
124 137 140
109 126 120
57 79 44
65 89 53
72 97 59
63 87 52
68 92 55
59 82 47
102 121 107
131 146 147
144 160 165
126 142 142
131 147 150
143 159 164
128 144 144
116 131 129
69 92 61
63 87 50
68 93 56
133 148 152
133 149 152
133 148 151
108 125 121
65 89 54
64 88 52
68 92 55
74 100 62
63 86 50
66 90 54
126 143 143
143 159 165
137 153 159
133 148 154
134 150 151
132 149 153
87 108 88
65 88 52
63 86 52
70 95 57
68 93 57
119 135 133
70 92 64
70 95 57
70 93 56
70 95 58
69 93 58
130 148 148
146 161 166
139 155 160
142 158 163
126 142 143
72 96 63
68 93 55
80 104 75
133 150 152
66 88 55
70 96 57
79 104 71
130 146 148
154 171 183
134 150 153
139 157 159
126 145 144
165 179 181
227 238 254
227 238 254
227 238 254
227 238 254
227 238 254
227 238 254
227 238 254
227 238 254
227 238 254
227 238 254
227 238 254
227 238 254
227 238 254
227 238 254
227 238 254
227 238 254
227 238 254
227 238 254
227 238 254
227 238 254
227 238 254
227 238 254
227 238 254
227 238 254
227 238 254
227 238 254
227 238 254
227 238 254
227 238 254
227 238 254
227 238 254
227 238 254
227 238 254
227 238 254
227 238 254
227 238 254
227 238 254
227 238 254
227 238 254
227 238 254
227 238 254
227 238 254
227 238 254
227 238 254
227 239 254
227 239 254
227 239 254
227 239 254
227 239 254
227 239 254
227 239 254
227 239 254
185 199 206
107 129 112
161 179 190
153 170 178
157 173 179
161 178 189
116 136 125
73 99 60
73 98 59
106 127 110
148 164 171
154 170 178
71 98 59
87 110 85
139 157 159
149 165 172
151 168 175
149 165 172
125 143 137
74 97 63
71 96 57
69 94 56
71 97 58
83 106 77
136 152 154
150 166 172
143 160 163
70 95 56
70 95 57
84 106 79
148 164 167
152 168 174
139 156 158
153 169 178
148 165 169
142 158 161
97 118 98
66 90 53
65 90 52
68 93 55
70 96 58
68 91 54
86 106 88
144 159 163
144 158 163
138 154 156
135 150 150
131 147 148
137 153 159
81 101 81
142 158 163
133 149 150
142 157 162
127 143 140
143 157 160
145 160 167
125 140 141
71 94 62
61 85 49
62 85 49
61 83 49
59 81 47
67 91 54
70 92 62
119 136 132
119 134 135
125 140 139
136 151 154
133 148 151
127 142 146
131 146 146
111 129 123
63 86 50
66 90 53
60 82 47
64 88 53
58 81 47
61 84 49
62 85 49
99 115 106
128 143 143
136 152 153
123 140 137
102 118 110
88 106 92
61 83 48
79 98 78
133 148 151
129 144 148
128 144 142
140 154 159
119 135 133
130 146 146
127 142 140
121 137 134
60 82 47
59 81 48
67 90 54
56 77 44
64 87 51
60 82 48
52 73 41
100 117 108
128 143 143
130 146 148
128 141 144
132 146 150
113 128 128
130 145 146
128 143 146
69 89 62
56 78 44
64 87 52
56 77 45
62 84 49
55 77 43
58 80 46
65 87 55
122 136 139
115 130 130
114 129 127
122 137 135
114 129 126
132 148 150
130 144 146
123 137 137
57 79 45
58 80 46
55 75 43
53 74 42
54 75 42
60 82 48
57 78 45
95 111 104
110 125 120
123 137 137
120 136 133
116 131 131
108 122 121
120 135 134
118 133 133
62 81 59
53 74 42
54 75 43
52 73 41
57 79 45
52 72 40
55 75 43
61 82 48
118 133 133
132 147 149
122 137 137
119 134 133
128 143 147
114 130 126
128 142 147
111 125 124
57 78 46
58 79 46
60 82 48
57 78 44
51 71 39
56 78 44
55 75 43
97 113 104
118 132 131
126 141 142
126 141 141
122 138 138
108 123 121
130 144 145
118 132 129
59 79 50
66 87 55
59 78 49
52 73 40
56 76 43
54 74 41
60 80 54
53 74 42
122 137 136
123 137 138
115 129 128
127 141 146
129 143 145
118 132 134
115 128 130
103 118 114
57 78 45
51 71 40
58 80 46
55 75 42
60 82 49
55 77 44
63 85 50
98 113 110
126 141 142
122 137 138
127 141 144
118 134 130
124 139 139
132 145 150
127 142 145
54 74 42
61 83 49
55 76 43
58 80 47
51 70 38
59 81 48
55 75 44
53 74 42
121 136 136
111 124 122
120 134 133
126 142 140
119 132 134
117 132 132
129 144 146
89 105 96
59 81 47
62 85 51
55 76 44
60 82 47
58 79 46
55 76 43
60 82 48
93 110 101
121 135 134
116 131 133
120 135 134
122 138 140
124 137 139
131 145 150
125 139 142
65 85 56
58 79 46
53 73 41
55 77 45
58 80 46
57 79 44
56 77 44
65 87 54
122 138 140
131 146 149
131 145 149
130 144 146
125 139 140
128 143 143
120 135 134
124 140 141
61 83 48
65 88 52
56 77 45
52 73 40
63 85 51
60 82 48
61 84 49
102 119 111
145 161 169
125 140 141
130 143 147
133 147 150
131 146 149
120 135 135
123 139 138
94 110 98
109 125 118
132 148 151
123 138 139
127 142 142
130 147 146
140 155 159
124 140 139
66 87 61
64 86 51
55 77 45
58 80 47
62 85 50
66 89 54
65 88 53
105 123 113
129 145 145
138 154 159
140 155 160
138 153 158
127 142 145
139 154 159
134 150 153
62 84 53
60 82 48
56 78 45
57 78 45
66 89 53
59 82 48
59 80 50
120 135 135
139 154 160
118 134 135
132 148 151
134 151 154
142 157 161
90 110 91
130 146 145
131 146 147
136 151 156
143 158 167
132 148 150
133 149 153
130 145 148
84 104 80
69 93 55
68 93 55
67 91 54
68 92 55
65 89 52
94 114 97
137 153 155
131 147 151
150 165 173
151 167 175
150 164 175
129 145 146
74 96 69
72 95 64
140 157 163
142 159 162
124 139 137
118 137 130
67 91 54
70 94 57
65 90 54
59 82 48
85 105 87
141 158 164
141 156 160
148 164 171
154 171 180
113 131 125
137 154 156
153 169 180
143 160 166
111 130 121
69 94 57
71 97 59
87 109 90
156 171 179
154 172 182
123 141 138
148 165 174
130 148 139
223 234 249
227 239 254
227 239 254
227 239 254
227 239 254
227 239 254
227 239 254
227 239 254
227 238 254
227 238 254
227 238 254
227 238 254
227 238 254
227 238 254
227 238 254
227 238 254
227 238 254
227 238 254
227 238 254
227 238 254
227 238 254
227 238 254
227 238 254
227 238 254
227 238 254
227 239 254
227 239 254
227 239 254
227 239 254
227 239 254
227 239 254
227 239 254
227 239 254
227 239 254
227 239 254
227 239 254
227 239 254
227 239 254
227 239 254
227 239 254
227 239 254
227 239 254
227 239 254
227 239 254
227 239 254
227 239 254
227 239 254
227 239 254
159 176 173
132 151 152
161 178 187
99 121 102
143 161 165
150 166 171
78 105 67
74 100 60
71 97 58
120 138 135
153 170 175
159 175 184
156 173 180
123 142 137
155 171 178
153 170 176
152 169 176
152 169 173
92 113 94
73 98 59
74 101 61
71 96 58
72 98 59
103 123 112
143 159 166
156 171 179
146 161 165
152 170 177
149 164 171
111 131 121
148 164 170
151 167 176
147 163 169
158 173 182
149 166 173
120 140 134
66 90 53
68 92 55
70 96 57
71 96 56
66 90 53
64 87 51
133 148 147
138 154 156
142 158 163
145 162 169
143 159 162
148 163 171
141 157 160
97 117 101
66 90 53
66 89 53
64 87 51
113 132 125
137 152 153
142 159 166
108 126 118
55 76 43
65 90 52
66 89 54
64 88 52
66 89 52
62 84 48
83 101 81
139 156 159
137 153 155
129 143 144
135 149 151
138 155 159
141 156 159
140 155 161
110 128 123
60 82 48
64 87 51
61 84 49
66 90 53
63 85 49
65 89 52
66 89 53
114 129 127
132 147 152
130 145 144
127 141 141
136 151 157
134 149 155
126 141 141
145 160 166
65 88 55
57 79 46
63 86 51
89 107 91
108 124 117
127 143 140
132 148 151
116 133 130
64 87 53
60 83 48
50 70 39
58 80 46
55 76 44
56 77 44
55 76 44
84 103 84
133 148 150
120 135 133
130 146 149
128 142 145
133 148 153
139 152 157
120 136 133
109 125 121
59 82 47
61 83 48
61 83 48
54 74 42
64 86 51
57 80 44
59 81 47
81 99 83
124 138 139
118 134 133
116 132 131
129 145 144
122 137 136
126 141 143
129 144 146
104 120 113
60 81 48
56 77 45
52 73 40
60 83 48
63 85 50
53 74 42
59 81 48
86 102 90
133 146 150
133 148 149
115 130 128
145 159 165
119 133 133
107 123 118
117 132 132
96 112 105
57 78 45
65 88 53
55 77 44
63 86 50
60 82 48
60 83 49
54 75 43
101 115 107
113 128 127
121 134 137
134 149 153
131 146 149
119 134 136
126 141 142
116 130 130
75 92 73
55 77 43
57 79 46
56 77 44
56 77 44
60 81 48
53 74 41
57 79 45
135 149 153
126 141 142
124 139 139
134 148 153
124 141 140
119 133 134
116 130 130
133 148 150
58 80 46
58 79 45
60 82 47
57 78 45
56 77 45
54 75 43
59 81 47
56 77 44
115 129 131
108 123 119
119 132 133
117 131 133
113 128 123
123 137 135
112 128 124
137 153 158
58 80 46
55 76 44
57 78 44
56 78 45
51 71 40
57 79 45
54 75 42
55 76 44
133 146 149
122 138 140
121 136 134
111 127 123
125 140 142
119 134 134
114 129 127
122 136 138
59 81 47
59 81 46
57 79 46
60 82 48
58 79 46
59 80 46
54 75 42
71 88 71
124 139 141
127 142 145
119 133 135
119 133 132
133 146 153
124 139 142
116 130 129
113 128 127
59 80 47
58 80 47
55 76 43
59 81 47
57 79 45
60 81 47
54 75 42
78 94 81
126 141 142
127 141 143
127 141 142
121 136 136
127 142 143
121 135 135
124 139 140
94 110 100
59 82 46
60 82 48
62 84 50
55 77 44
58 80 47
58 80 47
61 84 49
93 111 96
124 139 140
143 157 163
141 155 162
116 131 133
120 134 136
135 149 153
143 157 162
92 109 99
57 79 46
61 84 50
55 77 44
58 81 46
55 76 44
66 90 53
61 84 49
114 129 125
112 128 125
101 118 111
65 86 56
59 80 47
60 83 48
61 84 49
58 80 46
127 142 146
116 131 131
124 141 142
124 139 137
130 146 151
135 150 154
140 156 159
120 135 136
69 90 64
59 81 47
66 90 55
61 83 49
64 87 51
59 81 48
59 80 48
101 118 105
141 154 162
120 136 136
123 137 137
133 149 149
142 157 162
137 153 159
132 148 150
84 103 85
66 90 54
64 87 51
64 87 51
68 92 55
61 83 49
61 84 49
96 114 99
143 158 164
80 98 82
62 86 52
62 86 50
60 83 48
62 84 49
94 111 99
151 167 175
137 153 154
136 149 153
143 159 167
130 146 148
132 147 148
128 146 143
68 91 55
68 92 55
66 90 54
65 89 53
69 93 56
70 93 63
128 145 144
135 152 159
144 159 166
135 152 157
135 150 154
78 100 71
114 132 126
149 164 171
144 160 166
142 157 162
138 154 160
139 155 159
93 112 99
70 94 57
67 90 53
71 97 58
64 89 52
115 133 127
153 170 179
149 165 172
141 158 164
71 96 61
131 149 149
155 171 179
158 174 184
146 161 168
85 106 81
69 94 56
73 99 61
135 151 153
83 108 79
104 125 108
157 175 185
124 144 137
201 213 225
227 239 254
227 239 254
227 239 254
227 239 254
227 239 254
227 239 254
227 239 254
227 239 254
227 239 254
227 239 254
227 239 254
227 239 254
227 239 254
227 239 254
227 239 254
227 239 254
227 239 254
227 239 254
227 239 254
227 239 254
227 239 254
227 239 254
227 239 254
227 239 254
227 239 254
227 239 254
227 239 254
227 239 254
227 239 254
227 239 254
227 239 254
227 239 254
227 239 254
227 239 254
227 239 254
227 239 254
227 239 254
227 239 254
227 239 254
227 239 254
227 239 254
227 239 254
217 229 242
134 152 148
170 186 199
134 154 152
71 97 58
78 106 64
99 121 102
73 99 59
74 101 61
117 136 126
158 174 184
161 177 187
152 168 172
142 159 162
73 99 63
73 99 60
153 169 177
158 175 184
116 134 123
71 96 58
70 96 57
73 98 58
74 100 61
91 113 92
151 168 176
154 169 175
143 159 162
149 166 174
147 163 171
134 151 154
74 100 63
74 98 60
65 89 52
154 169 178
136 152 156
154 170 179
84 106 81
70 95 57
74 99 61
66 89 52
69 93 55
69 93 56
101 121 107
144 159 163
135 150 152
150 166 172
138 154 158
133 150 151
152 168 174
129 145 147
73 97 62
67 91 55
67 91 54
64 87 52
64 89 51
64 88 51
69 92 58
124 141 140
120 135 137
62 84 50
64 88 52
60 84 48
58 81 47
64 88 52
90 113 85
135 150 153
128 145 145
143 158 162
144 158 165
137 154 158
121 138 137
136 151 154
105 122 112
64 87 51
64 88 51
64 88 51
68 92 55
65 88 52
57 80 45
64 88 52
134 149 151
127 142 143
135 151 157
128 143 143
126 142 142
131 147 152
131 146 148
134 148 151
88 106 90
63 85 49
64 86 51
60 82 47
59 80 46
59 81 47
67 90 54
67 91 54
124 139 139
131 146 150
115 132 127
123 139 138
89 106 92
65 86 56
62 84 49
63 86 51
122 137 137
122 137 135
112 127 125
129 145 148
117 133 129
138 153 157
130 145 147
137 151 157
84 104 83
59 81 47
57 79 45
58 80 45
67 90 53
66 90 53
61 83 48
61 84 49
107 123 118
129 143 146
125 140 143
137 152 156
133 147 151
133 149 151
129 143 144
129 145 147
114 129 126
54 74 43
56 78 44
60 83 48
59 82 48
54 76 43
61 84 49
64 86 51
72 91 66
132 146 150
131 145 145
120 134 138
127 142 142
139 154 159
128 142 147
129 143 146
111 127 124
61 83 49
59 81 47
60 83 48
60 81 48
57 78 45
57 78 45
57 79 46
60 81 48
133 147 148
127 142 145
121 136 136
125 140 140
136 150 154
123 139 142
127 142 142
129 144 145
61 82 48
59 80 47
59 80 47
51 71 40
61 83 49
64 87 51
61 83 49
60 82 48
125 141 141
123 138 137
124 139 137
121 137 136
133 148 150
119 134 133
106 121 121
124 138 140
61 84 49
63 86 49
59 82 47
61 83 48
54 75 43
56 77 44
59 82 47
61 83 49
122 136 136
123 138 140
116 131 129
116 131 131
125 140 140
114 129 128
131 144 147
112 127 122
69 89 62
54 75 42
62 85 50
58 80 46
59 80 47
58 80 45
62 84 49
59 80 46
105 122 115
122 137 138
130 144 147
123 138 138
115 130 128
126 141 142
134 149 150
130 145 148
99 115 105
64 86 51
66 90 54
58 80 45
56 77 45
59 81 46
57 78 45
55 75 44
97 114 102
130 145 146
125 141 140
132 146 153
122 137 137
122 137 136
122 135 137
117 133 132
106 122 117
61 83 50
61 83 48
56 76 44
57 79 46
57 79 46
60 82 48
60 82 48
76 95 76
114 128 128
127 141 143
115 129 127
119 135 131
139 153 158
118 133 133
131 146 147
122 137 136
59 81 47
60 82 48
57 78 44
62 84 49
58 79 46
60 82 48
56 77 45
58 79 45
132 148 151
119 133 131
124 139 139
144 158 166
125 141 141
122 137 138
126 141 143
126 141 142
60 82 48
86 105 85
110 127 122
119 135 135
135 150 154
131 147 148
142 155 162
125 139 144
67 89 59
60 82 48
58 80 45
61 84 49
61 83 49
54 75 42
65 89 53
67 88 60
133 148 151
117 134 132
132 149 149
123 139 141
149 164 172
139 153 157
138 154 159
123 139 139
61 84 48
62 85 50
60 82 49
60 82 48
67 91 54
64 87 52
65 89 52
78 97 76
137 153 153
131 146 150
122 136 137
129 145 148
140 156 160
142 156 163
126 141 142
109 126 121
64 87 52
65 88 51
71 96 58
100 118 105
134 149 154
141 156 163
124 139 141
67 89 58
64 87 52
58 81 46
67 91 55
57 79 46
69 93 56
67 91 55
130 148 149
138 154 161
131 148 152
142 159 161
139 155 161
147 162 169
146 162 169
93 113 96
63 87 52
70 94 55
67 92 55
61 84 49
68 93 56
94 114 97
142 158 163
97 116 97
67 90 54
70 95 58
65 89 52
85 106 86
143 161 166
155 169 175
145 162 168
143 158 164
147 163 169
146 162 172
74 98 65
71 97 60
66 91 54
66 91 54
79 100 78
133 151 151
69 93 61
74 99 60
72 98 59
97 118 101
139 156 162
150 165 174
160 177 189
127 143 145
73 99 61
73 100 60
114 134 123
75 99 66
76 103 66
127 146 141
148 166 171
188 203 212
227 239 254
227 239 254
227 239 254
227 239 254
227 239 254
227 239 254
227 239 254
227 239 254
227 239 254
227 239 254
227 239 254
227 239 254
227 239 254
227 239 254
227 239 254
227 239 254
227 239 254
227 239 254
227 239 254
227 239 254
227 239 254
227 239 254
227 239 254
227 239 254
227 239 254
227 239 254
227 239 254
227 239 254
227 239 254
227 239 254
227 239 254
227 239 254
227 239 254
227 239 254
227 239 254
227 239 254
227 239 254
227 239 254
218 229 244
160 176 185
151 167 175
105 127 108
76 103 63
113 135 119
159 175 184
73 99 60
84 108 76
147 165 173
157 174 182
156 172 179
148 164 168
88 111 85
70 95 57
74 101 61
70 96 58
80 103 78
88 111 85
74 100 60
65 90 52
75 102 62
74 100 61
129 147 148
156 172 179
161 178 189
149 165 170
154 170 177
153 169 178
98 119 102
74 101 61
72 97 59
66 91 53
67 91 54
70 95 57
109 127 117
71 94 59
67 91 53
71 96 57
67 93 54
69 94 56
72 97 58
116 133 130
149 165 171
137 154 157
147 163 169
147 163 170
149 165 173
155 172 181
113 131 122
66 90 53
69 94 57
70 95 58
65 89 53
67 92 55
70 95 57
84 106 82
128 144 143
157 172 182
147 163 171
142 157 164
143 158 162
137 153 156
113 131 126
103 121 109
131 145 147
147 162 171
129 145 146
138 153 158
137 152 158
137 152 155
137 154 157
100 119 105
63 86 51
67 91 54
63 86 50
67 91 54
68 92 55
61 85 48
61 84 49
124 141 136
141 156 159
144 160 166
133 148 150
141 157 160
147 161 166
136 150 155
136 152 153
93 112 99
63 86 50
61 84 49
64 87 52
62 85 50
66 89 52
64 87 51
64 86 51
100 118 109
135 150 150
134 150 152
131 146 150
126 141 140
139 153 158
132 147 151
136 151 156
125 140 141
67 91 54
57 79 44
77 99 68
102 117 112
123 139 139
125 140 139
121 137 137
128 144 145
61 84 49
56 78 45
53 73 41
67 90 54
59 81 47
61 83 48
61 83 48
58 80 45
125 141 143
115 129 129
130 145 149
128 142 144
132 147 148
123 137 137
124 139 139
128 143 145
89 104 96
61 84 49
59 80 46
59 81 46
56 78 45
59 81 47
59 81 47
57 78 45
70 89 65
121 137 137
118 133 131
126 142 141
129 144 145
128 144 144
119 134 131
134 147 153
126 141 143
64 87 52
62 84 49
59 81 47
58 80 46
58 79 46
55 76 43
64 87 51
65 89 52
126 141 143
126 140 138
132 148 149
126 140 145
134 149 154
124 139 141
119 134 134
121 135 139
106 122 114
59 80 47
60 82 48
61 83 49
57 78 45
53 74 41
58 79 46
54 75 43
60 82 51
125 140 139
125 140 140
111 125 120
122 136 135
118 134 135
120 134 133
120 135 135
129 143 146
53 73 41
59 82 48
60 82 48
56 77 44
61 83 49
56 78 44
60 82 49
59 81 47
118 133 131
123 138 137
127 141 140
122 136 136
128 142 146
126 141 145
131 145 151
118 133 133
102 117 112
55 76 43
62 84 49
62 84 49
62 85 49
65 88 52
59 81 47
54 76 43
68 88 60
135 149 154
122 137 139
115 130 126
120 133 134
130 145 146
119 135 133
103 118 112
127 141 145
59 81 47
57 78 47
58 80 47
62 85 51
54 74 42
55 77 43
56 76 43
55 76 44
120 137 134
127 141 141
127 141 142
125 139 142
118 134 131
129 144 145
125 140 140
127 142 144
123 139 139
55 76 44
59 81 47
51 72 39
56 78 44
56 78 44
56 78 44
60 81 48
70 89 64
124 139 138
135 149 151
142 157 162
130 145 146
127 142 143
118 134 131
127 142 145
113 128 127
68 87 63
54 75 42
57 79 46
58 79 45
59 80 47
64 87 51
56 78 45
59 80 47
109 125 120
121 136 133
105 122 112
73 92 72
54 76 43
56 77 44
62 85 49
63 85 51
83 102 84
124 139 138
136 152 156
128 143 144
122 138 136
135 151 153
129 145 146
140 155 160
130 145 147
62 85 50
59 80 47
62 84 50
66 90 54
62 85 50
63 86 51
60 83 49
79 101 75
130 145 147
138 153 158
133 148 150
144 160 166
136 151 157
135 150 156
138 153 157
135 150 152
74 96 66
60 82 48
62 85 49
63 86 51
66 90 55
64 87 51
68 92 54
82 104 79
140 156 159
139 156 158
142 155 160
127 144 143
133 149 151
141 156 163
131 147 148
84 103 82
128 145 149
144 159 168
140 156 162
131 145 145
133 149 152
143 157 163
141 157 160
88 107 89
62 85 49
59 81 48
63 86 51
68 92 56
66 90 54
66 90 53
105 123 113
133 149 150
138 154 157
139 155 158
138 153 158
139 155 162
144 160 167
127 143 143
65 88 52
67 91 54
61 85 49
66 90 53
123 140 137
147 163 170
103 121 110
68 93 55
62 85 50
67 91 54
66 90 53
70 94 57
103 122 111
137 153 159
147 163 172
142 157 165
148 164 170
145 161 167
112 132 122
70 96 58
69 94 57
71 97 59
116 135 128
132 150 151
66 91 53
65 89 53
74 101 61
69 93 59
119 137 132
152 168 179
161 178 188
153 170 178
93 115 95
111 132 121
161 178 188
107 127 120
71 97 59
102 123 107
155 170 180
179 194 204
227 239 254
227 239 254
227 239 254
227 239 254
227 239 254
227 239 254
227 239 254
227 239 254
227 239 254
227 239 254
227 239 254
227 239 254
227 239 254
227 239 254
227 239 254
227 239 254
227 239 254
227 239 254
227 239 254
227 239 254
227 239 254
227 239 254
227 239 254
227 239 254
227 239 254
227 239 254
227 239 254
227 239 254
227 239 254
227 239 254
227 239 254
227 239 254
227 239 254
227 239 254
196 210 220
135 154 150
145 163 166
82 108 74
76 102 66
141 159 160
161 177 185
155 172 180
123 143 137
159 176 183
150 166 174
162 178 186
128 147 143
73 100 60
76 103 63
74 100 60
73 100 60
131 149 146
138 156 159
160 176 188
72 98 58
73 99 60
90 113 88
146 163 170
144 161 163
154 170 176
158 175 182
149 165 173
122 141 135
70 94 60
66 90 53
68 93 55
72 99 58
65 89 51
78 101 73
135 152 158
146 161 167
147 164 170
151 168 173
87 108 85
72 97 59
80 102 79
138 153 158
146 162 167
145 162 168
148 164 170
151 167 175
145 161 167
137 153 159
88 108 87
61 85 49
69 93 56
64 88 51
68 92 55
67 91 54
68 93 55
98 117 103
149 165 171
157 172 179
144 160 164
125 141 142
145 160 166
140 156 161
147 161 168
103 121 106
66 90 53
72 97 58
65 89 52
109 126 116
138 154 154
129 145 145
134 148 148
85 106 86
72 96 58
66 89 52
59 81 48
68 92 54
66 90 53
62 85 49
68 92 55
118 133 129
132 148 150
142 158 164
138 154 160
128 143 142
126 140 139
141 155 161
146 160 163
120 137 135
65 89 53
62 86 49
60 83 47
64 87 51
60 83 48
65 88 52
63 85 50
77 97 75
146 161 168
140 155 160
139 154 160
126 140 139
134 149 151
138 154 158
137 152 159
137 152 154
72 93 64
56 78 45
65 88 52
64 87 51
60 83 48
61 84 48
62 84 49
60 83 49
97 114 105
128 141 145
132 147 148
137 152 155
124 140 138
125 142 142
96 113 103
74 92 72
62 84 49
132 148 149
136 152 157
123 139 138
137 152 158
130 144 145
139 154 160
121 135 137
122 138 134
94 115 97
63 86 50
60 83 47
63 86 50
54 76 43
59 81 47
63 85 50
63 86 50
67 88 59
118 132 133
128 143 144
127 142 141
126 140 140
126 141 140
136 149 152
131 146 148
126 141 139
60 83 48
56 77 43
58 79 46
56 77 44
62 85 49
62 85 51
55 76 44
67 90 53
84 102 85
128 143 146
126 139 140
136 151 156
139 154 160
133 148 154
135 150 154
136 151 156
121 136 137
62 85 50
62 84 51
59 82 46
61 83 48
60 81 48
59 81 47
57 79 45
56 77 45
95 112 100
133 147 153
127 143 143
126 141 145
126 141 143
119 133 132
128 143 144
118 134 132
130 145 147
57 79 45
56 77 44
62 85 49
60 82 47
62 85 50
57 78 46
56 78 44
61 83 48
103 118 114
129 144 144
121 135 136
131 145 150
137 151 157
132 147 151
125 141 141
130 145 148
137 152 156
53 74 42
54 76 42
56 76 44
57 79 45
61 84 50
59 81 47
60 82 48
58 79 46
120 135 135
115 129 131
121 137 138
108 122 121
124 138 140
131 147 149
136 149 154
134 147 149
114 129 124
60 82 48
55 76 43
55 76 43
58 79 46
64 87 52
63 85 50
61 83 49
57 79 45
126 141 142
125 140 140
124 138 139
138 153 158
127 142 142
115 132 128
123 139 139
135 150 154
112 128 123
56 78 44
62 84 49
62 85 49
62 85 50
63 86 51
61 82 49
58 80 46
58 80 45
133 147 152
119 134 133
126 141 141
134 148 153
128 143 146
135 151 156
135 150 154
129 144 145
83 101 88
108 125 117
126 141 137
127 143 145
130 146 146
134 148 152
123 138 138
134 149 154
116 133 126
60 83 48
60 81 48
66 90 53
61 84 49
61 84 49
62 84 50
62 85 49
57 79 45
128 143 144
126 140 141
131 146 148
134 148 153
126 140 145
130 146 148
132 147 149
148 163 169
107 124 116
65 88 53
65 89 52
65 88 52
63 86 51
62 85 49
67 91 54
63 86 50
79 99 75
141 157 161
128 143 146
151 166 175
134 149 152
133 149 154
138 153 158
135 150 153
135 151 155
69 92 61
69 94 56
63 86 51
66 90 54
64 87 51
65 88 52
65 88 53
70 92 62
131 147 149
119 134 131
69 92 62
65 89 52
59 81 48
70 95 57
63 87 51
79 102 76
136 152 156
134 150 150
145 159 167
133 148 153
139 154 161
154 170 176
139 155 160
108 126 116
68 92 55
63 86 50
65 88 52
68 93 56
67 91 55
66 90 53
76 98 73
149 164 174
143 160 166
144 160 166
149 165 172
142 157 163
141 157 163
138 154 159
86 107 90
139 155 159
145 160 166
144 160 167
147 162 170
144 162 168
124 141 144
69 93 59
64 88 53
69 94 57
68 92 56
69 95 57
75 99 68
132 150 152
144 161 166
142 158 165
146 162 169
145 162 169
141 158 162
79 101 74
112 130 122
143 159 164
145 162 170
147 163 169
96 117 94
73 99 60
75 100 60
72 98 59
96 118 99
146 163 170
153 170 179
145 162 169
141 159 163
155 173 182
154 170 181
137 155 157
82 109 73
81 105 78
141 159 161
125 145 141
225 237 252
227 239 254
227 239 254
227 239 254
227 239 254
227 239 254
227 239 254
227 239 254
227 239 254
227 239 254
227 239 254
227 239 254
227 239 254
227 239 254
227 239 254
227 239 254
227 239 254
227 239 254
227 239 254
227 239 254
227 239 254
227 239 254
227 239 254
227 239 254
227 239 254
227 239 254
227 239 254
227 239 254
227 239 254
227 239 254
183 199 210
89 113 82
119 140 130
74 101 60
97 121 94
164 181 191
166 181 190
167 184 193
91 114 93
162 177 187
152 170 177
159 176 184
99 122 105
73 100 60
73 99 59
73 99 60
94 116 93
152 168 177
152 168 173
153 170 177
148 165 168
165 181 190
134 152 150
143 162 168
152 168 172
155 172 179
146 161 168
151 168 174
90 110 89
71 96 58
70 95 57
67 92 54
70 95 57
75 101 62
97 118 102
139 156 159
140 156 159
144 160 161
147 163 168
148 164 171
146 163 169
121 139 132
89 111 88
153 170 177
147 165 169
148 165 169
148 164 173
156 171 178
143 160 163
74 99 60
67 92 54
68 92 54
70 94 57
74 99 61
68 93 55
71 96 57
109 128 119
146 163 169
145 159 165
141 157 160
149 164 173
127 143 141
135 151 156
144 160 167
93 111 98
70 95 56
63 87 50
67 91 54
65 88 52
68 93 55
65 89 52
63 88 51
129 144 144
118 134 130
90 109 93
65 90 53
66 89 53
60 81 47
60 82 48
66 90 53
117 133 131
131 146 150
125 142 144
145 160 166
134 149 152
139 154 160
141 156 161
150 166 173
128 144 144
64 87 51
63 87 50
65 89 53
61 84 50
64 86 50
65 89 53
60 82 47
64 87 52
125 140 141
129 144 146
133 149 152
134 148 153
133 149 153
139 154 156
133 148 151
131 146 148
119 135 132
63 86 51
65 88 52
62 85 49
68 93 55
63 86 50
64 88 52
55 76 43
68 92 55
120 136 134
129 143 143
122 136 135
135 151 158
128 143 145
133 148 153
127 142 143
136 150 157
118 135 129
59 81 47
64 88 52
60 83 48
63 86 50
62 85 49
69 90 61
83 103 80
96 115 101
102 117 110
83 103 85
64 88 51
62 86 51
59 81 46
60 83 48
57 79 44
63 86 50
70 93 62
131 145 147
124 139 139
128 142 145
132 147 150
141 156 160
143 158 164
127 143 147
125 141 140
99 116 103
63 86 50
62 85 49
61 84 49
57 79 45
67 91 54
58 79 46
57 78 45
58 81 46
131 147 148
136 151 156
128 142 142
137 152 155
117 132 132
113 128 127
129 144 146
123 138 143
130 145 146
63 87 51
57 79 45
61 84 49
58 80 46
63 86 51
61 84 49
56 78 44
62 85 50
120 135 135
125 142 142
120 135 133
131 144 148
126 142 142
131 147 147
128 143 144
113 128 126
120 135 133
59 82 46
62 85 49
62 85 50
59 81 47
64 86 52
58 80 46
65 88 52
55 76 43
87 105 89
120 134 132
132 146 150
127 142 144
132 146 148
125 139 141
135 149 155
131 146 149
132 147 151
57 79 45
61 83 48
64 87 52
64 88 51
65 88 53
56 78 44
61 84 49
60 82 49
65 85 60
132 146 151
131 146 148
133 149 150
134 150 154
131 145 148
130 145 148
123 138 137
126 140 141
68 88 62
65 88 52
64 86 51
57 79 46
60 82 48
60 82 48
62 85 50
58 80 46
60 82 47
123 139 139
127 141 141
110 125 120
113 128 127
133 148 151
121 136 136
116 131 131
123 138 137
94 110 100
61 83 49
60 81 48
55 76 43
55 77 44
72 92 64
86 103 86
106 122 116
117 133 130
78 96 76
57 76 47
57 80 46
65 89 53
60 83 47
59 81 47
57 79 45
65 88 53
81 100 79
142 156 159
120 135 135
137 153 155
128 142 146
129 144 147
138 153 155
118 134 133
121 137 135
88 107 90
63 86 51
64 87 51
66 89 52
61 84 49
64 87 51
67 90 53
62 86 50
76 94 74
137 153 156
137 152 155
135 151 154
124 139 139
138 154 158
139 154 160
130 145 149
136 151 155
87 108 89
67 92 54
60 83 48
63 86 50
64 87 52
64 86 52
64 87 51
60 81 48
107 125 113
137 153 156
125 141 144
138 154 159
139 153 158
140 155 159
137 151 155
142 158 161
122 137 138
57 78 45
64 87 52
69 93 56
73 93 68
118 135 131
151 166 175
132 147 150
145 161 169
66 87 57
67 92 55
65 88 52
60 83 48
68 91 55
64 87 51
65 89 52
65 88 59
140 155 157
134 149 147
140 157 161
142 158 163
147 164 170
140 155 161
140 156 162
131 148 147
73 98 62
63 86 50
63 86 50
64 87 52
68 92 56
67 91 55
69 94 56
117 134 127
143 159 164
144 161 166
143 160 168
135 151 155
65 88 52
62 86 51
101 119 108
151 167 176
145 161 166
148 163 169
135 150 155
144 161 165
145 161 166
104 124 110
70 95 57
70 95 57
71 96 58
72 99 59
70 95 58
112 130 122
153 169 178
147 163 167
148 163 171
133 149 152
96 118 98
121 139 134
152 168 177
152 167 175
159 176 186
145 161 168
128 145 144
72 97 62
74 101 62
72 98 61
70 96 58
135 153 153
149 165 171
102 123 109
72 98 59
142 160 164
148 165 171
154 172 180
91 113 90
76 103 64
86 110 84
117 137 130
221 233 249
227 239 254
227 239 254
227 239 254
227 239 254
227 239 254
227 239 254
227 239 254
227 239 254
227 239 254
227 239 254
227 239 254
227 239 254
227 239 254
227 239 254
227 239 254
227 239 254
227 239 254
227 239 254
227 239 254
227 239 254
227 239 254
227 239 254
227 239 254
228 239 254
228 239 254
154 171 173
77 103 66
123 143 138
80 108 68
128 148 144
160 177 187
163 178 189
136 155 151
75 101 63
80 108 66
147 163 170
135 153 153
75 102 61
71 97 59
74 100 61
69 95 56
130 148 147
159 177 187
153 170 177
160 176 185
162 178 188
135 153 152
76 101 67
73 98 60
145 162 166
153 169 174
152 169 177
138 155 156
79 104 69
71 96 57
69 95 56
71 97 58
75 101 62
72 97 58
128 147 146
162 177 185
156 172 179
142 159 161
152 169 177
152 168 175
146 162 166
98 118 101
70 95 57
69 95 57
71 95 57
71 96 57
123 141 139
154 168 174
128 144 144
70 94 57
70 95 56
73 99 60
68 93 55
66 89 53
69 94 56
69 94 56
130 148 146
166 180 190
144 160 165
146 162 166
145 160 165
142 157 161
145 160 164
144 160 165
89 109 91
62 87 50
60 84 48
61 85 49
66 90 53
66 91 54
65 89 52
68 93 55
134 149 153
142 155 158
131 145 145
137 153 156
137 153 156
134 150 151
140 154 160
120 136 130
88 110 89
138 153 157
139 155 158
144 160 166
141 157 162
146 162 169
141 155 159
133 150 148
148 164 170
63 87 51
63 87 51
68 92 55
61 83 48
67 91 54
58 81 47
67 91 53
61 84 50
101 117 111
135 151 156
140 155 158
143 159 165
146 162 167
128 144 146
142 158 165
129 145 145
133 148 150
75 97 66
64 87 51
61 84 49
67 91 54
64 87 52
64 87 51
64 87 50
59 81 46
73 95 67
137 151 156
138 154 157
135 150 155
145 161 168
136 152 153
132 146 148
136 151 153
126 141 142
102 119 108
63 86 51
61 85 49
55 76 43
58 80 45
59 81 48
66 89 53
60 82 48
65 88 53
124 141 138
123 139 140
119 135 133
139 156 160
136 150 153
136 153 155
121 136 138
132 147 150
126 141 140
58 81 45
67 88 60
100 116 108
92 110 93
94 112 100
114 130 122
122 138 135
122 137 140
124 140 143
59 80 47
58 80 47
59 81 47
67 92 54
63 86 51
57 79 46
62 85 49
64 86 52
102 119 110
116 129 127
119 134 132
119 134 133
119 133 132
128 142 145
135 149 155
131 147 148
124 139 139
68 88 64
58 80 46
59 80 47
61 83 49
60 81 47
61 83 49
62 84 49
58 80 47
64 86 52
139 154 160
123 138 138
120 136 138
136 152 157
121 135 135
126 141 142
120 135 134
138 152 154
134 148 150
64 87 51
59 81 46
65 89 53
65 88 52
56 78 44
57 78 44
57 79 45
62 84 49
88 106 90
127 142 144
134 149 150
118 133 133
137 153 158
126 142 142
127 141 141
133 148 151
126 142 141
85 103 87
61 83 49
59 81 47
58 80 46
59 80 46
64 86 51
60 83 48
57 79 45
62 84 50
129 143 144
141 156 163
134 149 154
114 130 127
132 148 152
116 131 127
130 145 149
133 147 150
134 148 152
60 83 49
62 85 49
60 83 49
67 90 53
67 90 53
66 89 52
61 84 48
68 89 59
100 115 107
104 120 110
115 130 126
102 119 109
84 103 83
78 97 74
62 86 50
63 86 51
60 83 48
125 143 143
123 138 136
125 140 141
128 144 146
135 150 155
123 139 139
129 144 145
131 146 151
128 143 145
71 94 62
59 80 48
65 88 52
62 85 49
60 82 48
56 78 43
60 82 47
60 83 49
64 86 53
124 140 141
125 140 142
120 137 135
130 144 147
124 141 141
140 154 162
131 146 148
126 141 141
114 131 126
61 83 48
60 82 48
65 88 52
60 82 48
65 88 52
61 84 49
61 84 49
66 90 53
126 142 141
134 150 154
124 140 138
141 156 161
140 155 158
133 149 151
142 157 163
140 156 161
133 148 151
64 87 51
63 86 50
65 89 53
63 87 51
63 86 50
64 87 52
64 87 51
65 89 53
99 118 105
128 144 148
126 142 143
151 166 175
139 154 158
140 156 158
138 153 157
114 131 127
83 103 84
138 153 160
147 160 166
144 159 167
143 159 162
143 158 164
131 147 148
134 151 154
140 155 161
76 96 71
67 91 55
67 91 54
66 90 53
71 96 57
64 88 53
64 87 51
65 88 55
128 145 143
139 155 160
141 158 164
145 160 168
137 153 156
129 145 145
150 165 171
125 142 141
76 98 72
62 85 50
65 89 53
62 86 49
68 93 56
73 98 59
68 92 55
120 137 133
92 113 92
72 97 59
69 94 56
66 90 53
65 90 54
68 92 55
98 118 107
143 159 162
150 166 175
148 164 171
147 164 172
155 171 182
140 155 159
120 138 137
74 100 61
68 93 56
64 88 52
72 98 60
69 94 56
81 106 75
137 153 157
144 161 165
67 93 55
67 92 56
68 93 55
84 106 80
138 155 160
139 155 158
147 164 171
142 160 167
159 174 184
93 113 97
68 93 55
70 96 59
69 94 57
97 118 101
75 100 65
74 100 61
76 104 64
125 144 138
166 183 198
148 165 172
125 144 140
84 108 76
148 165 173
77 103 69
207 220 235
228 239 254
228 239 254
228 239 254
227 239 254
227 239 254
227 239 254
227 239 254
227 239 254
227 239 254
227 239 254
227 239 254
228 239 254
228 239 254
228 239 254
228 239 254
228 239 254
228 239 254
228 239 254
228 239 254
228 239 254
221 233 247
149 166 163
90 115 88
169 185 198
108 131 116
147 165 172
166 182 194
152 170 177
118 139 131
72 98 59
73 99 60
71 96 57
146 164 167
76 103 63
73 100 61
73 99 59
80 104 71
149 167 176
164 179 190
152 170 177
158 175 184
162 180 190
115 134 125
78 106 65
76 102 62
73 99 59
73 99 60
74 100 61
115 134 125
68 93 54
68 93 55
72 98 58
69 95 56
66 91 54
90 112 89
143 159 162
152 166 172
151 167 174
143 159 161
148 164 171
155 172 180
152 169 174
67 91 54
65 89 52
72 97 59
64 88 50
71 97 58
73 98 59
70 95 57
126 143 139
143 160 163
74 95 71
70 95 56
73 99 59
70 96 57
69 94 56
82 106 80
145 162 168
136 151 154
144 159 164
151 167 172
134 151 153
140 156 159
138 154 157
141 157 161
73 97 64
70 96 58
67 91 54
67 91 54
63 87 50
66 90 53
65 89 52
64 88 52
122 139 135
124 141 141
149 164 168
141 157 160
145 160 164
130 146 148
143 158 163
144 158 163
132 148 149
67 91 54
64 88 52
58 80 46
65 90 53
77 98 72
115 132 126
139 154 158
145 161 166
78 99 75
66 90 53
61 84 49
66 89 53
66 89 53
66 90 52
67 90 54
69 94 56
71 92 64
133 149 154
140 156 160
140 155 159
138 154 157
138 154 156
139 155 160
129 145 148
135 151 154
110 127 123
61 83 48
62 86 49
60 83 48
63 86 51
64 87 52
58 81 46
62 84 50
65 89 53
106 123 115
135 150 154
147 162 165
130 147 150
138 152 157
132 148 148
133 149 151
128 143 143
139 155 158
91 110 92
64 88 52
68 93 54
69 94 57
61 84 49
62 85 50
67 91 54
62 85 50
67 91 54
126 143 140
138 153 160
126 140 141
131 146 150
125 140 140
135 149 153
128 142 143
116 132 132
117 134 128
59 81 48
66 89 52
63 86 51
66 90 54
60 82 48
68 91 54
68 91 54
63 86 51
66 89 53
134 147 152
130 146 147
132 147 150
141 156 163
138 154 159
127 141 142
124 138 135
133 148 153
137 152 156
59 81 48
59 81 47
77 98 72
89 107 91
74 93 70
99 117 105
100 117 107
90 108 92
116 132 127
102 117 111
101 118 112
83 102 85
79 99 78
83 102 82
72 92 64
71 93 61
55 76 44
58 80 46
128 144 145
118 134 131
141 157 161
135 149 153
127 143 142
142 156 160
131 147 149
130 145 147
129 145 144
61 83 49
58 80 47
58 81 46
65 89 54
65 89 53
65 88 52
65 88 51
59 80 46
70 92 63
144 159 167
137 152 156
133 147 154
124 141 139
136 152 154
125 141 142
126 142 141
115 131 129
112 127 122
75 96 73
66 84 62
85 104 85
88 108 88
77 96 77
92 111 94
102 117 109
99 116 107
105 121 116
96 112 101
102 118 108
84 103 86
83 101 85
72 91 69
65 88 52
61 83 48
60 82 47
110 127 121
130 145 148
140 154 158
125 141 138
121 137 138
133 148 153
132 147 149
128 144 145
134 149 153
93 109 99
65 89 52
61 82 47
63 86 51
61 83 49
61 84 49
61 84 49
58 81 47
60 82 47
110 127 123
137 152 156
132 147 148
131 146 148
124 140 138
135 150 154
136 151 155
127 141 141
133 148 151
67 88 61
57 79 46
63 86 51
58 80 46
59 82 47
64 87 51
57 79 45
64 88 52
64 87 52
117 132 130
146 161 168
141 157 162
144 158 165
129 144 145
137 152 157
137 152 156
133 149 153
133 149 153
64 86 54
61 84 49
58 81 47
62 85 49
57 80 45
60 83 48
64 87 51
65 88 53
75 95 73
133 148 152
139 155 158
134 150 152
128 144 146
134 149 152
133 148 152
136 151 154
137 152 156
107 125 119
64 87 51
64 88 52
62 84 49
65 89 53
59 82 48
67 91 54
58 79 46
62 84 50
114 131 124
106 125 115
67 92 55
65 88 52
66 90 53
67 91 54
66 90 54
63 87 51
95 117 93
140 156 159
133 148 153
145 160 166
140 156 161
132 148 149
146 163 171
144 159 163
139 155 159
74 94 68
69 93 56
65 89 53
61 84 49
65 89 53
68 93 55
67 92 55
68 93 56
131 146 148
139 155 162
139 155 158
137 154 159
141 157 164
155 172 179
145 160 167
152 168 175
84 105 84
68 93 56
66 90 54
72 98 59
109 126 118
133 150 152
145 162 171
141 157 162
73 97 61
65 88 52
62 86 50
62 86 51
71 96 58
66 91 54
71 96 58
129 146 146
152 169 177
144 160 166
147 162 170
153 169 179
150 166 174
136 153 155
93 112 96
68 93 56
71 96 57
70 96 58
67 91 54
101 120 105
119 137 133
73 99 60
75 102 63
68 92 55
69 94 57
72 98 59
131 147 148
153 169 176
155 171 179
150 167 171
150 166 172
121 139 137
72 97 58
69 94 56
86 107 86
150 168 176
96 118 99
68 93 55
75 102 62
87 110 85
149 167 175
163 179 192
147 163 166
149 165 171
152 170 176
98 120 97
185 198 205
228 239 254
228 239 254
228 239 254
228 239 254
228 239 254
228 239 254
228 239 254
228 239 254
228 239 254
228 239 254
228 239 254
228 239 254
228 239 254
228 239 254
228 239 254
228 239 254
217 229 242
112 132 116
117 136 128
161 179 188
158 176 185
173 189 202
153 171 177
156 173 181
90 114 86
76 103 62
76 102 62
106 128 106
159 176 185
148 165 172
113 133 122
77 104 64
111 131 119
153 169 175
155 171 177
161 177 188
158 174 183
152 169 177
90 114 86
76 102 61
73 98 59
73 99 59
70 95 57
87 110 81
143 160 163
168 184 197
116 135 124
76 103 62
71 97 58
70 95 56
106 125 116
146 163 167
143 158 162
157 172 180
155 173 179
147 163 168
157 173 183
107 126 114
69 95 57
69 94 56
71 96 57
72 98 59
67 91 54
69 94 55
85 109 79
138 156 160
142 160 163
161 177 187
146 162 165
151 167 176
144 159 163
91 113 89
72 95 65
147 163 166
153 168 173
145 162 167
150 165 170
145 161 164
133 150 153
158 174 184
125 142 141
72 95 65
70 95 56
65 90 52
70 94 56
70 95 56
67 91 53
66 91 53
64 88 51
120 137 136
152 167 174
145 160 165
149 166 175
147 162 167
147 163 171
142 158 162
144 160 166
130 146 147
66 91 52
67 91 55
67 92 54
67 91 53
66 90 53
61 83 48
64 88 52
64 87 50
120 138 133
151 167 173
140 155 159
135 150 154
77 97 75
64 88 51
67 91 54
64 87 50
63 87 50
123 139 137
137 152 154
134 150 151
141 157 162
147 161 166
131 147 146
140 156 160
147 162 169
140 156 161
72 93 65
68 92 56
63 86 51
57 78 44
65 88 52
65 89 52
67 92 55
68 93 55
66 90 53
150 167 173
140 155 160
139 155 159
139 154 159
137 154 158
142 156 161
138 153 158
138 153 157
132 147 150
72 95 61
67 91 54
66 90 53
67 91 54
66 89 53
61 83 49
66 90 54
62 85 50
65 88 52
135 151 154
126 140 141
134 149 152
133 148 150
130 145 147
130 146 146
136 151 154
137 152 155
124 140 138
64 85 56
61 83 48
59 81 46
55 77 43
62 85 49
66 90 53
63 85 51
57 79 46
62 84 49
129 145 145
131 146 149
135 150 153
130 147 150
129 144 146
139 154 157
131 144 146
122 138 137
133 148 153
94 112 100
56 78 44
68 93 55
62 86 51
59 82 47
59 80 46
62 84 49
60 83 48
63 87 51
114 130 124
136 150 154
124 139 140
139 154 157
131 146 150
124 138 140
127 143 142
136 150 154
134 148 152
103 119 114
65 89 53
61 83 49
60 82 48
66 90 53
59 80 47
65 88 52
68 92 56
64 87 51
82 101 81
129 145 146
124 139 138
139 155 158
131 146 149
134 150 153
139 153 157
141 155 161
131 146 149
130 146 149
61 84 50
61 84 49
61 84 49
64 87 51
65 88 51
65 89 52
62 85 49
59 81 47
65 88 52
138 154 157
129 144 147
144 159 164
141 156 161
128 143 142
123 139 139
136 152 155
127 142 143
136 152 155
65 88 53
58 80 46
60 83 48
59 81 47
60 83 48
62 85 51
61 84 49
68 92 55
59 81 47
134 149 151
135 149 154
127 143 144
138 153 158
138 154 158
129 144 146
142 156 160
126 142 144
138 152 157
59 80 49
64 86 51
56 78 45
62 85 50
63 86 50
64 88 51
64 86 51
66 90 54
66 90 53
125 141 141
131 146 148
121 136 135
125 140 142
124 139 140
143 159 163
142 157 162
139 154 161
136 152 156
87 107 83
64 88 51
67 91 54
58 80 46
63 87 50
58 80 46
61 84 50
61 84 49
62 85 50
115 130 128
130 147 149
139 154 157
142 158 162
134 149 151
133 149 151
142 158 161
136 149 153
129 144 146
86 105 86
63 87 51
60 82 47
56 78 45
69 92 55
65 88 52
62 85 50
62 85 49
64 87 51
121 136 137
145 161 170
126 141 142
136 152 158
130 147 150
135 151 155
141 157 163
137 153 157
134 150 152
81 101 80
65 89 52
73 93 67
112 129 123
124 141 141
143 158 165
140 156 160
129 146 144
122 139 138
69 93 59
63 87 51
67 92 55
60 82 48
63 86 50
73 99 60
69 93 57
70 95 57
101 119 108
148 163 170
132 148 151
133 150 150
138 153 157
145 160 164
142 157 164
136 151 156
137 152 156
73 96 64
66 91 54
69 94 56
65 89 52
66 90 53
64 88 52
67 91 54
66 91 54
108 125 119
141 155 160
157 172 181
147 163 169
139 155 158
140 155 162
144 160 167
146 163 171
97 116 101
148 164 170
144 161 165
154 170 178
151 166 176
146 163 171
150 167 172
150 165 173
89 111 86
74 100 61
67 92 55
69 94 56
68 92 56
69 93 55
64 89 52
125 143 139
137 153 158
148 165 174
153 169 179
159 176 187
160 177 189
151 167 175
115 133 127
72 98 59
68 93 56
146 162 171
144 161 164
146 164 173
132 150 151
75 98 68
73 99 61
69 93 56
73 98 60
70 96 58
102 123 109
154 171 181
140 157 162
143 158 163
138 155 156
152 170 180
84 106 78
148 165 172
155 171 181
159 176 187
125 144 141
75 101 62
70 95 57
73 100 62
133 152 152
159 175 186
117 137 128
151 169 176
155 172 185
104 127 111
164 179 179
228 239 254
228 239 254
228 239 254
228 239 254
228 239 254
228 239 254
228 239 254
228 239 254
228 239 254
228 239 254
228 239 254
228 239 254
212 224 236
86 113 75
141 161 163
165 182 190
128 147 145
80 107 68
167 184 196
129 147 143
76 104 63
76 103 63
80 108 66
116 136 127
160 178 186
158 174 181
164 180 191
157 174 182
147 164 167
160 176 185
155 173 182
165 181 191
160 176 185
126 145 143
70 95 57
75 101 61
73 100 60
76 103 61
74 100 61
107 127 115
141 157 159
142 159 162
155 171 179
165 181 191
156 173 183
84 105 84
122 140 138
156 172 182
147 163 167
150 168 171
149 165 170
138 156 158
158 175 187
107 128 111
71 97 58
66 91 53
71 97 58
78 104 62
73 98 60
70 95 57
98 118 101
143 160 162
142 158 161
148 164 170
150 167 171
151 168 172
140 156 159
162 179 189
126 144 142
70 96 57
65 90 52
130 147 147
138 153 157
152 169 177
144 160 167
143 160 166
138 154 156
80 104 69
62 86 51
71 96 58
66 90 53
66 91 52
69 94 55
63 86 51
69 94 55
122 138 135
143 159 162
140 155 159
148 165 173
147 163 168
141 158 159
148 164 171
140 155 157
150 167 174
78 105 67
60 83 48
67 91 54
70 95 57
70 96 58
65 89 52
67 91 54
67 91 53
82 102 80
146 163 169
156 172 179
145 161 167
157 172 182
149 164 171
145 161 167
145 160 165
135 151 154
124 140 137
79 100 75
113 130 125
127 143 142
146 162 167
137 152 158
134 150 152
143 158 163
146 163 167
123 141 141
63 87 51
60 83 48
64 87 51
67 91 54
68 92 54
57 79 46
68 93 56
66 90 53
71 92 66
141 157 162
142 156 162
128 143 143
136 152 154
138 154 155
148 164 169
138 154 159
139 154 161
147 162 167
65 88 53
64 88 51
70 95 57
57 79 45
66 89 52
64 88 51
61 84 48
62 85 49
62 85 49
140 155 159
137 152 156
140 155 160
145 161 165
130 145 148
135 151 152
133 149 151
133 149 154
128 144 146
93 113 96
67 92 55
66 89 53
65 88 52
56 78 44
64 87 51
60 83 48
64 87 52
61 83 49
92 110 95
139 154 157
134 149 150
137 151 156
128 143 143
131 146 148
141 156 157
143 158 165
146 160 166
140 156 161
64 88 52
61 84 49
60 82 48
64 87 51
67 90 54
63 86 51
59 82 47
56 77 44
63 86 51
131 146 147
134 149 152
141 156 159
137 152 156
124 139 139
123 139 139
127 142 143
136 152 155
124 139 140
73 91 72
61 84 48
66 90 52
60 82 48
61 85 48
62 85 49
60 82 47
62 85 49
59 82 48
86 106 86
130 146 149
129 145 146
129 145 145
129 145 150
137 151 157
128 143 144
126 142 145
140 155 160
134 148 150
61 84 49
65 89 53
65 88 52
64 88 51
58 80 46
63 87 51
62 85 49
64 87 52
62 85 50
128 143 144
134 149 152
143 158 161
130 145 147
127 142 144
129 144 145
120 136 133
133 148 151
126 141 141
89 107 90
61 84 48
61 84 50
63 86 51
66 90 53
64 87 52
62 85 51
62 86 51
60 82 48
77 98 72
135 149 152
137 152 158
140 155 160
135 150 153
144 158 165
130 147 147
117 135 132
134 148 148
124 138 138
61 84 49
56 78 43
65 88 52
63 85 50
55 76 44
65 88 52
60 83 48
62 85 51
63 85 50
129 145 144
134 149 155
139 153 157
135 151 154
137 152 155
132 148 148
123 138 137
132 148 152
134 149 153
91 110 93
65 88 53
63 86 51
57 79 46
63 86 50
62 85 50
60 83 48
68 92 55
61 83 50
120 137 135
137 153 155
133 149 152
137 152 155
139 155 161
142 159 162
141 157 163
120 137 133
138 153 156
120 137 133
59 82 47
63 87 50
68 93 56
61 84 49
68 93 56
61 84 47
63 86 50
69 94 56
78 99 74
135 150 152
137 153 156
131 146 150
150 166 174
122 140 134
104 122 115
71 95 59
66 90 53
89 108 89
135 150 152
144 160 165
137 152 156
135 151 154
140 155 159
135 151 155
131 147 149
128 146 147
122 139 136
61 83 49
68 93 56
66 90 53
69 94 56
64 89 52
65 88 52
63 86 50
67 91 55
114 130 126
131 147 148
147 162 169
134 150 153
127 144 145
142 158 162
150 166 173
152 168 174
140 156 158
76 97 72
68 92 55
72 97 59
71 95 57
64 86 50
69 94 56
68 93 55
68 93 56
121 136 132
155 170 180
138 154 160
145 161 168
81 104 77
64 88 52
74 100 61
69 94 56
119 137 135
143 159 166
144 161 166
147 161 170
151 166 175
146 162 169
150 166 174
140 156 162
95 115 99
66 91 55
64 88 52
70 95 57
70 96 58
68 93 56
72 98 60
91 112 90
143 160 165
145 162 170
144 162 167
143 158 164
162 179 191
152 168 179
108 125 116
145 162 168
162 178 188
156 173 183
142 158 167
155 171 181
151 168 177
96 119 97
69 94 56
73 99 60
71 97 59
70 95 57
82 108 75
128 145 144
147 163 170
142 159 166
152 169 177
93 116 96
136 153 155
161 179 191
157 175 186
154 170 180
142 159 166
78 103 69
72 99 60
68 95 57
125 145 141
138 157 158
76 103 63
128 146 142
165 182 192
128 146 141
165 180 182
228 239 254
228 239 254
228 239 254
228 239 254
228 239 254
228 239 254
228 239 254
228 239 254
209 221 232
123 142 136
150 169 175
154 173 182
121 142 135
79 107 66
82 108 69
129 150 143
78 105 64
76 103 63
79 107 65
146 163 166
155 173 180
154 172 178
148 165 171
146 163 172
84 111 75
76 103 62
154 171 177
158 175 182
157 175 185
109 128 117
74 102 61
71 97 58
73 100 60
73 100 60
73 99 60
125 146 141
152 169 175
146 165 171
158 175 186
156 173 182
154 170 177
146 163 168
82 106 78
74 100 60
158 173 182
156 172 181
161 178 188
164 182 193
144 160 160
86 108 81
77 104 63
74 100 60
68 93 56
73 99 60
71 95 56
64 88 51
110 131 115
146 161 165
147 163 169
142 159 163
155 171 175
146 162 168
160 176 183
147 164 168
134 150 149
74 100 60
70 95 57
71 96 57
68 93 55
65 90 53
66 90 52
76 97 71
145 161 163
64 88 52
66 90 53
70 95 56
66 91 53
68 93 56
69 94 57
68 93 55
70 95 57
112 128 122
145 161 166
160 175 186
151 166 172
142 157 162
137 154 155
139 156 159
141 157 160
141 158 164
83 104 80
71 96 58
70 95 57
65 89 53
67 92 55
67 91 54
68 92 55
62 85 49
71 94 58
139 155 159
140 155 161
135 151 155
152 168 176
137 153 154
141 156 163
142 158 164
146 162 167
140 157 160
80 102 75
61 83 48
68 92 54
63 86 51
65 89 51
69 94 55
61 84 48
65 89 52
89 109 92
123 139 138
79 102 72
63 86 51
63 87 50
73 98 60
70 94 56
64 86 50
67 91 54
69 93 55
84 103 85
141 156 162
140 155 160
138 153 158
134 149 152
131 147 152
137 152 156
136 151 154
139 154 155
134 150 151
65 88 52
63 87 52
68 93 55
64 88 51
55 77 44
67 91 54
66 90 53
65 88 52
67 91 54
139 155 159
134 148 150
144 159 165
142 157 162
141 156 161
125 141 140
120 136 135
137 153 158
142 157 161
106 123 114
71 96 58
67 91 53
65 88 52
70 94 56
69 93 55
62 84 50
61 84 49
65 89 53
67 91 56
133 149 153
144 159 166
130 146 146
139 155 162
130 144 148
137 152 155
132 148 150
132 147 147
129 143 146
66 88 58
61 84 48
62 86 49
64 87 52
64 87 51
65 89 52
63 86 50
65 89 53
66 89 53
64 86 54
136 151 155
133 148 152
134 148 150
129 144 148
136 151 155
126 141 141
132 148 147
132 147 150
119 135 132
61 84 49
57 79 46
63 88 51
64 86 51
64 87 51
61 83 48
65 88 51
58 81 46
64 86 51
85 104 89
143 157 162
142 157 165
140 155 157
129 144 144
135 151 154
143 158 162
123 139 141
134 150 155
131 146 147
64 88 52
65 88 51
62 84 48
65 89 52
60 83 48
58 80 46
61 83 48
62 86 50
64 88 51
120 137 135
131 145 150
141 157 162
134 150 153
130 146 148
145 161 167
130 145 148
147 162 170
135 149 153
140 155 160
57 79 45
64 87 52
60 83 47
61 83 49
63 86 50
66 89 53
64 87 52
65 88 51
64 87 52
131 146 148
139 154 158
129 144 145
133 148 150
137 152 155
141 155 159
136 152 156
149 164 171
129 145 150
138 153 156
64 88 52
60 82 47
67 90 53
61 85 49
67 91 53
66 89 53
67 91 55
66 90 54
62 86 50
124 139 142
122 138 138
144 159 166
137 153 155
139 153 156
140 156 160
135 150 153
140 156 160
138 154 159
100 117 109
65 89 52
64 87 52
61 84 50
59 82 46
65 88 54
62 86 50
60 83 48
61 83 48
88 109 86
144 160 166
120 137 135
122 138 138
143 158 165
134 150 151
138 155 158
127 143 146
131 147 149
130 146 145
64 87 51
63 87 51
66 89 53
65 89 52
59 81 47
68 91 58
102 121 108
118 134 131
138 153 155
81 101 79
64 88 51
74 99 60
64 88 52
66 90 53
61 83 48
62 85 50
59 82 47
70 94 56
113 129 123
145 159 166
142 157 162
148 162 169
137 152 156
141 157 162
146 161 168
152 167 174
141 156 161
100 120 103
66 91 54
66 91 54
69 94 57
65 89 54
66 91 55
69 94 55
67 91 54
70 94 57
117 135 131
140 156 160
150 166 173
144 160 165
150 166 175
143 159 165
150 167 174
142 158 165
139 154 160
78 103 71
65 89 52
68 92 56
65 89 52
64 87 52
69 93 56
68 94 56
111 130 122
114 133 127
65 88 52
69 95 57
68 93 55
66 90 53
68 93 55
67 92 55
72 98 59
110 129 120
142 158 164
148 165 171
139 157 161
146 161 167
138 155 159
149 166 175
141 157 163
117 135 134
70 95 57
68 93 56
72 98 59
67 91 54
72 98 60
59 82 46
85 108 78
154 169 173
157 173 183
147 163 170
90 113 90
65 90 54
71 96 57
79 103 71
142 158 160
138 155 158
155 172 180
150 166 174
155 172 182
154 172 179
110 129 124
71 96 59
72 97 59
75 102 62
74 100 61
71 97 58
119 141 131
155 172 181
116 136 131
74 99 60
71 97 59
107 128 114
157 173 184
153 171 180
160 177 190
157 172 181
91 114 90
73 100 60
73 100 61
93 117 94
79 105 68
76 103 63
110 131 119
167 185 199
141 160 159
184 199 210
228 239 254
228 239 254
228 239 254
228 239 254
207 219 230
160 178 187
162 179 190
167 184 194
97 121 97
78 105 64
75 102 63
150 167 174
80 108 67
77 105 64
86 111 81
155 173 180
154 170 178
147 164 169
155 171 176
139 156 156
74 101 61
72 99 59
73 100 60
75 101 61
153 170 175
81 107 74
77 104 64
69 93 55
77 105 64
76 102 61
81 107 71
147 164 168
154 172 181
156 173 183
162 179 188
155 172 178
159 175 184
133 148 150
70 96 58
67 92 55
75 101 62
71 96 58
68 93 56
152 168 175
149 165 169
79 103 72
69 94 56
72 98 59
74 100 61
71 97 58
71 96 56
71 97 58
115 133 123
149 165 170
150 166 170
152 167 172
153 168 174
144 161 166
147 163 170
140 157 158
118 135 132
72 98 59
70 95 56
71 97 57
64 88 52
70 96 57
71 96 58
68 92 55
78 98 76
141 158 162
134 151 152
143 159 162
123 140 139
72 97 61
70 94 57
68 93 56
67 92 54
109 127 117
147 163 168
147 163 170
146 162 168
154 169 176
142 159 164
142 158 164
157 173 182
155 171 177
103 123 110
60 83 48
67 91 54
69 93 55
66 90 53
68 94 55
67 92 54
68 93 54
68 92 53
108 125 118
143 158 164
146 162 167
142 157 163
142 156 159
145 160 163
149 164 172
132 147 149
147 163 171
116 133 123
64 87 52
69 93 56
68 91 54
66 90 53
63 86 51
71 95 58
70 95 57
65 89 52
76 98 70
144 159 164
140 156 162
143 159 165
147 163 169
139 154 157
150 166 173
137 153 157
122 137 137
96 114 97
133 149 150
136 152 158
134 149 153
142 157 165
137 152 153
138 154 158
139 153 158
145 160 167
139 155 158
123 140 135
67 91 55
66 90 53
65 88 51
63 86 50
63 87 51
66 90 53
66 89 52
63 86 51
64 88 51
132 148 149
144 159 162
130 144 142
148 163 169
152 167 174
143 157 161
144 159 164
146 161 169
145 161 168
115 134 127
67 90 53
66 90 53
60 83 48
62 85 50
67 90 54
58 81 46
64 88 51
68 92 55
69 93 55
142 158 161
137 153 156
134 150 152
154 170 178
125 139 143
132 147 148
132 147 150
146 161 169
133 148 149
121 137 137
63 86 50
58 81 47
62 85 49
65 88 52
64 88 52
62 85 49
66 89 52
64 87 51
59 82 46
125 140 140
133 148 150
129 144 145
129 144 146
138 152 158
134 149 147
142 158 163
135 151 156
131 146 148
116 132 129
63 87 51
58 80 46
64 87 52
61 84 48
63 86 50
66 90 52
63 87 51
59 82 47
61 84 49
119 135 132
130 145 146
137 152 155
135 150 152
143 158 165
129 144 146
124 140 139
138 153 158
133 148 149
128 144 146
63 86 50
64 87 51
66 89 52
64 87 51
64 88 51
64 87 51
61 84 49
63 86 50
64 87 51
91 109 91
143 159 165
143 158 163
130 145 145
134 150 155
139 154 157
123 139 138
137 153 157
130 146 147
129 143 146
67 90 56
70 94 56
68 92 55
66 90 53
61 85 49
71 96 57
63 86 50
62 85 49
61 84 49
66 90 53
126 140 139
131 148 150
143 158 164
140 155 162
135 151 153
125 140 140
128 143 147
142 156 159
132 148 149
95 113 102
68 92 54
68 92 55
69 93 56
63 86 51
68 93 55
61 84 49
66 90 53
66 90 53
65 88 52
129 145 145
133 148 151
134 149 153
134 149 150
136 151 154
146 160 165
134 148 152
143 158 164
137 152 153
95 113 98
67 92 54
66 90 53
61 84 49
69 93 56
67 92 54
63 85 50
63 86 50
66 89 53
69 93 59
136 151 156
153 167 176
131 147 149
137 152 156
143 158 163
135 151 152
135 152 155
122 139 137
111 128 118
101 119 108
133 149 152
140 156 158
140 156 162
134 150 154
136 152 156
131 148 149
136 152 156
125 140 141
125 142 141
59 82 47
64 88 52
66 90 52
68 92 55
66 89 52
68 93 55
67 90 53
68 93 55
67 89 55
141 156 158
147 162 169
144 159 165
135 152 154
136 152 156
150 166 172
146 161 166
136 152 154
138 153 157
75 98 66
71 96 58
68 94 56
60 82 47
68 92 54
62 85 50
67 92 54
69 93 56
63 86 53
131 148 148
135 151 157
134 151 151
150 166 174
152 168 177
146 163 170
149 164 172
155 172 181
141 157 162
71 95 60
65 89 53
100 120 105
149 165 172
148 164 170
141 155 161
142 158 164
155 170 179
115 133 126
65 90 54
64 88 52
63 87 51
71 96 58
64 87 51
71 96 58
70 95 57
90 111 91
147 163 168
153 169 178
151 167 173
155 170 179
154 170 179
157 173 180
151 168 175
105 122 115
73 99 61
70 95 57
74 100 60
66 91 54
65 90 53
71 97 59
70 95 61
106 126 113
73 99 61
74 100 61
69 94 56
70 95 57
74 100 61
70 96 58
134 152 153
146 162 168
154 171 179
154 170 181
141 158 163
162 179 189
134 151 154
77 102 68
73 99 60
74 100 60
73 100 61
76 103 63
104 125 110
75 101 61
73 99 60
70 95 58
75 102 63
82 106 79
144 162 168
155 171 180
157 175 186
153 171 183
122 143 136
69 95 57
120 139 132
158 174 186
103 128 106
71 98 59
99 122 101
159 176 186
153 172 179
172 187 197
228 239 254
176 192 206
145 164 167
162 180 190
88 114 83
80 108 66
94 119 94
156 173 181
162 179 189
81 108 68
117 137 127
169 186 202
160 177 187
165 182 193
158 174 183
116 137 126
79 107 66
74 101 61
73 99 59
76 102 63
104 127 107
161 178 187
74 100 60
77 103 62
71 97 58
74 100 59
95 117 97
158 174 182
163 180 189
157 175 184
164 180 188
156 173 181
151 167 176
128 145 141
67 92 54
75 101 61
75 101 61
75 101 61
73 100 60
71 96 58
108 128 118
143 160 162
110 131 120
73 100 60
75 102 62
71 96 57
72 98 58
78 104 63
111 131 122
145 160 166
154 171 177
155 170 176
154 169 178
142 158 163
152 169 178
144 160 166
115 134 126
73 99 60
72 98 59
74 100 61
74 99 60
69 95 56
67 92 54
75 101 61
78 102 67
151 167 175
159 176 184
160 176 184
150 166 173
155 171 179
134 151 153
151 168 174
148 165 171
114 132 124
142 159 164
151 167 173
149 165 171
144 161 165
156 172 181
152 167 172
141 158 164
138 154 158
125 142 140
70 95 57
70 95 57
66 90 53
72 97 59
71 97 58
66 91 54
74 101 61
74 100 61
96 117 99
140 156 160
141 158 164
147 162 169
137 154 155
138 156 159
148 164 169
144 160 165
139 155 161
138 154 157
65 89 52
70 96 58
72 96 58
64 88 51
68 92 55
67 91 54
65 89 53
67 91 54
71 96 58
121 138 135
142 157 161
146 162 167
136 153 155
144 160 164
133 148 149
134 150 151
130 146 146
139 154 159
143 159 165
69 93 56
63 87 50
69 94 56
67 91 54
67 92 54
71 96 58
88 109 88
92 111 94
117 134 129
110 128 118
66 91 54
69 94 55
66 90 52
65 89 53
61 85 49
65 88 52
65 89 52
61 84 47
61 84 49
134 150 154
138 154 158
129 145 147
143 158 162
123 140 140
129 145 147
143 159 164
138 154 158
128 144 145
132 149 149
64 87 51
61 83 48
66 90 53
63 87 50
61 84 48
68 93 55
64 87 51
71 96 57
67 90 54
109 126 121
136 152 154
140 156 160
148 163 169
138 154 157
127 143 143
147 163 168
140 155 160
127 142 144
136 152 156
66 90 53
61 84 49
67 91 54
65 89 52
63 86 50
68 92 55
65 89 52
68 92 54
60 82 48
65 88 52
129 145 148
137 152 155
142 157 161
130 146 149
127 143 144
131 146 147
148 162 170
139 154 158
133 150 152
144 159 161
67 91 54
65 88 51
60 83 48
60 82 48
66 90 54
65 89 52
67 92 55
66 90 53
62 85 49
111 127 121
138 154 155
128 143 144
134 149 149
147 162 168
131 146 145
121 137 137
139 155 160
138 153 158
124 140 141
69 93 56
62 85 49
68 92 55
65 89 52
59 82 47
62 84 50
69 93 56
66 90 53
64 87 51
61 85 49
133 148 148
135 151 155
140 156 158
149 163 170
132 148 149
139 154 158
138 152 157
131 146 150
135 150 154
113 129 126
67 91 54
67 91 55
64 88 51
66 90 52
63 86 50
65 90 53
61 83 47
60 82 47
67 90 53
110 129 118
133 147 150
130 147 148
143 159 165
133 148 151
129 144 147
123 138 137
141 157 160
135 151 153
147 162 167
54 75 42
65 89 52
66 90 53
61 83 50
62 85 50
62 85 50
64 87 51
63 86 51
63 86 50
68 90 62
154 169 176
139 153 156
143 159 163
139 154 158
144 159 165
139 155 161
150 164 171
121 137 136
130 147 148
100 117 107
67 91 54
65 89 52
63 86 51
63 86 51
64 87 52
64 88 51
73 95 66
92 113 90
121 139 133
85 104 85
63 86 50
61 84 49
67 92 55
62 85 50
69 93 56
61 83 49
64 88 53
65 89 53
88 109 87
136 151 157
141 156 162
137 151 153
137 152 154
137 152 157
130 147 146
142 158 159
133 149 147
141 157 164
74 96 66
63 87 51
63 87 51
67 91 55
67 91 54
70 94 57
64 88 51
73 99 60
67 91 55
92 109 97
145 160 166
143 158 161
144 161 166
141 156 157
148 164 173
141 156 162
134 151 155
142 157 160
142 158 164
64 87 52
66 90 52
68 93 55
63 87 51
67 92 54
71 97 58
67 91 53
67 92 55
80 101 77
141 158 163
129 145 146
134 150 151
146 162 168
144 159 162
139 155 158
112 130 123
70 95 57
89 109 91
141 156 162
152 168 176
153 168 179
142 157 163
145 161 167
143 160 166
142 157 161
140 157 162
121 138 134
70 95 57
75 101 61
69 94 57
69 95 56
65 89 53
74 100 60
67 92 55
85 108 80
149 165 172
145 162 166
153 169 181
142 159 164
149 165 174
151 168 177
135 151 156
137 155 157
67 91 57
69 93 56
69 95 56
73 99 61
143 160 164
146 162 169
147 163 169
104 124 114
73 99 59
72 97 59
75 101 62
73 99 60
73 98 60
72 98 59
117 137 134
164 181 194
151 167 173
149 165 172
157 174 183
149 166 173
134 151 152
84 109 77
75 102 63
70 96 57
126 145 144
149 167 175
149 167 175
89 113 88
75 102 62
72 98 60
72 98 59
71 96 61
142 159 159
161 177 188
162 179 188
164 182 193
135 153 152
155 173 182
165 181 193
158 175 186
115 135 126
71 97 58
78 102 70
153 170 179
109 130 114
160 177 185
77 104 63
76 103 62
113 134 124
154 170 175
164 181 192
162 180 191
141 160 162
168 184 196
161 178 191
160 177 189
164 181 192
87 113 82
76 103 63
72 98 59
73 99 59
73 98 59
123 143 137
158 174 182
162 179 191
154 172 181
87 111 83
74 100 60
109 128 116
166 183 194
162 179 189
157 174 182
159 175 183
161 178 189
159 175 183
108 129 113
74 100 61
74 99 59
72 99 60
75 101 61
74 99 60
75 101 61
104 124 109
154 170 178
154 170 178
144 162 165
162 180 191
153 170 175
71 96 57
73 100 60
140 157 161
153 169 175
146 162 164
156 172 183
146 163 166
154 170 177
157 173 183
159 176 187
130 148 148
71 97 58
71 97 57
71 96 57
71 96 57
69 94 56
71 96 57
72 97 58
85 109 79
149 166 172
138 154 158
166 181 192
148 166 171
163 177 188
150 167 172
163 178 187
155 172 179
134 152 151
71 96 58
72 98 59
74 99 60
67 91 53
77 100 67
126 142 139
148 164 168
148 164 169
130 147 147
66 90 53
71 96 57
70 95 57
64 88 51
68 92 55
67 92 54
73 99 60
66 90 54
65 88 52
146 162 167
148 164 169
138 154 157
148 163 170
145 159 166
150 166 171
150 166 175
144 160 166
147 165 174
107 126 117
63 87 51
70 96 57
67 91 55
59 82 47
70 95 57
63 87 51
66 91 53
66 90 54
68 91 56
150 165 172
134 150 150
147 163 167
144 159 163
140 156 161
152 168 177
139 156 158
140 156 158
143 158 164
121 137 133
66 91 54
71 95 57
69 94 57
69 94 56
62 85 50
64 87 50
69 94 56
66 90 54
68 92 55
138 154 159
145 161 164
133 149 152
138 153 158
146 161 166
141 157 160
127 144 144
134 151 151
131 147 147
113 130 124
117 134 127
140 156 159
148 163 172
121 137 137
142 158 166
143 159 164
133 149 151
132 147 149
129 145 147
135 150 154
70 95 56
66 90 53
65 89 52
69 94 55
69 94 56
66 90 55
64 87 51
65 88 52
65 88 52
65 89 51
138 153 156
138 154 158
138 152 155
146 162 168
139 154 159
149 165 171
134 150 152
143 158 165
134 148 150
137 153 158
65 89 52
60 82 48
70 95 57
69 93 56
58 81 46
68 91 54
62 86 49
64 87 51
59 82 46
93 111 98
130 145 146
131 146 149
142 158 163
145 160 164
137 152 155
139 155 158
136 152 154
135 151 156
124 140 139
109 126 122
63 86 51
65 89 52
62 85 50
62 84 49
68 92 55
64 86 50
62 85 50
62 85 50
64 87 52
130 146 146
129 145 146
141 155 161
134 150 153
135 149 152
147 161 164
127 143 143
143 158 162
133 149 151
131 146 149
76 99 71
60 83 49
60 83 48
64 88 51
58 80 46
60 83 49
67 90 54
63 86 51
61 84 48
67 91 54
144 158 164
138 154 155
139 154 157
129 144 148
127 142 144
145 160 165
129 145 147
136 152 155
142 156 163
139 155 161
67 90 54
66 90 53
60 82 48
59 82 47
66 90 54
68 93 55
60 83 48
60 83 48
68 92 55
65 89 53
135 150 155
147 162 168
143 159 167
133 149 151
136 152 157
143 157 163
149 165 176
140 155 157
122 138 138
136 152 155
57 79 45
67 92 54
68 93 55
58 80 47
67 91 55
66 91 55
63 87 51
67 92 53
66 90 54
79 99 79
140 156 161
146 161 169
142 158 163
139 154 156
136 151 154
118 135 132
131 147 148
111 129 121
99 119 104
98 117 102
122 138 139
133 148 151
140 155 159
147 162 169
141 158 161
147 162 169
131 147 145
131 148 149
135 151 155
88 109 88
64 87 51
66 90 53
71 96 57
66 90 54
67 91 54
65 89 52
63 86 50
67 92 54
67 91 55
136 150 152
143 157 162
146 161 166
143 159 163
141 158 164
137 154 162
145 161 168
144 160 164
137 151 156
126 143 141
67 91 55
68 93 55
69 94 57
61 84 49
69 92 55
67 92 55
65 89 53
68 93 55
61 84 49
136 153 157
141 157 163
150 167 173
137 154 156
139 155 156
149 165 173
141 158 161
139 155 158
150 165 174
103 123 112
69 94 56
67 91 54
71 96 57
70 95 57
66 91 54
66 90 54
75 101 61
68 93 54
89 112 88
142 158 163
93 114 98
65 89 54
68 93 56
67 91 54
63 87 51
66 91 54
65 88 52
96 115 100
150 165 172
148 164 174
143 158 162
134 150 153
149 165 174
149 166 171
154 169 176
147 164 173
103 123 112
68 93 55
68 93 56
71 96 59
69 93 56
67 91 55
75 100 62
68 93 55
84 107 80
150 167 174
139 155 158
154 170 180
149 166 173
150 166 174
151 168 176
151 168 174
149 166 169
97 117 104
156 172 180
148 164 171
148 165 170
153 170 179
151 168 178
147 163 169
122 140 138
67 91 55
66 91 54
69 94 56
70 96 57
71 96 59
75 101 62
102 124 108
150 168 175
154 170 178
153 170 178
151 167 171
163 180 191
155 171 179
111 129 120
158 176 188
155 174 183
151 170 178
159 176 188
157 174 183
98 121 105
78 106 65
75 101 62
71 96 58
72 98 60
131 149 141
152 170 179
156 171 182
162 179 189
97 121 94
158 175 182
161 178 189
154 173 183
129 149 146
74 101 61
78 105 63
77 104 64
130 148 146
176 192 205
168 185 196
160 177 184
115 137 118
78 106 64
166 183 192
158 174 180
158 176 183
81 108 69
75 102 63
73 100 60
76 102 61
74 101 60
138 154 157
163 180 190
153 170 179
166 182 193
156 172 177
168 184 197
121 140 130
147 165 173
161 178 189
159 175 184
159 177 186
152 169 176
157 174 184
96 117 100
73 99 60
75 101 61
72 97 58
70 95 57
74 100 60
69 94 56
131 148 143
154 169 172
165 180 191
147 164 169
157 174 183
163 180 192
153 169 173
151 168 173
93 115 91
115 134 125
157 174 181
156 172 181
155 171 178
141 158 159
155 170 178
158 175 183
118 137 129
73 98 59
72 98 58
67 92 53
67 92 54
70 95 57
73 98 59
69 94 55
73 98 65
143 159 162
158 174 182
146 163 168
147 163 167
153 169 176
152 168 174
145 162 167
140 156 161
150 167 174
77 102 67
72 96 57
66 91 54
71 97 57
70 95 57
69 93 55
70 95 57
71 96 57
72 97 61
146 162 170
138 155 157
89 110 91
71 96 57
75 101 61
74 100 60
66 91 54
68 93 56
67 91 54
130 147 145
141 157 160
137 153 154
151 167 174
155 172 180
145 160 166
136 153 154
138 153 155
152 167 171
142 158 164
73 95 66
65 89 53
78 105 63
70 95 56
65 90 53
63 86 50
65 88 52
73 98 60
66 90 53
98 118 103
154 170 178
149 165 171
139 155 158
137 153 157
148 163 166
143 160 167
150 167 172
140 155 157
140 157 161
97 118 103
67 92 54
66 91 54
68 93 56
64 87 51
64 88 52
64 88 52
73 99 59
68 92 54
68 93 56
136 152 156
148 165 168
136 152 155
136 152 154
142 157 164
145 161 167
139 153 160
128 146 148
139 155 159
134 150 153
65 89 53
63 86 50
62 86 49
68 92 55
63 86 50
65 89 52
65 89 52
66 90 53
66 89 53
75 97 68
127 144 144
116 132 126
93 113 97
94 113 95
86 107 88
66 89 53
71 96 58
65 89 52
64 87 51
63 86 50
138 154 156
140 154 155
133 149 152
137 153 156
148 162 170
143 160 166
136 152 153
139 154 158
130 147 148
141 156 161
64 87 51
69 93 57
66 90 53
66 91 55
59 82 47
67 92 54
71 96 58
67 92 54
66 90 54
63 86 50
141 155 158
142 158 161
135 151 154
133 150 148
132 147 152
140 155 160
138 155 158
139 154 161
124 141 138
134 150 150
69 92 58
64 88 51
69 93 56
65 88 52
70 96 57
58 80 47
63 86 51
63 86 51
62 86 49
61 84 49
137 153 157
141 158 162
141 157 161
134 150 149
142 158 165
130 145 147
144 161 165
148 163 168
138 154 159
140 157 160
86 106 88
60 83 47
62 85 50
65 89 54
66 89 53
70 95 57
69 93 56
67 92 54
69 93 56
63 86 51
128 145 144
144 160 167
140 155 159
135 152 153
132 148 150
137 153 156
132 149 150
134 150 150
149 165 172
144 160 161
111 127 123
62 85 50
65 89 53
66 91 54
69 94 56
66 90 53
67 92 55
63 87 51
62 85 49
57 79 46
104 122 112
145 160 166
143 157 160
143 157 164
141 157 163
137 153 155
154 169 177
136 152 155
137 151 155
142 156 159
126 142 142
63 86 51
70 96 58
73 94 67
90 110 93
95 113 100
103 122 110
126 143 142
121 138 134
148 163 170
115 132 129
64 88 51
66 90 53
67 91 54
61 84 49
66 90 53
68 92 55
66 90 53
64 87 51
71 96 57
105 123 114
145 162 167
143 158 163
133 148 150
142 158 162
137 152 157
144 159 165
152 168 176
142 158 164
151 166 172
92 110 93
62 86 49
65 88 53
66 89 53
68 92 55
58 80 45
68 92 56
71 96 58
65 89 53
69 93 55
120 136 137
136 151 154
142 158 163
137 153 156
140 155 160
134 150 152
133 149 150
152 167 175
144 158 164
138 154 158
65 87 55
69 93 55
66 90 53
67 91 54
70 95 57
65 89 53
69 94 56
63 87 51
67 92 53
98 118 102
146 160 166
148 165 173
149 165 171
136 152 157
141 156 157
147 164 171
146 161 166
134 150 152
144 161 169
86 108 85
69 94 56
68 92 56
70 93 55
66 90 56
123 141 135
143 161 166
151 168 177
144 161 166
107 126 115
67 92 54
68 93 55
65 89 53
73 99 60
69 93 57
64 88 52
67 91 54
70 95 57
110 128 116
141 157 160
152 167 175
149 164 172
153 168 178
153 169 175
148 164 170
146 162 170
145 160 165
109 129 118
69 94 57
72 99 60
71 96 58
75 102 62
73 100 60
68 93 55
71 96 57
86 110 83
156 172 181
138 155 160
149 166 174
142 158 165
148 165 170
73 99 60
77 103 63
74 99 64
152 167 176
155 171 179
162 179 191
154 171 181
136 151 157
149 165 172
142 158 164
135 154 155
69 94 56
71 96 57
74 100 60
74 101 61
75 101 61
73 98 60
96 118 94
151 168 177
143 160 165
156 174 185
162 179 190
153 171 183
75 102 62
124 143 138
161 178 188
155 174 183
141 159 160
155 173 183
163 179 191
120 139 132
74 100 61
68 93 56
70 97 59
72 98 59
107 129 115
158 175 186
131 149 151
75 102 61
79 104 71
152 169 177
168 185 200
176 192 205
146 163 166
167 185 200
164 181 192
162 180 188
92 115 90
72 99 59
74 99 59
126 145 141
136 155 153
74 101 61
77 105 64
73 100 60
74 101 61
86 111 81
162 180 190
163 181 190
164 180 192
163 180 190
159 175 183
169 185 197
100 123 103
73 99 60
71 97 57
153 171 178
165 182 192
157 174 180
151 168 176
80 106 72
73 98 58
74 101 61
77 104 63
71 96 58
76 103 62
75 102 62
141 159 161
146 164 169
156 171 178
157 173 178
161 178 186
160 176 182
152 169 177
157 172 181
98 118 103
76 102 62
75 101 61
72 98 59
67 92 55
126 144 143
160 176 188
149 166 168
124 143 136
68 94 55
73 99 60
70 95 57
70 96 57
69 93 55
69 94 56
73 98 58
71 96 57
161 177 184
145 161 166
145 162 168
150 167 174
149 166 171
157 172 180
155 170 177
148 164 168
155 173 183
75 97 70
70 96 57
71 98 58
68 94 56
71 97 57
70 95 56
71 97 58
68 93 55
72 97 59
134 151 150
145 162 166
147 164 170
141 157 161
149 166 172
137 154 158
136 152 153
129 146 145
97 116 100
89 111 87
150 168 174
150 167 175
147 164 168
146 162 168
146 162 167
150 165 174
139 155 158
148 165 170
158 173 184
108 127 116
71 96 56
68 93 55
69 95 56
72 98 60
67 92 54
67 92 55
66 91 54
71 96 58
62 86 50
137 152 158
145 161 168
135 151 157
144 161 166
134 150 152
153 167 170
143 159 165
142 158 161
149 165 170
135 151 155
83 107 76
69 94 56
66 90 54
64 88 50
70 95 57
66 91 54
65 89 52
69 94 55
67 91 54
64 87 51
132 149 151
134 149 152
140 157 162
132 149 150
139 155 158
145 161 165
141 156 162
139 156 160
138 154 156
138 153 158
76 99 71
65 88 51
64 87 51
64 88 52
61 83 49
65 89 53
70 95 56
63 87 51
65 88 52
59 82 47
135 152 155
145 161 166
132 148 149
145 160 167
127 143 143
146 161 168
143 159 164
137 153 156
136 152 155
144 161 167
107 124 116
70 95 57
69 93 56
68 93 55
70 93 61
85 106 84
96 113 103
109 127 120
109 127 118
107 126 118
117 133 129
78 99 78
78 99 75
65 88 54
65 88 51
64 87 51
73 97 59
69 93 55
60 83 48
66 89 53
67 92 55
138 154 157
137 151 155
144 159 166
139 154 157
149 164 170
137 154 157
127 143 144
134 150 150
138 155 158
152 167 176
69 93 57
66 90 53
65 89 52
69 93 56
63 86 50
64 88 53
63 86 50
66 89 52
71 95 57
68 92 55
132 147 150
143 159 162
148 164 169
142 158 161
148 164 170
142 157 161
141 157 160
134 149 154
145 160 163
129 145 147
110 129 121
68 92 55
63 86 50
67 91 54
60 82 47
62 85 49
66 90 52
66 90 53
69 94 56
60 82 47
77 98 73
135 151 153
135 150 153
151 166 173
140 157 160
143 157 161
138 154 156
140 155 160
141 157 160
131 147 147
143 158 162
62 86 50
67 91 54
62 85 50
59 81 47
64 87 51
71 94 60
87 109 86
91 109 95
90 110 90
104 122 111
97 115 98
105 122 115
79 100 79
74 95 71
70 95 58
66 90 52
67 91 54
67 92 54
67 91 55
59 81 47
123 140 137
142 159 166
134 150 154
128 143 147
137 153 156
132 150 151
157 173 181
140 156 157
141 156 159
135 151 153
100 120 104
67 92 55
68 93 55
64 88 51
64 87 51
67 91 55
69 94 56
70 95 57
65 88 52
64 88 52
113 131 124
134 150 153
150 166 172
148 164 169
139 154 159
147 163 170
141 156 160
138 154 158
140 155 160
146 161 168
117 135 128
66 90 54
62 85 49
58 80 47
67 91 54
68 93 56
67 92 54
70 95 57
72 97 59
66 90 53
102 122 110
146 162 170
141 158 164
143 158 163
155 170 178
142 157 161
137 153 154
132 148 148
137 154 157
149 164 172
111 130 119
62 86 51
66 90 53
62 85 49
66 90 54
70 94 55
68 92 55
73 98 59
63 87 51
60 84 49
144 159 165
143 160 164
148 163 170
146 161 168
144 161 165
146 164 171
152 168 173
156 173 181
131 147 148
95 116 99
137 153 158
157 172 180
144 161 168
150 166 173
147 162 169
134 150 156
142 158 163
143 158 163
150 168 175
93 114 96
65 89 53
70 96 57
65 88 53
65 90 53
67 92 55
66 90 54
68 93 55
71 97 59
128 145 142
153 168 175
137 153 155
157 173 182
153 169 177
149 166 175
139 157 162
149 167 175
152 168 175
109 130 118
71 96 58
71 97 58
71 97 58
70 95 57
68 93 55
72 98 59
67 91 54
90 113 88
131 148 148
87 111 85
71 97 58
73 98 59
68 93 56
69 94 57
71 97 58
70 94 59
147 163 170
153 169 175
155 171 179
146 163 167
145 161 167
154 171 178
146 163 170
144 162 166
70 95 57
73 99 59
73 100 61
70 95 58
73 99 60
71 96 58
75 101 63
150 168 173
162 179 190
108 129 114
70 97 58
73 100 61
68 93 55
109 132 118
162 179 189
158 175 185
150 167 174
155 170 178
159 176 187
132 150 149
71 97 59
73 99 59
73 98 59
78 106 65
95 119 93
76 101 68
75 102 62
76 103 63
75 102 62
145 163 167
164 180 192
161 179 186
91 118 86
74 102 63
77 105 64
75 102 62
127 146 138
78 105 64
76 104 63
77 104 63
73 99 59
95 120 93
150 168 175
169 186 199
164 181 193
159 177 189
150 167 172
167 183 195
81 107 73
75 103 62
77 104 63
73 100 60
75 102 62
87 111 82
157 174 179
74 100 61
75 103 63
76 102 62
74 101 62
69 94 56
77 104 64
75 101 61
134 151 149
154 169 177
141 159 163
149 166 171
158 174 186
148 166 171
146 162 165
156 173 180
92 114 91
74 101 61
76 101 62
69 94 55
75 101 60
72 98 59
72 98 60
71 97 58
121 138 129
98 118 103
69 95 57
69 95 56
71 97 58
71 97 58
72 98 59
70 96 56
70 96 57
134 152 154
154 170 175
147 163 170
163 178 188
138 155 157
149 166 171
147 165 169
139 156 161
147 164 167
107 126 116
71 96 58
71 96 58
73 98 58
69 95 57
74 100 60
70 95 57
75 101 61
71 97 57
121 139 132
158 174 181
147 163 171
146 163 170
150 166 172
155 170 179
152 167 174
150 165 171
140 157 162
142 158 162
79 104 72
69 94 57
68 93 56
75 98 64
112 130 121
127 143 142
139 154 158
153 169 177
132 149 153
150 165 175
70 96 57
70 95 56
66 90 53
70 95 57
73 98 60
71 97 59
72 97 58
72 97 58
68 93 55
81 104 77
149 165 171
156 172 182
141 156 160
138 156 159
150 165 170
149 165 172
134 150 152
139 154 157
141 157 162
138 155 156
70 95 57
61 85 50
67 92 55
62 85 50
63 86 51
69 94 55
69 93 56
75 101 61
71 96 58
66 90 54
143 159 160
153 169 175
148 163 167
143 159 162
142 158 162
151 167 175
142 158 162
143 157 162
153 169 176
131 147 147
82 104 76
71 96 58
71 96 59
64 88 52
72 97 59
62 86 50
67 91 54
64 88 52
68 92 55
65 89 51
118 137 132
136 152 156
137 154 156
143 158 163
134 149 152
149 164 171
143 158 160
128 146 146
142 158 163
136 151 153
138 155 157
69 94 56
67 91 54
62 85 49
65 89 52
65 89 52
68 92 55
68 93 56
67 92 54
65 89 52
64 88 52
137 153 157
133 149 151
128 144 145
150 166 172
135 152 155
143 159 163
143 157 163
131 148 152
127 144 142
147 163 166
117 133 125
64 88 52
65 88 51
63 86 50
63 87 52
67 92 54
68 92 53
56 78 45
56 79 44
65 88 52
70 93 61
142 156 161
130 147 147
132 150 151
122 139 134
135 150 155
118 134 129
123 140 136
129 145 144
124 142 139
122 139 136
89 107 93
101 119 106
105 123 110
107 126 114
99 118 105
100 118 109
102 120 106
98 117 105
86 107 85
105 126 110
101 120 109
122 139 138
120 138 130
133 148 149
124 140 138
140 156 159
128 143 143
141 157 160
126 140 144
133 148 149
149 164 171
66 90 53
68 91 53
64 88 51
65 88 52
63 86 51
67 91 55
66 90 53
69 94 55
65 89 52
63 87 51
128 143 143
138 153 157
145 160 166
141 156 158
141 157 162
135 151 156
141 157 161
145 160 162
142 158 162
139 154 156
130 144 148
63 87 50
68 93 55
65 89 52
68 92 55
67 91 53
65 89 52
62 85 50
64 88 50
71 96 57
71 97 58
139 155 160
138 154 159
133 150 153
139 155 160
145 160 165
131 148 147
145 161 164
136 153 156
147 163 170
130 146 145
75 97 68
60 84 48
65 89 53
65 89 53
68 93 55
68 93 55
71 96 58
63 86 50
67 91 54
62 85 49
109 128 119
141 158 163
141 158 164
140 156 162
138 154 155
129 145 145
136 152 154
149 165 173
144 160 167
144 159 163
134 151 152
68 92 55
64 87 52
70 95 57
70 95 57
70 95 57
67 91 54
62 85 50
65 89 53
63 87 50
86 107 81
151 168 175
140 156 158
144 160 163
141 157 163
148 163 167
137 153 159
151 167 174
144 160 167
134 150 153
143 159 165
70 95 57
69 94 57
68 93 56
71 96 58
70 95 58
70 95 57
70 94 56
63 87 51
67 91 54
82 105 76
138 155 159
149 165 171
118 136 128
79 101 79
67 91 54
68 92 56
71 95 57
72 98 59
73 98 60
118 136 129
146 162 167
151 167 174
153 170 179
152 168 175
137 152 156
139 156 159
135 151 152
153 170 176
153 169 178
71 94 60
70 96 57
72 98 59
71 96 58
74 99 59
66 91 54
70 95 57
70 95 58
70 95 57
144 160 164
148 165 172
158 173 183
162 178 187
147 162 167
155 172 179
139 155 157
144 161 168
153 170 178
101 121 108
69 95 57
67 92 54
77 104 64
73 99 60
72 97 59
145 162 167
140 157 160
155 172 180
74 98 67
70 95 57
71 96 57
67 92 54
66 91 54
67 92 55
72 98 59
74 99 63
138 155 160
162 177 189
161 177 190
146 163 167
152 168 175
146 163 169
158 174 185
145 160 166
72 98 63
75 102 62
71 97 59
71 98 60
73 99 60
71 97 59
85 108 80
93 116 95
74 101 61
73 99 60
77 103 63
74 100 61
74 100 61
89 111 91
147 163 168
156 174 183
148 167 178
167 184 195
157 174 182
143 161 165
79 105 67
73 100 61
74 100 61
153 171 178
149 168 177
82 108 75
75 102 63
75 102 63
74 100 61
83 111 69
78 105 65
78 106 64
134 153 150
163 179 190
164 181 193
79 107 66
75 103 63
108 130 114
167 183 196
165 182 193
174 191 207
160 176 185
166 182 191
153 171 178
77 104 63
77 103 63
79 107 65
74 101 61
75 101 61
75 102 63
100 122 102
164 181 191
127 146 143
75 101 61
74 100 61
77 104 63
72 98 58
77 102 68
148 166 174
159 176 187
161 177 185
170 186 197
162 177 187
146 163 169
159 175 182
158 175 183
90 113 88
71 97 57
74 99 60
74 100 60
76 102 62
73 99 60
72 97 58
71 96 58
108 129 118
153 171 176
153 170 178
153 169 178
153 170 176
126 143 140
73 100 60
68 93 55
73 99 60
130 149 147
148 164 168
146 163 169
149 164 170
159 176 186
156 172 177
161 178 190
152 169 175
155 171 179
120 139 132
72 97 58
74 99 60
68 92 54
72 98 59
70 96 58
68 92 54
67 92 54
71 96 57
87 110 83
146 164 166
150 166 173
142 158 159
156 170 178
153 170 178
147 163 168
158 174 184
147 162 170
137 153 156
130 148 144
70 95 57
72 98 59
70 96 58
71 96 57
71 96 58
71 96 57
71 96 57
71 97 58
71 97 58
125 143 141
117 136 126
86 109 84
71 97 58
70 96 57
68 92 54
65 90 52
66 89 53
70 96 57
67 91 52
109 126 117
146 161 169
133 150 153
154 170 176
129 145 148
142 160 162
144 158 163
150 166 172
162 177 186
143 160 164
135 152 153
70 95 57
66 90 54
69 94 57
65 88 52
73 99 59
73 99 60
69 94 57
72 97 57
70 95 57
68 93 55
146 162 168
149 165 171
140 157 160
149 167 175
144 160 162
147 163 168
152 169 177
150 165 175
147 163 169
144 160 167
85 107 84
72 97 59
68 92 55
71 96 57
65 88 51
72 97 59
68 93 56
68 92 55
70 95 56
67 92 54
91 112 89
148 164 169
133 148 151
142 157 162
129 145 148
148 164 169
146 161 166
136 152 154
144 159 168
147 163 169
150 166 175
69 95 56
62 85 49
64 88 53
64 87 51
68 93 55
68 94 55
70 95 56
65 90 53
66 90 53
66 89 53
92 112 95
143 159 162
136 152 157
141 158 160
136 151 157
143 159 164
145 162 166
140 156 159
138 152 155
128 143 146
143 160 163
68 93 56
67 92 55
66 90 53
67 92 55
70 95 57
69 93 56
63 87 51
65 89 52
71 96 58
66 90 53
87 106 88
144 160 164
144 160 167
147 163 169
129 144 143
142 158 162
140 156 160
134 149 150
141 156 159
149 165 171
132 148 149
64 87 51
64 88 50
63 86 50
63 86 50
70 94 57
66 91 54
61 85 50
67 92 55
64 87 52
63 86 51
74 97 66
133 148 146
133 148 153
144 160 163
141 158 161
150 166 171
148 163 169
134 150 151
144 159 164
134 150 151
141 157 160
61 85 49
66 89 53
60 84 47
68 92 55
60 82 48
66 90 53
72 97 59
69 93 55
69 93 56
70 95 57
75 96 74
145 162 167
149 165 171
151 167 176
138 156 158
141 158 163
135 150 154
151 168 174
140 155 161
139 155 157
148 164 169
65 88 55
68 92 55
66 90 54
67 91 54
67 90 53
68 92 55
66 90 52
71 96 58
67 91 55
67 91 53
77 100 70
145 160 167
155 170 177
142 159 166
143 158 163
143 159 162
148 163 169
138 154 158
128 144 146
154 169 179
140 155 160
68 91 60
69 94 57
59 82 47
68 93 56
63 86 51
68 92 55
72 96 58
68 92 56
65 89 52
66 90 54
108 126 119
144 161 169
143 158 165
160 176 186
129 144 146
139 156 160
133 149 151
140 156 160
135 152 155
132 148 151
131 147 148
70 95 56
73 99 59
62 85 50
65 89 52
66 90 53
72 96 57
68 93 55
64 89 52
69 93 56
67 91 54
152 167 173
143 158 163
153 169 177
141 157 158
133 150 154
137 153 155
148 163 171
156 172 181
149 166 173
144 162 166
85 107 83
69 94 56
59 82 47
62 86 50
69 93 55
69 93 59
97 118 102
120 137 134
147 162 169
154 170 176
75 100 69
69 93 55
66 91 53
68 92 55
68 93 55
65 89 52
73 99 59
68 93 55
72 98 57
72 96 59
138 154 157
147 163 171
157 173 183
156 172 182
155 172 183
143 159 164
151 167 175
147 163 171
156 172 181
136 153 154
70 95 57
71 96 58
72 97 58
67 92 55
78 104 63
72 98 59
73 98 59
73 99 60
66 90 53
131 148 150
155 171 179
155 172 180
142 158 165
146 163 168
148 164 170
145 162 170
142 158 164
145 162 168
91 112 89
78 102 69
153 169 178
155 172 182
156 171 179
141 156 162
150 166 172
152 169 176
143 160 164
68 92 55
73 98 60
72 98 60
76 103 63
72 97 58
76 102 62
72 98 59
71 97 58
143 160 159
163 179 187
156 174 183
157 172 181
149 165 172
148 165 171
152 169 178
152 169 179
78 102 70
73 99 59
74 101 62
77 104 64
146 163 170
163 180 191
151 167 176
103 125 107
73 99 61
74 101 62
77 105 64
76 103 63
75 101 62
87 112 80
154 171 180
159 175 185
151 168 177
145 162 168
164 180 193
152 169 174
82 107 77
127 147 141
161 177 187
160 176 187
160 178 188
101 123 106
79 106 65
75 102 61
145 163 162
156 174 183
167 184 194
160 177 186
159 176 185
109 129 114
159 177 189
165 182 192
156 172 177
156 172 180
156 174 181
147 164 166
77 103 63
75 102 61
77 104 64
78 105 64
77 104 63
77 104 63
114 134 125
163 180 190
160 178 188
160 178 187
155 172 178
109 130 113
70 95 56
84 111 71
160 177 188
166 182 190
162 179 187
149 165 170
147 163 167
150 168 175
155 171 176
150 167 174
89 112 85
77 104 64
73 99 59
71 97 58
70 96 57
76 103 63
78 105 63
68 92 55
115 135 128
167 183 192
151 169 175
156 172 179
172 189 203
153 170 178
149 166 172
151 169 178
160 176 184
100 120 104
160 177 186
160 177 187
158 173 177
154 170 177
155 172 178
160 177 188
153 169 174
148 164 167
132 150 145
65 89 52
67 91 53
72 98 58
71 97 58
74 100 61
68 93 54
74 100 61
72 98 59
69 94 56
139 155 159
155 170 178
147 164 168
155 171 177
146 163 168
143 160 162
150 165 171
145 161 168
158 173 178
149 164 171
71 97 58
69 95 56
70 96 58
73 100 60
71 96 58
72 97 58
69 93 54
73 98 59
67 92 53
66 89 56
149 165 174
151 167 172
161 176 185
148 164 170
136 152 157
163 180 190
138 154 156
126 145 142
87 106 89
69 94 56
137 154 157
141 158 159
147 163 168
152 167 174
147 163 169
143 159 163
140 156 162
144 160 162
152 167 173
146 163 169
104 123 109
71 97 57
65 89 51
69 93 55
67 92 54
69 95 57
64 88 52
71 96 57
66 90 54
65 89 52
84 107 79
141 157 157
138 154 158
153 169 179
144 159 160
138 153 158
146 162 167
141 157 161
141 157 161
152 167 175
143 158 161
76 97 70
71 96 58
73 99 59
67 92 55
67 91 54
72 98 59
66 90 53
71 96 57
63 86 51
66 91 54
66 90 59
140 156 160
139 156 156
148 165 172
144 158 164
141 156 161
135 151 152
141 157 161
129 146 145
139 155 159
140 157 161
104 123 112
67 92 54
63 87 51
67 91 54
63 87 50
68 93 54
67 91 53
70 95 57
63 86 51
69 94 56
67 91 54
135 152 156
149 165 172
152 167 175
149 166 173
143 158 163
139 155 157
141 158 160
135 152 152
147 164 169
136 151 155
136 152 151
63 86 50
61 85 49
68 93 55
69 94 56
64 88 51
64 88 52
68 93 56
62 85 50
64 88 52
63 87 51
120 137 134
145 160 165
144 159 166
136 151 155
143 158 164
141 157 161
132 148 151
138 152 157
146 161 166
134 149 151
142 158 161
70 96 57
68 93 55
65 88 52
69 94 57
62 86 49
65 89 52
65 88 52
69 93 55
66 90 53
69 94 57
69 94 56
142 158 163
139 154 159
138 154 158
139 154 158
123 140 139
151 166 172
143 158 162
140 156 160
140 155 160
151 167 173
104 122 111
66 91 52
70 95 56
65 88 52
61 84 49
63 87 50
65 89 53
66 91 53
67 91 55
62 86 50
67 91 54
155 172 180
140 154 158
134 150 151
151 166 172
146 162 169
146 161 166
149 165 171
136 151 155
137 152 158
136 152 158
141 158 162
61 84 49
66 89 53
68 93 56
59 80 47
69 93 56
68 92 55
71 96 57
68 92 54
67 91 54
70 95 57
128 145 147
148 163 169
150 165 173
135 151 155
127 143 142
137 154 154
144 159 166
143 159 162
129 146 148
143 159 164
151 166 174
68 92 54
62 85 50
64 88 52
63 87 51
71 96 58
69 93 55
66 91 55
65 89 53
70 95 57
64 88 51
109 128 114
139 156 159
146 162 167
132 148 152
142 158 162
149 166 174
147 163 170
141 157 163
147 163 169
145 160 165
155 169 177
65 89 51
69 94 56
66 90 53
65 89 52
73 99 60
72 97 57
72 97 58
66 91 54
73 98 59
72 97 58
127 143 141
145 161 167
148 164 172
143 159 162
137 153 158
152 168 175
140 157 163
147 163 170
148 164 170
137 154 156
95 118 96
144 160 164
141 157 159
136 153 155
141 158 160
137 153 158
152 167 175
154 171 182
148 164 170
140 155 157
147 163 164
73 97 59
71 96 58
69 94 56
71 96 57
71 97 58
67 92 54
72 98 59
74 99 61
70 96 58
97 118 103
139 154 158
155 171 180
149 164 169
154 170 178
143 158 163
167 183 195
149 166 173
153 169 177
142 158 163
109 129 118
66 91 53
69 94 56
71 96 58
70 96 57
70 96 57
67 92 54
70 95 57
76 102 62
80 102 75
150 166 175
157 174 184
150 167 175
148 165 170
159 176 185
159 176 187
113 133 125
75 102 62
73 98 65
145 162 168
156 172 178
148 164 172
153 169 176
145 161 165
157 172 182
146 164 170
155 172 180
145 163 168
76 102 65
69 95 56
71 97 58
76 103 63
76 103 63
73 98 59
72 98 59
77 104 64
137 155 159
158 174 182
136 153 156
168 183 195
159 175 184
162 178 188
160 176 185
151 168 178
88 112 86
157 175 185
152 170 181
148 165 171
162 178 188
159 176 187
155 173 183
110 130 122
72 97 59
72 98 60
73 100 60
73 100 61
76 103 63
76 103 62
154 171 177
165 181 193
161 178 187
163 180 192
155 171 181
152 170 180
152 171 179
151 169 178
167 183 194
161 179 192
159 175 185
158 175 185
166 184 197
162 179 188
166 183 195
137 156 152
77 104 63
165 182 191
169 187 199
157 174 183
159 176 182
134 154 153
72 98 59
72 99 59
73 99 61
74 101 61
80 107 66
77 106 65
126 146 138
159 175 182
170 187 201
157 175 185
154 171 180
158 175 186
147 165 169
164 181 191
141 158 158
164 182 193
159 177 188
150 167 174
162 179 185
161 178 187
152 168 174
157 174 182
70 96 56
78 105 64
71 96 58
76 103 62
71 97 59
69 94 56
74 101 63
73 99 60
114 134 123
151 168 175
161 178 189
160 177 183
154 172 177
164 182 193
156 173 182
156 172 180
161 178 188
124 141 137
71 96 57
67 92 54
75 102 62
74 100 61
122 139 135
159 176 186
151 168 173
156 173 179
155 171 178
73 99 60
74 101 61
75 101 61
73 98 58
72 97 58
71 96 57
72 96 57
69 93 55
70 96 57
110 129 116
135 151 153
146 162 167
156 171 178
144 160 165
147 164 167
154 171 179
150 167 172
149 165 171
151 167 176
110 129 117
69 94 56
64 89 51
65 89 52
72 98 58
67 91 52
68 93 55
74 101 62
66 90 54
70 96 57
124 141 135
142 159 164
154 170 179
153 169 176
156 170 178
138 155 157
146 162 167
148 163 169
139 155 159
147 164 172
141 157 161
65 89 52
71 96 56
68 93 55
68 92 55
95 116 98
118 136 132
139 155 158
153 170 175
142 157 161
153 168 172
77 99 76
67 92 54
68 94 55
64 89 51
63 86 51
69 94 56
67 91 53
69 94 56
68 92 55
71 97 58
88 109 87
143 159 164
150 166 173
148 163 170
147 163 165
144 160 163
150 167 173
146 162 167
142 157 160
151 167 173
148 164 169
94 114 95
67 91 54
64 88 52
64 88 51
69 93 55
66 90 53
70 95 56
71 97 58
68 92 55
68 93 55
65 89 52
140 155 160
137 152 157
142 158 161
140 155 157
141 158 160
145 161 165
148 164 168
144 160 161
145 161 165
137 153 155
134 150 151
68 93 55
63 87 51
67 91 54
64 87 50
67 91 54
62 85 49
72 98 59
72 97 59
70 95 57
68 92 55
98 118 104
149 164 172
140 156 162
140 157 163
148 163 168
141 158 159
137 154 157
141 158 164
149 166 172
147 163 169
137 154 158
87 107 85
71 96 58
64 88 52
72 96 58
67 91 54
67 92 55
67 91 54
69 93 55
68 91 55
67 92 54
66 90 53
139 154 158
147 163 170
148 163 168
143 161 164
147 162 166
137 152 156
140 158 160
148 163 170
144 160 167
139 154 157
139 155 160
67 91 54
68 92 55
67 92 54
69 94 56
72 96 58
67 91 54
66 90 53
66 89 53
69 93 55
68 92 56
65 89 51
138 153 156
130 145 146
148 163 169
146 163 168
129 144 147
141 158 163
140 155 158
135 151 155
149 165 171
151 167 174
119 135 132
69 93 55
67 91 54
70 95 57
64 88 51
66 91 54
74 99 60
62 85 49
68 93 56
62 85 50
70 94 57
90 109 94
158 174 183
141 157 161
138 153 156
139 155 158
158 173 180
146 163 169
142 157 162
142 158 162
146 164 169
155 170 178
80 101 80
68 92 55
66 90 53
71 96 57
67 91 55
67 91 54
68 92 55
67 91 53
65 88 52
63 87 51
68 91 53
154 171 178
142 159 162
148 164 170
137 154 156
148 164 172
134 150 151
146 163 167
149 165 173
124 141 139
144 159 163
138 153 156
71 97 58
68 92 55
71 97 58
65 90 53
68 92 55
67 91 54
66 90 52
68 92 54
69 94 56
68 93 55
113 131 123
144 159 164
141 158 161
139 156 161
145 161 166
135 151 155
145 160 165
144 160 162
155 170 179
142 159 162
155 171 179
73 98 62
71 97 59
64 88 51
63 86 50
70 95 57
69 94 56
65 89 52
69 93 55
70 95 57
70 93 55
105 124 112
150 165 173
127 144 144
100 119 102
81 102 75
67 92 53
67 91 55
69 95 57
71 96 57
65 90 54
78 104 67
135 152 153
155 171 181
155 171 180
146 162 169
149 166 169
142 159 164
154 170 178
150 166 171
143 159 164
150 166 174
84 106 79
72 98 59
67 91 54
72 98 59
70 94 57
71 96 58
71 96 59
73 99 61
69 94 55
71 95 57
137 154 158
146 163 168
154 171 180
149 166 172
159 175 182
147 163 170
149 164 173
147 163 168
152 168 178
150 165 173
81 103 78
68 93 55
71 97 59
76 103 63
71 96 56
71 97 59
67 91 53
77 103 63
68 93 56
107 126 112
152 169 178
129 146 146
93 118 89
71 96 58
65 90 53
74 100 60
69 93 56
70 96 57
79 103 74
150 167 175
156 171 176
147 163 170
157 173 183
147 164 171
146 163 167
156 174 182
158 174 184
145 162 169
72 98 59
69 94 56
73 100 60
67 92 54
68 93 56
71 97 58
76 103 62
69 95 56
149 167 173
150 166 173
154 172 180
151 168 177
156 172 180
157 172 178
75 100 62
75 100 66
138 155 159
157 174 182
156 174 186
154 172 181
155 171 181
151 168 177
150 166 176
117 136 128
73 100 61
74 100 60
76 103 64
76 103 63
72 98 59
72 98 59
153 170 178
162 179 191
165 182 194
141 159 161
68 94 56
75 101 61
159 177 186
171 187 200
169 187 200
166 183 195
157 174 181
127 147 140
81 109 67
83 111 68
72 99 59
168 184 197
158 174 182
135 153 150
76 103 62
74 100 61
77 104 63
75 102 61
76 103 63
82 111 68
122 141 136
158 174 181
162 179 189
163 180 186
153 170 175
161 178 186
159 177 185
158 175 182
87 112 81
73 99 60
76 102 62
106 126 112
153 170 176
152 169 175
158 175 183
162 176 184
90 114 89
74 100 61
72 97 57
74 100 60
74 100 59
74 101 61
74 101 61
76 103 63
99 120 99
164 180 189
159 175 183
153 170 177
152 168 172
159 175 185
161 177 187
146 164 168
161 177 186
132 152 151
74 99 60
70 96 57
74 100 60
75 101 61
71 97 58
67 91 54
71 97 59
71 96 56
73 97 61
127 147 143
73 99 59
72 98 59
73 99 60
67 93 55
68 93 55
70 96 57
73 99 60
73 99 60
82 103 81
151 167 174
147 162 169
160 176 186
148 165 171
154 171 181
150 167 173
150 168 174
157 174 182
159 176 186
146 163 171
72 97 57
69 94 56
76 103 63
67 91 53
67 92 55
66 91 55
75 101 62
70 96 57
72 97 58
74 101 60
151 166 171
142 158 159
148 163 165
142 157 159
148 165 171
147 163 169
152 168 174
157 172 180
159 176 183
153 169 176
110 129 118
67 91 54
67 92 54
67 91 54
68 93 55
69 95 57
66 90 52
72 97 58
70 95 57
71 97 58
70 95 57
142 158 163
148 164 169
124 142 138
96 116 97
75 100 63
67 91 54
64 88 51
66 90 52
67 92 54
67 91 54
90 110 93
145 161 165
141 158 162
145 161 168
150 165 170
145 161 165
151 167 173
145 162 166
156 172 178
143 159 162
154 170 177
111 131 118
70 95 56
70 95 56
66 91 53
70 96 58
71 97 58
70 95 56
66 90 53
74 100 60
67 92 54
64 89 52
135 151 154
148 165 168
152 168 176
138 154 158
154 169 177
145 161 167
141 157 160
138 154 158
140 156 160
153 169 178
147 162 169
76 103 63
68 92 54
67 91 53
69 93 55
64 89 53
72 97 59
66 90 54
67 92 54
70 94 57
65 89 52
63 87 51
135 152 155
139 155 158
146 162 167
147 163 170
136 153 156
147 163 166
148 164 171
140 156 159
140 155 159
136 152 153
135 150 150
72 98 59
71 95 57
68 93 55
70 96 57
68 92 55
66 90 54
64 89 52
70 95 56
70 95 56
68 92 55
65 89 51
145 161 166
135 151 154
127 144 147
147 161 165
134 150 153
146 161 167
147 163 169
145 161 167
144 160 166
147 162 169
135 151 153
58 80 46
65 89 52
68 93 55
67 92 55
63 87 50
66 90 53
68 92 54
71 96 58
66 90 53
68 93 55
71 96 57
138 154 158
132 148 145
137 153 154
136 151 154
141 156 162
153 169 177
145 161 168
143 160 166
141 158 162
141 157 161
147 162 167
69 93 56
64 88 52
67 91 54
68 92 55
67 92 54
67 91 55
68 92 54
60 84 48
66 90 53
69 94 54
63 87 50
142 157 163
137 153 160
149 165 169
136 152 155
145 160 164
144 159 167
146 162 167
138 154 157
130 147 146
150 165 172
131 146 146
65 89 52
70 95 56
65 89 52
70 95 57
66 90 53
70 94 56
69 93 56
67 91 54
69 94 56
64 88 52
71 93 64
142 157 162
138 153 155
144 159 165
148 164 168
156 171 179
138 154 159
134 150 152
149 165 172
138 155 158
139 156 159
132 149 150
69 94 56
72 96 58
73 98 59
67 92 55
70 94 57
72 97 59
64 89 52
66 91 54
68 92 55
65 89 53
118 135 131
144 160 164
153 169 176
130 147 146
152 169 176
149 166 171
142 158 162
156 171 178
137 152 152
158 172 180
135 152 154
71 94 63
64 89 52
66 91 54
68 93 55
87 108 86
103 122 110
130 146 146
152 168 175
143 160 164
154 169 179
137 153 155
65 89 52
69 94 57
65 88 52
72 97 59
73 99 59
69 94 56
74 99 60
70 95 57
73 99 60
71 97 59
139 155 157
149 165 172
153 169 177
142 158 162
135 152 154
144 159 160
147 164 171
143 160 164
140 156 157
143 161 166
138 155 157
67 92 55
69 95 57
68 93 55
70 95 58
71 97 58
69 93 55
74 100 61
69 94 55
70 95 57
77 101 70
149 166 171
144 160 165
149 165 172
151 167 175
152 169 177
151 167 174
155 171 180
149 165 172
165 181 192
145 162 166
74 100 61
74 100 62
69 95 56
70 95 57
65 89 52
71 97 58
89 112 87
139 157 159
147 163 168
117 135 129
68 93 56
73 99 59
72 98 59
75 101 61
71 96 57
70 96 57
72 97 58
73 99 60
91 112 95
152 169 175
156 172 180
146 163 169
156 173 180
165 181 193
155 172 180
150 167 174
156 173 182
132 149 148
70 96 57
67 92 56
69 95 57
71 97 59
75 101 61
73 99 60
73 100 61
75 101 61
141 159 163
150 166 174
145 163 168
77 104 64
74 100 60
75 101 62
74 100 61
68 93 55
142 160 160
170 188 202
154 172 181
161 178 189
153 171 178
165 181 192
157 174 185
123 142 137
77 104 63
72 98 59
81 108 67
73 99 60
71 97 57
73 100 61
141 160 163
124 143 139
75 102 63
75 102 62
74 102 62
80 108 66
139 157 156
124 145 138
73 99 60
77 104 64
79 107 66
76 103 63
80 107 66
138 156 155
77 104 62
75 101 62
82 110 67
76 104 64
78 104 64
77 104 63
134 152 150
155 172 178
153 172 180
162 178 187
161 178 186
166 182 192
161 179 189
157 175 183
88 113 85
75 101 61
80 107 65
75 102 61
72 99 59
70 96 57
83 108 74
156 172 179
96 118 93
73 100 60
77 104 63
74 100 61
77 104 64
73 99 60
75 101 61
69 94 55
93 115 93
159 175 183
164 179 188
149 165 167
150 167 169
151 168 174
152 168 174
157 173 183
155 172 180
151 167 171
70 94 56
74 100 60
72 98 58
75 101 62
76 102 62
80 107 65
75 101 61
71 97 58
68 92 54
119 138 132
158 175 181
167 183 194
153 168 172
151 169 176
122 139 132
72 98 59
70 94 57
73 98 59
74 101 61
142 159 161
148 164 168
152 168 174
152 168 176
159 175 183
150 166 170
154 170 178
143 161 165
154 171 178
151 168 173
94 115 95
71 97 58
70 95 56
68 93 55
72 97 58
73 99 60
74 99 60
73 99 60
72 98 59
69 94 56
97 117 101
153 169 177
149 167 172
150 166 172
159 176 186
153 168 175
145 161 167
154 172 178
149 165 169
142 158 160
143 158 164
84 108 77
69 93 55
73 98 58
68 93 55
67 92 55
68 93 56
71 96 58
67 91 54
70 95 57
72 97 59
87 110 82
150 167 173
144 159 162
148 164 170
141 157 162
152 169 176
143 159 163
142 158 161
139 155 159
146 161 166
145 162 165
122 140 135
113 131 121
117 135 131
144 161 166
143 159 161
129 145 143
142 158 160
149 164 169
137 153 155
142 158 162
149 166 170
121 138 135
66 91 54
68 92 55
70 95 57
66 91 54
67 92 55
66 90 53
70 95 56
68 93 56
67 91 53
70 95 56
120 137 133
143 158 163
148 164 169
137 153 160
141 157 163
154 170 180
149 166 172
134 151 153
135 153 151
141 157 162
141 158 163
120 137 130
71 96 57
68 92 55
68 91 54
66 90 53
70 95 57
76 102 61
67 92 55
71 97 58
67 91 53
72 98 58
112 131 120
148 164 171
141 158 162
136 153 157
142 158 161
138 155 157
135 151 154
139 155 158
135 152 154
136 152 152
140 156 156
131 148 148
68 93 55
64 88 51
73 98 59
66 90 54
71 96 58
70 94 56
73 98 59
67 92 55
66 90 54
70 95 56
71 96 57
146 162 167
137 154 156
145 162 166
151 166 171
145 160 166
135 151 153
147 163 167
146 163 169
144 160 159
129 146 145
143 159 163
70 95 57
70 94 57
63 87 51
69 94 56
64 88 51
67 91 53
69 94 56
61 84 49
63 86 50
61 84 49
61 84 48
142 158 162
142 158 162
140 157 162
152 168 175
148 164 171
138 154 160
143 159 164
150 165 171
151 167 172
142 158 164
151 165 173
66 91 54
71 95 57
71 96 56
65 89 51
62 86 51
69 94 56
70 95 57
70 95 57
67 92 54
66 91 53
66 90 53
141 157 163
146 163 167
146 163 171
142 158 162
151 166 172
149 165 172
148 163 168
154 170 179
156 171 179
139 156 162
143 159 164
93 115 96
70 94 56
69 94 55
66 90 53
68 93 55
67 91 54
67 92 54
65 90 53
72 97 58
61 84 49
67 91 53
119 136 130
143 158 165
148 164 169
148 164 170
138 154 157
141 158 164
146 163 169
146 162 166
141 157 159
146 162 167
153 168 174
99 119 101
70 95 56
70 95 56
72 97 59
67 92 53
70 96 57
72 97 58
66 91 53
72 97 58
70 95 57
68 92 55
127 143 142
150 167 175
152 169 178
143 159 165
142 158 161
161 178 189
131 148 149
132 151 150
113 132 123
80 103 73
68 93 55
141 157 164
146 163 166
151 166 171
152 167 173
159 176 186
137 153 157
147 164 170
144 160 163
151 167 172
147 163 170
150 166 174
73 97 64
67 90 53
65 89 51
69 94 56
67 92 54
67 92 55
71 97 57
65 89 52
73 99 60
69 94 57
92 113 92
159 175 184
144 159 165
156 171 179
150 166 174
144 161 163
150 168 177
151 168 176
156 172 181
151 167 175
151 168 174
78 103 71
71 97 58
67 92 55
64 88 51
71 97 58
67 92 55
74 100 60
72 98 59
73 99 60
71 97 59
131 148 148
154 170 176
152 169 174
157 173 181
151 167 177
150 167 175
147 163 169
146 162 166
147 164 172
151 168 176
115 133 125
72 98 59
88 111 88
139 155 158
151 168 174
145 162 167
149 166 171
148 164 172
160 175 182
143 159 165
84 108 82
74 101 61
69 94 55
76 103 62
74 100 62
71 96 58
67 91 53
73 99 59
75 101 61
115 135 129
158 174 185
145 162 169
151 168 176
161 177 185
152 170 178
159 175 184
153 169 177
168 184 198
124 142 135
75 102 62
73 99 59
76 102 62
69 94 56
74 100 61
73 99 59
75 102 63
115 135 128
84 108 77
80 108 66
75 102 62
75 102 62
73 99 60
76 103 62
74 100 61
76 104 64
152 170 176
162 178 189
154 171 178
158 174 183
154 171 181
162 180 192
168 185 198
138 157 158
77 104 64
75 102 63
72 99 60
78 105 64
79 107 67
151 168 176
126 148 141
73 100 61
77 104 64
75 102 63
77 104 63
74 101 60
76 102 61
80 108 67
74 100 60
131 151 147
172 188 200
139 159 160
74 101 61
78 106 65
75 102 63
74 101 60
129 148 145
157 175 185
157 176 184
152 171 181
167 184 198
164 181 188
152 167 174
146 165 170
77 101 66
75 101 61
80 108 66
75 102 61
76 103 62
73 101 61
77 104 62
77 104 63
149 167 174
162 179 189
113 133 124
76 103 62
75 102 61
75 102 61
75 101 59
70 95 56
88 114 83
158 175 181
157 174 182
162 177 187
161 177 183
166 183 194
151 168 174
164 181 192
166 182 191
160 177 184
86 110 82
79 106 64
71 96 57
71 97 58
71 97 58
77 104 63
72 98 59
71 97 58
71 96 57
112 133 118
144 159 164
155 172 179
157 173 178
154 169 173
151 169 178
159 175 185
166 183 194
162 178 189
161 178 189
106 126 113
146 162 166
144 162 166
148 165 171
158 175 183
148 166 172
155 170 181
149 166 170
146 162 162
149 166 172
148 165 168
71 97 58
73 99 59
72 98 59
73 99 59
72 99 59
75 102 62
70 96 57
75 101 61
69 94 56
74 100 61
138 155 156
159 174 181
149 166 172
149 165 171
149 164 169
152 167 173
152 167 174
146 163 169
155 172 183
148 165 169
141 158 157
69 94 56
70 94 56
69 94 56
69 94 55
80 107 65
68 94 55
66 90 53
72 97 59
71 96 56
77 104 63
95 117 94
154 170 176
149 164 172
152 167 174
152 169 176
149 165 174
148 165 174
158 173 182
147 164 168
144 160 164
143 159 163
131 148 145
69 93 55
67 91 54
72 98 59
65 89 52
67 92 54
70 96 57
70 95 57
72 98 58
82 108 72
93 112 96
126 143 141
105 123 111
80 104 74
70 94 57
69 94 56
68 93 55
67 91 54
69 94 56
71 96 58
60 83 48
71 96 57
93 115 92
149 164 168
146 163 168
154 169 178
148 164 171
150 165 170
136 152 156
147 161 167
155 171 178
150 166 172
146 162 166
142 158 161
73 98 59
73 99 59
68 93 56
69 94 56
72 97 58
65 89 52
73 99 60
71 96 57
71 96 57
66 90 53
68 92 55
158 174 181
150 165 170
148 163 168
156 172 181
152 167 175
144 160 164
140 156 158
158 174 180
134 150 152
143 160 167
148 164 170
67 91 54
67 92 55
68 92 54
70 96 58
63 87 50
68 93 55
66 90 53
71 96 58
66 90 54
67 92 55
68 93 55
108 128 116
148 164 171
153 170 177
147 163 169
153 169 174
143 160 165
146 161 165
137 153 155
160 175 182
147 162 168
143 159 164
144 160 164
64 88 51
67 92 55
67 92 54
66 91 53
64 88 51
65 89 53
69 94 56
62 86 50
73 98 59
70 95 56
71 96 57
139 156 159
150 166 171
134 151 152
146 162 166
153 169 178
141 157 164
140 156 157
153 169 175
145 161 167
132 147 150
149 164 170
108 125 115
70 96 56
63 86 50
70 95 56
70 94 57
73 98 59
70 94 57
69 94 55
68 93 55
71 97 58
64 89 52
80 100 77
142 158 161
144 160 163
150 165 169
140 156 157
140 157 162
136 153 157
152 168 179
142 158 164
137 155 153
143 159 164
152 168 174
65 89 53
67 92 54
68 93 55
67 91 54
66 89 53
62 85 49
70 95 57
66 91 54
68 93 55
72 97 59
71 96 57
154 171 179
151 167 175
137 153 157
148 165 168
149 165 169
144 161 165
150 166 171
139 155 158
138 154 159
138 155 154
139 156 159
85 108 84
67 91 55
69 94 56
67 91 55
68 93 55
68 94 56
73 97 61
91 112 92
106 125 113
119 138 132
142 159 161
92 113 94
72 97 57
68 92 55
75 101 61
71 97 58
72 96 57
66 90 53
68 92 55
67 91 54
67 92 54
67 92 54
129 147 145
149 165 170
148 163 171
146 164 168
136 152 155
142 159 163
145 161 165
142 158 163
139 155 158
143 161 168
145 161 168
86 108 85
66 90 52
64 88 52
74 100 61
71 96 58
71 96 58
69 94 56
69 93 55
67 92 55
68 92 55
71 96 58
143 160 162
156 171 177
147 164 170
159 174 182
149 164 168
150 167 172
155 170 177
153 168 176
154 170 178
154 170 177
119 136 132
70 95 57
73 99 60
70 96 58
71 96 58
69 94 56
67 91 54
66 91 54
75 101 61
70 96 58
77 100 72
151 167 173
141 157 161
152 168 174
148 164 171
166 182 194
149 165 171
147 163 169
129 146 144
77 99 71
72 98 59
153 172 180
149 164 171
161 177 185
146 163 170
145 161 163
163 180 190
151 168 176
153 169 178
154 170 178
146 164 172
77 100 66
75 102 62
70 95 57
73 99 60
71 96 58
74 100 61
74 100 60
78 105 64
77 104 63
137 156 157
145 161 164
162 178 187
154 171 178
149 166 173
163 180 194
151 168 177
154 171 176
154 171 180
128 146 143
75 102 62
72 98 59
72 98 59
78 104 66
143 161 167
156 173 182
151 168 175
148 165 168
100 121 102
73 99 60
73 100 61
74 100 61
74 101 61
75 103 62
73 98 59
77 104 64
153 170 176
154 172 182
164 181 190
154 171 178
154 170 176
162 180 192
164 179 187
131 149 146
76 103 63
76 103 63
78 106 65
153 171 179
155 174 182
154 172 181
125 144 135
79 107 65
74 101 61
78 106 65
78 105 64
132 153 147
160 177 187
158 175 185
160 178 189
177 194 209
73 99 60
79 107 66
134 153 147
162 180 188
161 177 186
155 173 179
163 179 189
154 172 179
156 173 181
153 170 176
95 118 93
78 105 65
79 105 64
79 107 65
81 109 67
77 104 64
77 104 63
73 100 61
143 160 160
161 178 190
165 182 191
153 171 179
159 176 187
163 179 190
90 116 83
77 105 64
82 109 69
157 172 180
159 177 187
151 167 174
162 179 190
156 174 182
163 179 188
160 177 187
155 173 180
155 172 182
111 132 118
73 99 60
76 103 62
79 106 64
79 106 64
74 100 61
75 101 61
71 97 58
75 101 62
77 100 68
154 171 178
152 168 176
161 178 187
152 169 179
149 166 172
152 170 175
146 162 167
158 175 185
152 169 175
156 172 181
74 99 64
75 101 62
72 98 59
70 96 57
78 103 68
104 124 109
156 171 181
160 176 184
152 168 173
150 166 171
92 115 93
68 93 55
69 95 56
73 99 61
68 92 55
68 92 54
73 99 59
71 97 58
70 96 57
73 99 60
90 112 84
154 170 177
148 165 170
154 170 178
144 161 164
156 172 183
153 169 173
149 165 169
153 169 179
150 167 175
153 169 176
126 144 143
65 90 52
72 98 58
68 93 55
71 96 57
68 92 54
70 95 56
67 92 54
71 97 58
68 92 54
67 92 55
118 137 132
149 165 172
151 168 175
153 170 179
135 152 151
148 163 168
153 169 178
151 167 174
156 172 181
159 174 181
151 167 171
118 137 131
71 96 57
72 97 59
70 96 57
73 99 59
74 100 60
68 93 55
65 90 52
71 97 57
71 97 58
74 100 61
102 124 108
138 154 157
144 160 165
135 152 154
153 169 178
147 162 170
142 158 164
150 165 171
164 178 189
155 172 181
137 154 157
113 132 124
113 131 126
121 139 134
149 165 169
143 158 164
151 168 174
153 168 174
142 158 162
150 166 172
152 167 175
150 165 171
140 157 160
80 104 71
69 93 56
68 92 55
70 95 57
72 98 59
69 93 55
71 97 58
69 94 56
70 94 57
70 95 56
66 92 54
99 120 104
143 159 165
143 159 163
144 161 167
136 152 154
160 176 184
150 166 173
151 167 174
134 151 150
142 157 163
147 163 170
142 158 161
65 90 53
73 99 60
62 86 51
64 87 51
73 98 59
71 97 58
62 85 49
69 93 56
63 86 50
65 90 53
71 97 58
123 140 136
145 161 167
156 172 179
146 163 168
140 157 157
145 162 165
138 154 155
153 168 177
139 155 156
139 154 158
139 155 157
154 171 177
66 91 53
68 93 54
71 97 59
66 91 52
69 95 57
67 92 54
63 86 51
69 94 56
67 91 54
69 93 56
66 91 54
149 165 171
151 166 175
152 167 174
149 166 172
149 164 170
149 164 170
147 163 166
153 167 175
155 171 182
147 164 169
150 165 171
132 149 149
71 96 58
69 93 55
69 94 56
65 89 52
66 91 54
66 91 53
67 91 54
71 96 57
73 99 59
66 91 53
66 91 53
145 162 165
143 159 160
153 169 178
150 166 176
150 166 175
144 160 163
143 158 164
147 163 168
158 173 183
140 156 159
146 162 166
103 122 111
68 93 55
72 97 59
73 100 61
69 94 56
63 87 52
64 88 52
68 93 56
69 94 55
71 95 57
68 93 55
78 103 68
143 160 165
143 160 164
141 157 162
150 166 174
146 161 164
137 153 158
130 147 147
119 136 131
119 137 131
101 121 109
88 108 86
142 157 160
149 165 171
137 153 155
152 168 174
149 166 170
150 165 173
149 166 171
146 162 169
148 163 168
148 165 171
152 168 176
79 102 70
68 93 55
74 100 60
70 95 57
67 92 54
72 97 58
70 95 56
69 94 55
70 94 55
74 101 61
69 94 57
126 144 141
145 161 164
134 151 153
146 162 168
149 165 172
144 161 162
139 155 156
146 162 168
155 171 179
152 168 177
147 163 171
98 117 102
73 99 60
73 99 60
74 100 60
72 97 59
71 96 57
66 89 52
71 96 58
75 100 61
62 86 50
73 98 60
130 147 144
144 160 164
150 165 170
151 168 176
143 159 166
156 172 182
156 171 181
150 166 173
145 163 169
151 166 173
150 167 173
79 104 70
72 97 57
71 96 58
70 95 57
68 92 55
71 97 58
75 102 62
75 102 62
70 95 56
72 98 59
112 132 121
154 170 179
134 152 155
104 125 109
69 93 56
71 97 58
72 98 58
68 92 55
75 102 62
74 101 61
95 115 99
142 158 160
156 173 182
152 169 175
152 169 179
158 174 184
145 162 167
153 170 178
152 170 177
158 175 185
138 155 156
65 88 51
69 95 56
70 97 59
76 103 62
76 103 63
75 102 63
71 96 58
72 98 59
72 98 59
144 161 160
168 184 195
165 181 194
155 172 181
152 169 175
152 169 176
156 172 181
154 170 177
161 177 188
116 135 125
121 139 129
141 157 160
149 168 174
162 179 189
155 172 181
168 184 196
154 170 180
158 174 181
82 106 76
74 100 61
75 102 61
75 101 60
80 108 66
71 98 59
75 102 62
77 104 66
142 160 165
162 178 189
160 178 187
154 172 180
161 177 187
164 180 192
156 172 178
132 151 148
116 135 126
159 176 187
159 175 188
153 168 175
157 174 184
157 175 185
119 139 132
124 144 137
164 181 192
165 183 196
157 175 185
168 185 195
163 180 190
155 173 180
129 148 143
170 187 200
152 169 177
162 179 188
152 171 178
164 181 191
161 179 189
163 180 190
96 120 95
79 106 65
78 105 64
77 105 64
78 105 63
73 98 58
76 103 63
75 101 61
120 140 126
160 176 185
163 179 188
174 191 204
160 178 185
169 186 198
162 178 187
168 184 195
160 177 184
104 126 110
158 176 185
155 172 180
163 180 188
165 181 191
152 169 177
160 176 187
163 180 190
165 181 191
127 145 140
76 102 61
79 106 65
76 103 62
71 97 58
78 104 63
72 97 58
74 100 61
72 98 59
75 100 60
141 159 159
159 176 186
161 178 188
164 180 191
157 173 181
165 182 192
152 168 176
156 172 180
160 178 186
155 171 180
108 127 115
75 101 60
76 103 63
71 96 58
77 104 63
73 99 60
76 103 63
73 99 60
71 98 59
73 99 59
102 122 107
128 145 143
64 89 51
71 96 57
75 102 62
74 100 61
72 99 59
70 96 57
71 97 58
70 95 56
73 99 60
121 140 134
155 172 181
151 167 172
163 178 187
153 170 176
152 169 177
145 161 169
163 179 190
161 178 186
148 166 172
134 151 154
89 111 89
78 104 63
72 97 58
72 98 60
72 97 58
71 97 58
75 101 62
74 99 59
74 100 61
70 95 56
65 90 53
133 152 151
146 162 168
149 165 171
154 170 177
146 162 168
157 173 182
144 161 166
148 165 171
160 176 187
155 171 180
155 171 180
121 140 130
66 90 54
75 101 61
69 95 56
75 102 62
70 95 57
70 96 58
71 96 58
61 85 49
70 96 57
63 88 51
93 115 92
145 162 167
152 168 175
143 160 163
152 168 174
145 161 166
149 165 172
150 166 173
146 163 169
138 156 159
150 164 168
149 165 170
69 93 58
69 94 56
68 92 55
66 89 53
73 98 59
64 88 51
69 94 56
72 97 59
69 94 55
70 95 57
67 92 54
114 133 122
134 150 152
118 136 131
117 134 124
104 123 114
92 112 95
89 111 88
77 99 73
65 90 52
67 92 54
67 91 54
69 93 56
146 162 170
152 168 174
152 168 175
143 159 163
153 169 176
150 166 171
149 163 169
141 157 160
151 167 175
146 163 168
151 167 172
131 148 149
73 99 60
68 92 55
68 93 55
70 95 57
66 89 52
70 95 57
68 92 55
70 94 56
62 86 50
71 96 58
67 92 55
146 162 167
148 163 170
155 172 179
144 160 168
139 155 159
151 168 177
146 162 165
139 155 156
152 168 174
148 163 168
150 166 174
144 159 165
66 89 53
69 94 56
66 91 54
69 95 56
68 92 55
66 91 55
73 98 60
67 91 54
67 91 54
66 90 53
68 92 54
139 155 156
147 163 169
146 161 166
144 161 166
133 150 152
146 162 165
153 169 178
144 159 165
157 172 181
145 161 169
145 161 164
142 159 165
72 97 59
70 95 56
65 89 52
72 97 58
70 96 58
68 93 55
70 96 56
70 95 56
71 96 58
67 90 53
64 89 51
132 149 148
151 167 175
145 160 165
162 178 188
143 160 163
144 160 162
151 167 174
140 156 158
145 160 163
151 165 170
157 173 185
134 151 151
71 95 57
73 99 60
70 93 62
87 108 88
104 123 110
118 138 130
119 136 131
135 152 151
139 155 159
147 163 169
156 172 180
101 121 105
73 98 59
72 96 58
65 90 53
69 94 56
69 94 56
76 102 61
74 100 60
69 94 56
69 93 55
69 94 56
72 98 59
153 168 177
148 164 169
141 157 160
147 162 167
159 176 187
150 166 170
154 169 176
156 172 181
141 156 163
147 163 169
146 163 170
94 116 94
73 99 60
69 93 56
68 93 55
65 89 53
75 102 62
70 95 57
71 97 58
72 98 58
66 90 53
71 97 59
115 135 121
159 175 189
151 166 173
145 162 167
151 168 176
144 160 167
142 158 163
150 166 172
144 160 163
147 164 170
143 159 162
130 148 147
70 96 58
67 92 54
76 103 63
67 92 55
67 91 53
70 96 57
67 92 54
70 95 57
68 93 55
74 100 60
109 129 119
156 173 180
146 162 168
155 171 179
145 160 166
153 168 176
147 164 169
145 162 169
149 165 172
139 156 157
152 168 175
102 121 108
74 99 60
69 94 56
68 93 54
70 95 57
72 98 60
68 93 54
85 108 84
132 150 150
150 168 177
148 164 170
76 101 68
70 95 57
73 99 59
75 101 61
73 99 59
70 96 57
75 102 62
77 104 64
75 101 62
74 101 62
127 144 141
160 176 187
154 171 179
153 168 174
151 168 174
159 176 185
141 157 160
150 167 175
156 172 181
147 164 171
112 129 118
73 99 60
73 100 60
71 97 58
75 101 61
77 103 63
76 103 64
76 102 62
76 102 62
78 104 70
145 162 165
152 169 173
156 172 181
148 164 172
171 186 200
153 169 179
130 149 151
72 98 59
71 97 58
127 145 146
159 175 184
157 175 184
160 176 187
162 178 186
157 175 184
154 170 179
167 183 193
157 174 181
83 108 74
75 102 62
74 100 61
77 105 64
74 101 60
78 106 64
77 105 64
78 105 67
150 168 174
161 179 190
155 171 179
161 178 188
160 176 186
159 177 186
77 105 65
126 146 142
156 174 183
154 172 181
158 176 184
165 182 191
159 176 187
168 184 197
164 181 188
161 178 189
166 183 194
167 184 197
131 151 148
77 105 64
75 102 62
165 182 191
162 180 190
160 177 187
170 185 196
160 177 185
99 122 103
79 108 66
79 106 65
77 105 64
75 102 62
76 102 61
78 106 65
75 102 61
123 142 131
151 169 174
167 183 192
160 177 182
160 177 185
147 163 170
154 171 179
159 176 186
156 171 181
125 145 133
77 104 63
73 99 59
77 104 64
103 124 110
163 180 190
157 174 183
167 183 195
161 179 186
137 155 156
75 102 62
71 97 58
74 100 60
79 106 65
75 102 62
78 105 63
78 105 64
78 105 64
76 102 62
108 127 117
152 168 172
136 153 155
159 175 185
155 171 178
142 159 161
161 179 188
155 173 181
160 177 187
156 172 179
150 166 172
70 96 58
73 100 60
70 96 57
73 99 59
72 97 58
73 98 58
71 98 58
74 100 61
72 97 58
72 98 59
137 155 156
155 171 182
152 169 177
150 167 172
149 166 171
155 170 175
135 153 151
79 104 70
75 101 61
72 98 59
70 96 57
159 175 183
153 170 177
156 172 179
145 163 168
152 168 176
151 169 177
151 168 177
149 165 171
149 164 169
153 168 175
148 163 169
73 98 58
73 98 59
72 98 59
73 99 60
74 100 61
69 93 55
69 94 56
69 95 56
70 96 57
73 99 59
74 100 60
153 169 175
150 166 170
149 166 170
158 174 182
144 159 162
144 161 165
145 161 165
157 173 180
144 160 166
158 174 183
148 164 169
100 121 103
72 97 58
70 96 57
67 92 53
73 99 60
70 95 56
71 97 58
71 96 57
69 94 57
71 96 57
69 94 55
76 100 68
150 166 169
147 164 171
151 167 172
157 174 182
159 175 182
153 169 175
142 159 163
136 153 155
151 166 171
141 157 159
143 160 161
88 110 87
75 100 61
68 93 55
70 96 57
74 100 61
73 99 60
67 91 53
71 97 57
69 94 56
68 93 56
60 83 47
74 100 61
153 169 175
136 153 153
156 171 179
148 163 168
154 170 176
160 176 187
149 166 171
145 161 166
150 166 175
135 153 156
147 163 167
125 142 138
73 99 61
69 95 56
67 91 54
66 91 53
63 86 50
67 92 55
71 95 60
85 108 81
96 117 96
89 110 87
96 115 101
113 131 124
117 136 131
106 126 115
117 135 128
105 125 109
103 123 110
93 114 92
82 105 79
74 97 67
72 98 61
70 95 57
70 94 56
142 158 164
140 156 160
158 175 184
137 154 156
140 157 156
145 161 165
146 162 167
150 166 175
142 158 161
147 165 170
146 162 168
142 159 165
66 90 53
69 95 56
68 93 56
75 100 61
66 90 53
69 93 55
69 94 56
66 90 53
64 89 52
68 93 54
74 100 61
146 163 169
150 166 172
160 175 187
145 161 165
140 156 160
144 160 168
156 172 179
146 163 168
146 162 167
158 173 179
152 167 175
144 161 166
78 102 69
83 104 79
83 106 77
91 112 87
104 124 112
101 121 108
86 106 90
120 139 135
114 134 120
115 133 125
134 151 152
136 153 156
82 104 82
76 99 72
74 99 59
67 91 54
68 93 56
65 89 52
68 93 55
67 91 53
73 99 60
72 98 59
70 96 57
116 133 128
150 166 173
150 166 174
150 165 173
145 162 168
150 165 170
140 158 161
147 164 172
144 160 166
146 162 171
151 168 175
137 155 157
72 98 59
71 97 59
72 98 59
66 90 53
66 90 53
69 93 54
70 94 56
70 96 57
73 98 59
70 96 58
67 91 55
88 111 86
157 173 179
142 159 162
154 169 178
148 164 172
157 173 181
148 166 171
143 160 165
150 166 174
149 165 171
148 165 173
153 169 176
69 94 56
71 96 58
68 93 56
73 99 59
71 96 57
70 95 56
76 102 62
72 98 59
63 85 49
68 94 55
66 90 53
112 130 120
143 159 164
157 172 178
149 166 172
151 168 175
149 166 173
153 169 176
152 169 176
159 176 187
143 159 163
153 169 176
140 156 159
70 96 57
71 97 58
68 93 56
69 94 56
75 102 62
68 93 56
69 95 57
72 98 59
70 95 57
71 97 58
76 100 68
144 161 165
148 165 169
152 168 177
157 173 183
146 162 165
145 162 167
145 161 168
152 168 174
161 176 185
162 178 189
152 168 175
71 97 59
107 127 116
142 158 162
142 160 162
154 170 177
143 160 161
147 164 170
149 164 167
157 173 181
162 178 189
128 146 143
69 94 57
73 100 60
67 92 56
77 104 64
70 96 57
71 97 58
76 102 62
73 99 59
67 92 55
74 100 64
154 170 178
155 172 182
154 170 177
150 167 175
157 174 184
157 175 184
154 172 182
159 175 183
152 170 178
153 170 177
81 105 78
75 101 61
76 103 64
74 100 60
79 107 66
73 100 60
75 102 63
76 103 63
74 99 60
98 119 100
145 162 168
149 165 171
145 163 166
75 102 62
75 100 61
78 105 64
73 99 59
68 94 56
79 105 68
151 168 176
150 168 175
156 173 182
155 172 180
150 167 174
160 175 183
157 173 179
156 173 182
147 164 171
74 99 60
76 103 63
74 101 62
77 103 62
76 102 62
74 100 61
79 107 65
84 109 77
169 185 195
167 183 195
151 170 178
107 129 111
81 108 66
78 106 65
77 105 65
123 143 134
164 181 194
165 181 193
166 182 195
170 186 197
173 190 206
168 186 198
117 139 130
77 104 62
77 105 64
75 101 61
76 104 63
79 107 66
168 185 198
156 175 184
111 132 118
79 106 64
73 100 59
76 105 65
77 104 63
81 109 68
77 104 63
72 99 59
112 132 120
158 175 183
163 178 186
158 175 184
154 172 178
153 170 174
156 173 180
162 179 189
168 185 195
132 151 147
75 102 61
75 102 62
75 102 62
80 107 65
72 99 59
76 103 62
75 101 61
92 116 90
153 169 177
77 101 71
73 99 60
71 96 58
74 101 61
72 99 58
75 102 61
73 99 60
74 101 61
74 101 61
100 123 97
153 171 180
157 173 180
162 179 189
161 177 188
161 178 187
152 168 173
161 178 187
159 174 180
152 169 175
164 180 190
93 116 91
75 101 61
76 103 63
75 101 61
74 100 60
72 97 57
74 100 60
75 101 62
75 101 61
71 97 58
91 114 89
155 171 177
146 162 166
159 176 185
150 167 175
164 179 186
150 168 174
154 171 178
157 173 178
152 169 175
162 179 189
127 145 144
100 121 103
131 148 147
154 171 179
164 179 188
158 175 182
148 166 169
150 167 174
148 165 172
148 164 171
150 168 175
151 166 171
75 101 61
71 95 57
73 99 60
72 98 59
70 96 58
71 96 58
70 95 56
71 97 58
68 93 57
70 96 58
70 96 57
161 177 190
145 162 167
152 169 176
141 157 162
158 173 181
163 179 188
153 169 175
159 175 183
156 171 178
145 161 167
140 156 160
110 128 120
68 93 55
67 92 54
69 93 56
75 101 61
67 92 54
70 96 57
71 97 58
71 97 59
68 93 54
74 101 60
70 96 57
149 165 172
157 172 179
147 164 168
147 164 168
162 178 189
146 163 169
157 173 179
151 166 172
147 163 170
153 171 179
158 174 180
131 148 149
74 101 61
69 94 57
71 97 59
73 99 59
70 95 56
75 102 61
71 96 57
71 96 57
73 99 60
76 103 62
71 96 58
127 144 144
148 165 171
164 180 189
147 163 168
151 168 176
143 160 162
150 167 172
147 164 168
158 173 182
147 164 169
155 171 180
158 173 182
69 94 56
58 81 46
66 91 53
71 96 58
70 95 56
69 94 57
67 92 55
67 93 55
67 93 54
74 99 60
70 95 57
72 97 58
149 165 170
148 164 170
152 168 175
156 171 177
149 165 171
152 169 177
153 169 175
148 166 172
159 174 182
145 161 168
152 168 175
142 159 162
71 97 58
70 95 56
66 90 53
71 96 57
73 99 59
71 97 57
74 100 60
70 95 57
71 96 58
66 91 54
72 97 58
96 117 96
146 162 168
150 167 175
147 163 168
143 159 166
144 160 166
142 159 161
140 155 159
154 169 179
142 159 163
150 166 175
130 146 149
105 125 113
67 91 54
65 89 53
70 95 57
72 98 59
65 88 52
70 95 57
65 90 52
72 97 58
76 102 62
66 91 53
70 96 57
136 151 155
138 156 160
147 164 170
153 169 175
144 159 161
149 166 174
146 163 167
142 158 161
141 157 159
151 167 174
144 160 166
156 172 180
69 94 56
71 96 58
69 94 56
68 93 54
71 96 57
74 100 61
68 92 55
70 95 57
68 92 55
75 101 61
77 103 62
70 95 57
151 167 174
150 166 174
149 165 172
156 172 182
144 161 166
141 156 158
144 161 167
147 162 167
149 165 170
150 167 174
152 169 176
143 159 163
74 100 61
67 92 55
70 95 56
72 98 59
72 98 58
73 99 59
63 87 51
69 94 56
69 93 55
75 102 61
71 97 58
121 140 135
158 173 182
152 167 174
164 181 192
152 167 175
139 155 159
153 169 176
145 162 167
159 175 185
147 162 168
154 170 178
148 164 169
67 92 55
72 98 58
73 99 60
67 92 55
67 92 54
67 92 54
76 103 63
68 94 56
71 96 58
75 102 62
68 94 56
100 120 103
149 166 173
147 164 169
149 163 169
140 157 159
149 165 172
146 162 167
144 161 168
145 163 167
144 161 165
157 173 183
155 172 181
73 99 60
73 99 59
69 94 56
66 91 52
71 97 58
62 86 51
73 99 60
66 91 54
73 98 59
75 101 61
73 99 60
139 156 161
158 174 183
146 162 169
164 180 191
153 169 178
154 171 180
146 163 165
115 135 124
71 97 58
65 89 51
72 97 58
145 163 167
157 173 181
152 168 175
152 167 172
147 163 168
147 164 169
148 165 170
152 169 177
165 182 192
145 161 171
155 172 178
80 102 74
66 91 54
72 98 59
74 100 61
70 95 58
73 100 61
69 94 57
76 103 63
75 102 63
69 95 56
97 118 101
158 175 186
157 173 181
159 175 185
162 178 190
152 170 176
157 174 184
150 167 175
153 169 175
163 179 190
139 158 161
72 98 59
77 105 65
77 104 63
77 103 62
71 96 57
70 95 56
72 98 59
73 100 59
124 144 139
137 155 158
74 100 60
73 99 60
75 102 62
75 101 62
74 100 60
77 104 64
77 105 64
71 97 58
85 110 76
163 180 191
159 176 186
157 174 182
170 187 201
159 175 185
150 167 173
154 171 179
152 169 177
141 159 163
74 101 61
79 106 65
74 100 61
75 102 62
74 100 60
76 104 64
76 103 63
84 110 76
135 154 151
73 100 61
77 104 64
80 107 67
71 96 57
77 104 64
72 98 59
122 143 137
164 181 192
167 184 195
144 163 166
80 107 65
76 103 63
80 108 65
75 102 62
79 107 66
77 104 63
76 104 64
137 156 156
75 102 60
74 101 61
75 102 62
74 101 61
81 109 67
78 105 64
79 107 67
103 126 105
169 185 195
165 180 187
157 174 181
151 168 176
166 182 193
160 176 184
156 173 180
153 170 177
155 172 179
75 102 62
75 102 61
77 103 63
77 104 64
77 104 63
80 107 65
76 103 62
77 104 63
75 101 61
143 161 163
159 175 183
154 172 179
97 120 95
76 102 62
75 103 63
76 103 62
73 100 59
70 96 56
73 99 60
140 158 160
166 182 192
153 170 176
155 171 177
163 179 188
160 177 187
164 180 189
159 175 183
159 175 184
151 168 174
131 150 144
76 103 62
73 99 60
76 103 62
73 99 59
69 94 56
76 102 62
72 98 59
73 99 60
79 106 64
78 105 64
146 163 167
154 171 179
166 181 190
157 173 183
156 172 181
151 168 175
153 169 177
155 172 184
164 180 190
143 160 163
149 165 172
98 121 96
71 97 58
75 101 61
73 100 60
76 102 62
69 94 55
74 100 61
99 120 98
132 150 150
154 170 176
161 177 186
102 123 105
74 101 61
74 100 60
74 101 61
75 101 61
70 95 56
69 94 56
74 101 61
74 101 61
76 102 62
73 100 60
76 101 64
146 164 169
148 165 170
162 179 189
151 168 172
154 171 179
152 169 176
158 175 184
160 176 184
148 164 168
159 175 183
155 171 178
100 120 106
72 97 58
70 96 57
71 97 58
72 99 59
73 99 60
69 94 56
66 91 52
73 99 59
75 101 60
73 98 59
72 98 58
148 164 170
153 170 177
139 156 159
151 166 169
144 160 162
154 170 178
153 168 176
145 161 167
145 162 165
153 170 178
158 174 185
144 161 164
71 96 57
71 96 57
70 96 56
72 98 59
73 98 59
69 94 56
68 93 54
72 97 58
75 101 62
71 97 57
67 92 54
84 108 83
147 163 170
153 170 175
149 165 169
154 169 178
139 156 158
154 169 177
148 164 171
149 166 174
156 173 182
143 159 162
146 163 170
127 144 141
66 90 53
72 97 59
71 96 58
71 97 58
65 89 52
67 91 52
69 95 55
70 96 57
69 94 55
71 96 58
73 98 59
108 127 117
151 167 173
151 166 172
153 170 179
144 159 164
149 165 171
156 172 180
140 156 158
153 170 178
143 160 164
151 167 174
161 176 187
106 125 116
65 89 52
63 86 50
72 98 58
69 94 55
69 94 55
70 95 57
68 93 55
71 96 58
73 98 60
71 95 57
67 91 53
97 118 100
153 169 176
139 154 157
145 160 166
153 168 171
148 164 170
153 171 180
141 158 161
145 160 166
151 168 176
148 163 170
138 154 156
114 132 126
66 90 53
72 97 58
69 94 55
71 96 59
63 87 50
70 95 57
73 98 59
71 96 57
70 95 56
74 100 60
67 92 54
105 124 112
149 166 172
144 161 167
149 166 171
159 174 182
149 165 172
148 165 172
151 167 175
146 162 166
145 162 169
140 157 160
152 168 176
133 149 150
66 91 53
68 93 56
69 95 56
67 93 55
72 98 58
71 97 58
69 93 55
71 96 57
66 90 53
68 92 54
72 98 59
119 137 130
141 157 163
145 162 166
142 159 164
155 171 181
138 153 155
146 163 169
153 170 176
155 170 181
145 162 166
146 164 166
145 162 168
95 116 99
67 92 55
65 89 51
66 89 53
67 92 54
73 99 59
71 96 56
68 93 56
66 91 54
71 96 58
70 96 57
70 95 57
140 156 163
157 173 182
154 170 178
142 160 163
153 170 179
151 168 174
137 154 157
149 164 169
147 162 169
145 161 164
150 166 173
144 161 166
70 95 57
73 100 59
73 99 59
70 96 57
72 98 60
73 99 59
70 95 56
72 97 59
68 93 55
72 98 59
75 102 62
98 118 104
158 175 185
146 162 167
145 161 168
157 174 185
159 175 184
154 171 178
155 172 180
147 162 167
160 176 188
149 166 173
158 173 184
77 102 70
74 100 60
71 96 58
65 89 53
74 100 62
73 99 60
69 94 56
72 98 59
66 90 53
73 100 60
68 92 54
127 145 145
120 139 132
72 97 58
73 100 61
74 100 61
71 97 58
72 99 59
70 96 58
69 95 56
72 97 58
70 96 57
91 113 90
156 172 177
153 170 177
160 176 185
147 164 169
162 178 188
143 160 164
154 172 181
150 167 172
143 160 163
162 178 186
126 145 139
72 98 58
72 99 59
73 100 61
70 95 56
72 98 59
74 101 62
71 98 58
72 98 60
71 97 59
74 100 61
154 171 178
163 179 191
155 172 176
151 167 175
156 172 182
167 184 197
162 178 187
160 177 189
153 170 180
160 177 188
120 140 132
71 97 59
71 97 57
73 99 60
78 106 65
137 154 159
156 173 184
153 170 179
164 180 193
157 175 185
114 136 122
72 97 58
70 95 56
76 102 63
76 103 63
79 106 65
73 100 61
73 99 60
67 93 55
106 128 111
156 173 182
155 173 184
151 169 180
163 179 191
162 178 188
154 171 180
173 189 204
167 183 196
130 149 148
71 98 59
77 103 62
72 99 59
78 105 64
71 98 59
98 121 101
162 179 188
159 174 181
75 103 63
77 104 63
74 100 61
73 100 61
81 109 68
76 104 64
76 103 63
78 106 64
78 106 65
81 109 66
78 106 65
78 105 64
77 104 64
75 102 62
117 139 127
163 180 189
174 189 200
153 170 174
77 104 63
76 103 62
78 105 64
78 106 65
84 111 74
160 177 186
161 178 189
161 178 185
162 179 188
161 177 186
167 183 192
161 178 187
165 181 190
169 187 199
81 108 72
76 102 62
72 99 59
75 102 61
76 104 64
75 102 61
75 101 61
73 99 60
76 103 63
111 132 122
164 181 192
164 180 189
155 172 180
166 183 196
170 186 196
165 181 191
135 153 152
76 102 65
71 97 57
117 137 129
162 179 186
162 178 187
149 167 172
160 175 185
153 170 178
152 168 172
161 176 184
160 176 185
155 170 177
166 182 193
79 104 70
75 101 62
76 103 62
72 98 59
75 101 61
73 100 60
71 97 58
73 99 60
74 100 60
74 101 61
82 106 78
155 171 177
150 166 172
149 167 174
150 165 169
152 168 173
159 175 182
157 174 180
138 155 157
150 167 174
164 180 189
153 170 179
72 98 59
71 98 58
72 98 59
69 95 56
71 97 57
71 97 57
73 99 59
73 99 60
74 100 60
73 99 59
70 96 58
150 168 175
146 164 168
158 173 182
132 148 148
112 131 121
69 95 56
70 96 57
70 96 57
79 106 65
72 98 59
69 94 56
92 114 92
143 160 163
151 167 174
147 162 166
153 169 177
159 176 186
151 167 175
148 165 174
155 173 182
157 175 183
160 177 186
140 157 160
99 119 104
67 92 53
74 100 60
71 96 58
69 95 57
75 102 62
73 100 61
69 94 56
70 96 57
70 95 57
72 98 58
65 89 52
149 166 172
145 162 164
154 170 178
150 166 170
145 160 165
150 167 172
153 169 176
154 170 177
148 163 167
153 168 175
143 159 162
160 176 185
73 98 58
71 97 58
71 96 56
71 96 57
74 100 60
71 96 57
70 96 56
71 96 57
64 88 51
70 95 57
68 93 55
70 96 58
145 162 168
156 173 180
146 162 167
150 167 173
152 167 171
141 156 159
154 170 178
150 166 174
154 169 177
145 162 164
147 163 169
155 172 182
68 93 56
72 98 59
74 100 60
68 93 55
77 104 63
70 95 56
69 93 55
67 92 54
69 94 56
73 99 59
73 98 58
72 98 59
147 163 167
153 169 179
147 162 169
149 165 170
156 172 180
148 165 171
160 176 186
151 168 177
154 170 175
147 163 168
157 173 182
142 159 163
90 110 91
65 89 53
68 94 55
71 96 58
65 89 51
66 90 53
70 94 56
69 94 56
69 94 56
66 91 53
69 94 56
70 94 56
119 135 129
145 161 167
149 166 172
153 168 174
150 165 171
144 160 166
156 172 179
140 157 160
153 169 177
153 170 177
142 159 164
149 165 168
135 152 153
68 93 55
67 92 54
67 92 54
70 95 57
70 95 57
72 97 59
71 97 58
73 98 59
71 96 58
71 96 58
66 90 53
70 95 57
151 166 172
147 163 169
152 169 179
153 169 178
160 176 184
153 170 177
145 160 168
157 172 179
150 166 171
152 168 175
154 172 179
143 158 163
71 96 57
70 95 56
68 92 55
74 99 60
74 100 61
73 100 60
70 95 57
70 96 58
67 91 52
69 93 56
73 99 60
70 95 57
142 157 161
147 163 169
146 161 167
146 163 170
151 168 173
138 154 154
150 166 173
147 164 166
152 169 174
148 164 172
148 165 171
151 168 175
68 94 56
67 92 54
72 97 58
66 91 53
70 96 57
74 100 61
70 95 57
70 94 57
76 102 62
64 87 51
74 99 59
69 94 56
149 165 170
143 159 162
153 169 178
160 176 186
149 165 172
144 161 166
157 173 181
151 167 176
151 167 175
142 158 157
157 173 180
144 160 164
69 94 56
73 99 60
69 94 55
68 92 55
71 97 58
73 99 60
68 92 54
73 99 59
71 96 56
76 102 62
69 93 55
98 119 100
149 166 171
144 161 165
157 174 184
158 175 184
149 165 170
144 160 164
152 168 176
155 171 178
158 174 182
148 165 171
154 171 177
94 114 100
74 100 61
69 94 56
72 98 60
85 108 84
115 135 123
146 162 167
151 168 172
152 169 175
154 169 177
153 169 174
147 164 170
70 96 56
71 96 57
73 99 60
72 99 59
69 94 56
71 97 58
73 99 59
76 103 63
71 97 58
74 99 60
72 98 59
156 170 176
152 168 176
147 164 168
156 172 182
154 172 181
162 178 188
156 173 182
148 164 169
157 174 184
154 171 178
155 171 177
77 103 67
73 100 60
75 102 62
70 96 56
76 103 63
71 97 58
72 98 59
76 102 62
71 96 58
74 101 61
102 125 104
162 179 190
156 173 182
151 169 176
158 175 186
159 176 184
153 170 175
151 167 173
153 169 176
153 171 178
157 173 183
99 120 101
156 172 181
155 171 181
169 186 198
156 173 182
163 179 192
161 179 190
163 180 191
153 169 175
154 171 178
81 105 72
74 100 61
71 96 58
74 100 61
73 100 61
72 99 59
72 98 59
74 100 60
73 100 60
121 141 136
163 181 193
154 171 179
162 179 188
152 170 178
166 183 194
169 187 201
152 170 179
160 177 186
128 147 144
78 106 65
74 100 60
101 123 106
163 180 190
167 182 191
161 178 188
151 168 177
144 163 167
79 107 66
78 106 65
77 105 64
78 105 65
73 99 60
80 108 66
78 106 65
77 104 63
76 104 63
75 101 62
119 141 131
168 185 199
168 186 198
164 181 190
170 188 198
170 186 197
158 175 187
78 105 64
78 105 67
153 170 176
160 176 186
153 173 180
159 176 183
164 180 188
159 176 185
164 181 191
154 171 175
166 183 195
96 118 96
75 101 61
73 99 60
72 98 59
75 103 62
80 108 67
78 105 64
78 105 64
78 105 64
82 106 77
150 167 173
159 176 183
153 171 181
164 181 190
159 175 182
167 182 192
164 179 188
158 176 185
158 174 182
155 173 182
83 108 74
140 158 159
164 181 189
162 179 189
155 169 174
158 176 187
159 176 185
153 170 175
143 159 162
162 179 188
124 142 138
75 101 61
76 102 61
72 98 60
74 101 60
74 100 60
77 104 63
72 98 58
73 99 60
73 99 60
76 103 61
143 160 162
165 181 191
160 177 188
153 171 177
161 178 187
154 172 179
151 169 176
146 164 169
162 178 188
151 167 176
165 182 191
121 141 136
71 97 57
74 100 60
73 99 59
74 100 60
72 97 59
75 102 61
70 96 58
75 102 62
76 102 61
74 101 60
78 103 67
160 177 189
145 162 171
152 169 176
160 176 184
155 172 177
157 174 183
152 168 176
144 160 163
146 162 164
155 172 179
125 145 140
106 126 114
147 163 168
153 171 178
156 172 180
147 165 172
157 173 181
147 164 169
139 156 160
150 167 174
160 176 185
147 164 167
145 162 168
100 120 102
72 98 59
69 95 56
75 101 62
73 99 60
71 96 58
72 98 58
70 96 57
66 90 53
76 104 63
73 99 60
71 96 57
152 168 173
156 172 179
145 162 165
150 166 173
160 176 184
149 166 172
153 169 177
157 174 181
164 180 191
163 179 186
149 166 171
153 170 177
85 109 78
71 96 58
73 99 60
68 93 55
69 94 55
67 92 55
65 89 52
70 96 57
69 94 56
67 91 53
73 100 60
74 100 61
127 145 141
146 163 171
152 168 175
155 171 177
144 161 166
156 173 182
142 158 162
152 168 176
151 168 175
144 161 166
144 160 163
144 161 165
130 147 146
75 101 61
67 92 55
71 97 58
75 101 62
64 88 52
72 97 59
70 95 57
71 97 58
63 87 51
69 95 57
69 94 56
65 90 52
141 158 160
149 166 168
152 168 174
156 173 184
150 166 169
162 177 189
148 164 168
146 163 166
149 166 173
158 175 182
150 167 174
146 163 170
72 97 58
72 97 59
75 101 62
76 103 62
68 93 54
68 92 55
70 96 57
72 97 58
73 99 59
72 98 58
67 91 53
65 89 52
128 146 143
152 168 175
150 165 171
150 166 172
152 168 175
149 165 170
158 172 179
148 164 169
148 164 171
156 172 179
151 167 172
143 160 164
154 170 177
66 91 53
72 97 58
70 94 55
68 94 56
72 98 59
72 98 58
65 90 53
73 100 61
69 95 57
71 98 58
71 96 58
71 96 57
149 164 170
144 160 165
138 155 156
154 169 177
163 180 189
146 163 168
152 169 176
146 164 167
152 167 174
144 160 164
154 169 177
148 164 170
84 106 82
72 98 58
69 94 56
68 93 54
67 92 53
70 95 56
76 102 62
73 98 59
67 92 53
73 99 60
73 99 59
72 98 59
112 132 122
151 168 175
143 159 165
144 161 165
150 167 175
150 167 176
149 166 174
150 167 175
148 164 168
143 159 163
144 161 166
141 159 162
142 159 162
70 96 57
66 91 54
74 101 60
71 96 58
72 97 58
69 94 55
72 98 59
73 98 59
67 92 54
76 102 62
71 97 57
68 93 55
153 168 175
151 167 176
144 161 166
151 168 177
148 165 171
135 153 154
148 165 169
147 163 169
147 164 172
144 161 166
155 172 180
147 164 168
67 92 54
69 94 57
72 97 58
74 100 60
75 101 61
74 100 61
71 96 58
71 96 58
71 97 58
68 93 55
70 95 56
79 102 73
157 172 179
149 166 171
147 163 169
160 176 186
148 165 169
159 176 184
157 173 181
154 170 180
135 152 156
116 136 127
107 127 109
122 141 135
145 162 166
152 168 176
155 171 177
146 161 166
149 165 173
161 177 187
158 174 180
165 181 193
147 164 171
150 167 172
160 176 186
70 96 58
71 98 58
70 96 57
72 98 59
71 97 57
70 96 57
71 97 58
73 99 59
72 97 58
73 98 58
73 100 60
135 154 154
154 170 177
158 174 183
162 178 187
159 176 184
151 167 175
154 171 176
155 173 184
160 176 184
162 178 186
141 158 161
110 130 122
78 106 65
69 94 56
69 94 56
73 100 61
71 97 58
72 98 58
73 100 60
73 99 59
79 107 66
71 97 58
142 159 161
167 184 197
156 173 182
150 168 176
164 180 191
156 173 179
156 173 181
111 132 117
70 95 57
76 103 63
94 117 95
155 172 178
162 179 188
156 174 181
159 176 188
156 172 180
149 167 174
162 178 189
156 173 183
153 170 175
151 168 173
77 104 64
75 102 63
78 105 64
79 106 65
74 100 60
76 103 64
75 102 62
76 103 62
75 101 61
137 155 154
160 177 186
154 171 178
158 175 187
161 177 188
160 178 190
170 188 201
158 177 189
167 184 196
111 131 120
157 174 183
159 177 190
159 177 188
154 171 179
160 177 186
161 179 190
163 181 194
136 155 157
80 108 67
79 106 66
76 103 63
77 105 63
76 102 62
80 107 65
100 123 99
161 178 186
168 186 199
169 185 196
158 176 184
160 177 185
167 184 196
164 182 192
165 182 195
118 138 128
156 174 179
163 180 192
157 174 180
164 180 188
166 183 193
168 185 196
162 178 187
160 178 187
123 142 133
80 108 67
73 100 61
76 103 63
76 103 63
76 103 62
79 107 66
75 101 60
77 104 64
74 101 61
152 169 174
163 180 189
170 186 199
168 185 197
167 183 195
162 179 189
159 175 183
151 167 171
168 184 197
159 176 186
94 118 93
77 104 64
79 107 66
75 102 62
76 103 62
95 119 95
140 158 159
164 182 194
159 174 183
156 172 181
158 174 182
77 102 66
73 99 60
71 97 58
73 99 59
78 105 65
73 99 59
73 99 59
72 98 58
77 104 63
72 96 58
73 99 62
164 179 190
164 181 195
163 180 191
159 176 186
159 175 184
168 184 193
141 158 161
163 179 189
155 173 181
151 168 174
155 171 178
83 108 74
75 102 62
70 96 57
74 99 60
68 93 55
69 94 56
74 102 61
70 96 57
69 94 55
72 98 59
70 95 56
85 111 78
147 164 168
149 165 170
163 179 190
158 175 183
154 170 178
148 165 171
150 167 173
154 170 177
146 163 169
159 176 184
164 181 192
107 128 112
73 99 60
77 104 63
71 97 57
66 91 53
73 99 59
92 114 95
108 127 119
137 155 158
151 168 174
153 170 177
166 181 189
102 123 107
72 98 58
76 103 63
72 98 59
73 99 60
74 100 59
71 97 58
71 96 58
71 96 58
74 100 61
72 98 58
73 98 59
143 160 163
154 170 177
146 162 167
148 166 175
154 171 179
155 172 178
151 167 171
157 173 181
152 168 175
158 174 184
156 174 184
146 162 166
135 152 150
73 99 59
75 102 61
74 100 60
74 99 59
70 95 57
72 98 58
73 99 60
69 94 55
68 93 55
69 95 56
66 90 53
69 94 56
150 167 175
146 162 166
152 168 175
148 164 168
158 174 182
153 170 178
160 176 187
143 159 163
148 164 171
148 164 169
153 169 176
155 172 180
73 100 60
69 94 56
74 100 61
71 97 57
73 99 59
69 95 56
68 93 55
69 94 57
73 99 60
67 91 53
70 95 57
68 94 55
108 129 119
147 162 166
151 167 171
154 170 179
147 163 168
140 157 164
144 159 164
151 167 171
146 161 166
146 163 168
131 149 149
145 161 168
154 170 178
77 103 63
65 90 52
71 97 58
73 98 58
67 92 54
69 94 55
65 90 53
66 90 53
70 96 57
71 97 58
71 96 57
69 95 56
139 156 158
144 161 166
149 165 173
154 169 175
153 169 176
148 164 170
144 160 164
151 167 174
142 160 164
164 179 190
151 166 174
137 154 156
158 173 180
70 95 57
72 97 58
70 94 56
69 94 56
68 93 55
70 96 58
75 101 62
66 91 54
71 97 58
69 95 57
70 95 57
72 98 60
144 160 164
152 168 179
148 164 169
153 170 179
159 176 186
154 169 174
159 174 183
149 164 170
144 160 168
150 167 172
147 164 169
143 158 161
150 165 172
72 98 59
73 99 59
68 93 55
70 95 57
70 96 58
72 96 57
68 93 55
68 93 56
71 97 59
72 97 59
76 102 62
67 92 54
149 166 173
152 168 175
151 168 177
154 170 177
140 157 161
155 171 179
156 172 180
141 158 160
143 160 165
154 169 176
158 175 184
153 170 177
97 117 102
75 101 62
72 98 59
69 95 57
68 93 55
71 98 59
73 100 60
73 99 60
75 101 61
70 96 56
73 99 60
67 92 55
105 125 109
148 165 172
135 152 152
148 165 172
146 163 168
155 172 181
161 177 185
147 164 168
148 164 170
155 171 178
141 158 164
152 167 172
152 168 176
75 102 62
70 96 58
69 94 56
69 94 56
69 95 57
75 102 63
74 100 61
74 101 61
73 99 59
74 100 60
70 96 57
79 102 72
163 180 189
128 146 142
110 130 116
77 101 69
71 97 59
69 93 55
70 96 58
71 97 58
72 98 60
71 97 58
72 98 59
103 124 110
158 173 183
152 169 178
154 170 175
148 166 171
165 180 190
153 170 176
149 165 172
151 166 174
148 164 173
149 165 173
142 158 163
105 124 111
73 99 60
69 94 56
74 101 61
74 100 62
74 100 59
78 105 64
77 103 63
72 97 58
71 97 58
72 97 59
83 106 79
154 171 178
158 174 183
154 172 179
151 168 175
153 169 177
155 172 178
153 170 180
157 175 185
156 174 183
161 177 186
166 181 192
84 109 77
75 101 62
76 103 63
72 97 58
72 98 59
71 97 58
71 97 57
77 103 63
77 104 63
73 99 60
75 98 64
157 174 184
153 169 176
124 143 139
73 99 60
79 106 65
75 101 61
67 92 55
70 96 58
71 97 57
74 100 60
136 154 153
162 179 189
155 174 182
155 172 182
164 179 188
168 186 199
162 179 190
156 171 179
167 184 195
159 175 185
131 150 149
79 107 66
77 104 64
75 102 62
77 103 63
74 101 61
78 105 64
79 107 65
72 97 58
71 97 58
156 174 182
164 181 192
173 191 206
167 184 198
158 176 188
161 178 188
99 122 101
75 102 62
76 103 63
160 177 188
171 187 200
157 174 184
157 175 185
161 178 189
164 181 193
163 180 191
157 175 186
123 143 136
74 100 62
80 108 66
87 113 76
165 182 193
165 183 195
168 186 200
170 186 196
158 176 184
164 182 193
157 174 182
182 198 213
128 148 141
77 105 64
79 107 66
75 102 62
121 143 134
157 176 183
162 180 190
155 173 183
159 176 185
144 161 165
78 106 66
77 105 64
82 109 67
75 102 62
75 102 63
75 101 61
76 103 63
76 104 63
77 104 63
121 141 134
156 174 183
168 185 195
165 182 191
161 178 187
157 174 183
163 179 191
161 178 187
159 175 183
161 177 187
157 174 181
78 104 63
73 99 60
77 104 62
77 104 63
72 98 58
72 98 59
72 97 58
75 102 62
73 98 59
80 105 70
138 157 158
78 105 64
75 102 62
74 100 61
82 110 68
76 102 61
73 98 58
75 100 60
71 96 57
71 96 57
78 105 64
127 145 138
157 174 180
149 165 171
159 176 187
161 180 190
156 172 179
154 171 175
159 176 185
166 182 193
155 172 180
154 171 178
147 164 170
80 107 65
77 105 64
70 95 56
79 106 65
73 98 60
72 98 59
72 98 59
67 91 53
75 102 62
76 103 62
74 100 60
124 144 141
161 177 187
166 183 193
162 179 188
148 166 171
149 167 172
145 161 167
152 167 171
144 162 164
159 176 186
150 167 172
150 166 170
98 120 99
72 98 59
73 99 60
74 101 61
73 99 59
74 101 61
73 99 59
74 100 60
73 100 60
72 99 60
67 92 54
67 92 54
133 152 149
144 162 170
153 170 178
129 147 146
119 138 129
82 107 77
70 96 57
72 97 59
72 97 58
69 95 57
73 98 59
66 91 53
110 130 118
149 166 172
145 161 165
150 167 173
151 168 174
156 171 178
164 181 190
151 167 173
152 168 173
159 175 184
149 165 168
159 175 184
148 165 172
68 93 55
69 94 55
68 93 55
75 101 61
69 94 56
73 99 60
74 100 61
71 96 57
70 95 56
70 95 56
73 99 60
73 99 60
146 162 167
157 173 183
143 160 164
146 163 168
149 167 176
150 167 173
153 169 177
146 162 167
152 169 175
160 174 185
150 167 173
142 158 162
160 177 183
73 98 59
73 98 59
72 98 59
65 90 52
74 100 59
70 96 58
74 99 60
70 94 56
73 99 60
69 95 55
70 95 57
71 98 59
149 166 175
144 160 167
154 171 178
151 168 175
147 163 168
152 168 173
153 169 176
151 168 174
148 165 171
142 159 161
146 164 171
148 163 166
134 152 155
70 95 57
75 101 61
73 98 59
71 96 57
73 99 60
71 97 59
65 90 52
70 95 57
66 91 52
73 100 60
67 91 54
75 101 62
133 151 151
155 171 178
160 177 188
152 168 172
153 168 174
142 158 163
149 165 171
153 168 173
146 162 168
146 161 165
143 158 164
138 154 156
143 159 165
73 98 59
68 94 56
71 97 57
72 97 58
73 99 60
71 96 58
71 97 58
73 98 59
66 91 54
78 104 63
71 96 57
69 94 56
118 136 130
152 169 175
154 170 178
145 163 169
154 170 177
150 166 172
156 173 178
150 165 171
156 173 182
154 172 181
145 161 165
141 157 162
150 166 167
74 101 61
70 95 57
70 95 57
71 96 58
70 95 57
70 94 56
76 103 63
71 96 57
70 95 57
70 95 57
68 93 54
71 96 57
116 136 129
140 158 161
155 171 181
144 161 166
147 163 171
152 169 175
152 170 175
145 161 166
146 162 167
155 172 179
147 164 169
154 170 178
154 171 179
71 97 58
70 95 56
67 93 55
69 94 56
69 94 56
71 96 58
71 97 59
72 98 58
74 100 61
72 98 59
73 99 59
70 96 58
129 148 146
160 176 186
150 167 175
155 172 180
145 161 165
141 157 161
158 173 180
146 163 168
138 154 159
148 165 170
153 170 178
166 182 192
133 150 149
75 101 62
73 98 59
68 93 55
76 100 68
111 131 116
119 138 131
145 162 163
155 171 179
152 168 175
148 164 170
151 168 174
155 172 181
72 97 58
76 103 62
70 96 58
76 102 62
70 96 57
74 101 61
74 101 61
68 93 55
81 108 65
69 94 56
73 99 61
90 112 87
157 172 177
151 168 176
149 166 174
158 175 182
154 170 177
151 168 177
160 175 186
160 176 181
155 173 181
159 176 184
173 188 199
139 156 156
77 105 64
73 99 59
76 104 64
75 102 61
75 101 61
76 103 63
77 103 63
72 98 59
77 104 64
76 102 62
76 102 62
148 165 173
152 169 178
161 176 184
161 178 186
164 180 191
157 173 182
151 168 177
154 171 179
151 169 175
152 169 181
155 172 180
107 128 114
72 98 59
75 101 61
80 107 66
75 102 63
74 100 61
74 100 60
74 100 60
76 102 65
131 148 145
149 168 175
119 137 131
76 102 62
73 100 61
76 102 61
78 105 65
73 99 59
74 100 60
75 102 62
70 96 58
81 109 68
83 110 69
160 176 186
158 175 185
164 181 191
162 179 188
149 166 172
160 176 185
155 172 180
161 177 186
164 180 190
150 168 177
87 113 83
76 104 63
71 98 59
78 105 63
77 104 64
74 100 61
74 100 60
78 106 65
74 100 60
102 122 107
164 180 187
148 165 172
163 179 189
74 100 61
79 107 66
74 101 62
73 100 60
79 107 65
91 116 86
165 181 193
167 186 199
174 192 207
172 189 203
161 179 189
166 184 197
165 183 196
170 186 197
159 177 187
173 190 206
165 182 193
161 177 186
167 183 195
176 193 205
165 182 194
164 181 192
146 164 168
79 106 65
77 104 63
76 103 63
77 104 63
76 103 62
81 110 68
76 104 63
163 181 191
164 182 195
80 107 71
81 108 66
77 104 64
78 105 64
75 102 62
74 101 62
78 105 64
75 102 62
77 104 63
96 121 97
156 173 181
162 179 189
159 176 185
160 178 190
165 182 192
158 176 184
152 170 177
161 177 185
157 174 183
152 169 176
91 115 88
77 104 64
76 103 63
79 106 66
76 102 62
77 103 63
74 101 60
79 106 64
78 105 63
74 101 61
91 116 85
151 168 174
154 170 179
161 177 188
155 172 178
119 138 129
74 100 61
77 104 64
77 104 63
77 104 62
74 101 62
80 105 66
152 170 177
167 184 196
159 176 186
158 176 185
156 172 178
171 187 199
162 179 191
152 168 173
155 172 184
155 172 183
160 177 185
113 132 123
73 99 58
72 98 58
72 98 59
72 98 59
73 100 60
75 102 62
73 99 60
78 105 64
72 97 58
74 101 62
75 102 62
140 157 159
147 165 173
160 176 185
155 171 180
162 178 186
161 176 186
151 167 174
155 173 182
158 174 182
161 178 186
146 162 165
153 169 174
88 110 85
73 99 60
78 106 65
69 95 56
75 101 60
76 102 63
71 97 59
74 101 61
72 98 58
71 96 57
70 96 58
71 96 57
131 149 149
154 170 177
158 173 181
163 179 191
153 169 177
151 167 171
158 173 181
153 170 177
160 177 187
151 167 169
148 166 172
155 172 180
124 142 137
120 139 131
130 147 145
147 165 169
142 160 163
146 163 167
148 163 167
158 173 181
157 172 179
159 177 184
154 171 178
157 173 180
158 175 184
71 97 58
77 103 62
72 98 59
70 96 58
71 97 58
72 98 59
73 99 59
75 102 61
69 93 57
71 96 57
75 102 61
70 95 57
101 120 100
149 165 170
155 171 180
147 164 170
155 171 178
160 177 189
148 165 170
152 169 172
149 166 172
145 161 165
147 163 167
157 172 180
149 166 172
76 102 62
71 97 58
68 94 54
70 96 57
73 98 59
67 92 54
72 98 59
74 100 60
74 100 61
74 100 61
68 93 55
68 94 55
74 100 60
153 170 176
151 168 173
157 174 181
147 162 167
147 163 168
152 168 175
162 179 188
144 159 165
133 151 148
144 160 163
152 169 174
147 162 166
121 138 133
70 95 57
64 89 52
74 99 61
68 93 55
73 99 59
73 99 59
69 95 56
68 93 55
69 95 56
75 100 59
69 94 56
76 102 61
148 164 169
143 161 165
133 151 151
153 169 175
160 175 183
153 168 175
154 171 177
158 175 182
142 159 161
153 169 177
152 169 173
148 165 171
156 173 183
73 100 60
72 98 58
68 93 55
72 97 58
71 96 57
71 96 57
67 92 54
67 91 54
73 99 60
73 99 60
73 99 59
71 96 59
80 105 72
158 175 184
157 174 184
155 171 178
159 176 183
164 178 187
140 157 158
155 171 178
149 164 170
152 168 177
152 168 175
151 167 175
147 163 169
100 119 103
72 99 59
75 101 62
67 92 54
71 96 58
65 90 52
73 99 59
77 104 63
62 86 49
71 97 58
73 100 59
72 98 59
67 93 55
151 168 173
151 168 175
159 176 186
156 172 181
158 174 182
159 174 182
158 174 179
146 165 171
155 172 179
159 175 185
154 170 175
141 158 163
147 163 169
64 88 52
71 97 58
68 93 55
73 100 60
69 94 57
75 101 61
72 98 60
72 98 58
67 92 54
72 98 60
73 99 61
70 97 57
154 171 179
153 169 177
147 164 170
151 167 172
152 169 175
163 179 190
153 169 175
142 160 163
122 140 135
114 134 125
90 115 88
67 92 54
113 134 124
149 165 170
157 172 178
139 157 159
151 168 178
153 169 178
153 170 177
164 179 187
161 177 187
155 172 180
164 180 191
163 181 193
158 175 183
70 96 57
70 95 57
72 98 59
73 99 60
70 96 57
71 97 58
78 104 63
72 98 59
74 100 60
73 99 59
71 98 59
68 93 56
144 160 165
153 170 177
165 182 194
159 174 183
153 169 177
152 167 175
164 180 190
156 174 184
147 162 167
158 173 183
149 166 173
156 172 179
78 106 65
70 95 57
77 104 63
70 96 58
73 98 59
78 105 65
77 103 62
70 96 57
72 98 60
76 103 63
72 98 58
109 130 114
157 174 183
158 173 180
153 169 179
164 181 194
161 178 188
162 179 189
151 167 177
166 182 195
155 172 179
161 179 190
157 174 184
81 109 70
73 100 61
74 101 61
84 108 81
137 156 158
160 178 190
149 166 171
159 177 187
160 177 189
150 167 174
159 177 186
72 97 61
76 103 62
76 103 63
77 104 63
73 99 59
74 100 61
72 98 59
74 99 61
77 105 65
71 97 58
106 128 109
148 165 173
160 178 188
160 178 188
166 182 194
156 172 181
152 170 176
160 177 186
164 179 188
155 172 180
160 178 187
73 99 60
71 97 59
75 100 61
77 104 63
75 102 61
73 99 59
77 105 65
75 102 62
80 108 66
134 153 152
75 102 61
75 102 62
79 107 66
77 104 64
75 102 62
79 107 66
77 105 64
80 108 67
109 129 120
163 179 188
161 177 188
167 185 197
169 185 195
169 187 200
163 180 192
164 181 191
176 192 209
163 182 193
169 186 199
179 195 209
161 180 191
167 184 196
86 112 77
78 105 64
78 106 65
81 108 67
76 103 63
74 101 62
75 102 61
75 102 62
81 109 66
142 161 163
152 170 176
73 100 61
79 107 65
80 108 66
76 103 63
80 108 66
80 108 66
78 105 63
76 103 63
156 172 178
161 178 188
162 179 190
172 188 199
166 183 195
164 180 191
163 181 189
159 176 185
163 180 191
163 179 186
134 151 151
76 103 62
74 101 61
79 106 65
76 103 62
74 101 61
73 99 59
75 102 62
74 101 61
77 105 64
74 101 61
137 156 153
157 172 179
160 178 189
170 187 199
149 167 173
162 178 185
159 177 187
160 176 182
159 175 184
143 160 161
93 116 91
105 126 109
150 167 172
158 175 182
157 172 179
152 170 177
168 183 195
165 182 195
165 181 190
149 166 170
159 175 185
159 176 184
159 175 187
86 110 79
73 99 60
75 101 61
79 106 64
76 102 62
73 99 60
72 97 58
76 102 62
73 100 60
71 97 58
73 99 60
73 99 59
164 180 192
150 166 172
166 181 191
166 183 194
156 172 180
155 174 183
162 179 187
158 174 183
161 178 187
157 175 184
145 162 166
151 168 172
76 101 68
77 104 62
74 101 60
76 103 63
75 101 61
74 100 59
76 103 63
76 103 63
72 98 58
66 90 52
73 100 61
73 98 58
144 162 164
153 170 177
161 178 186
154 170 178
159 175 185
150 166 172
158 174 182
155 170 180
155 171 177
149 166 173
152 170 177
155 171 178
139 155 157
73 99 59
72 98 58
72 97 60
73 98 59
73 99 59
75 101 61
73 99 59
72 98 59
78 106 65
85 109 80
98 118 102
115 135 123
130 147 145
102 124 107
74 100 61
73 99 60
65 89 52
72 97 58
74 100 60
69 95 57
70 95 57
72 98 59
70 95 57
70 95 57
76 104 63
147 163 168
145 162 168
159 176 184
135 151 149
137 154 156
154 171 177
152 168 173
161 177 187
138 155 158
153 170 177
141 159 164
150 167 173
154 169 175
74 100 60
68 93 55
72 97 58
75 101 62
70 96 57
75 102 62
69 94 56
73 99 59
72 98 59
74 101 61
73 98 59
70 95 56
112 132 117
148 166 169
144 159 164
144 160 164
153 169 178
154 168 176
154 171 177
162 177 187
148 165 170
148 164 171
140 157 157
148 165 171
156 172 180
107 128 113
75 101 61
70 96 58
72 99 59
73 100 60
75 101 61
70 96 58
69 94 55
75 101 62
65 90 53
67 92 54
67 93 55
73 99 60
161 177 189
148 165 174
151 167 172
157 174 183
146 163 170
158 172 179
153 170 176
160 175 183
156 172 178
147 164 169
151 168 176
148 163 168
154 171 177
73 99 59
75 101 62
71 97 58
74 100 60
71 97 58
67 92 54
70 95 57
72 98 59
71 97 59
78 105 65
68 93 54
70 96 57
73 99 59
150 167 173
155 171 178
159 175 183
156 172 181
148 165 170
154 171 178
147 164 170
151 167 173
153 168 175
146 162 169
152 167 174
153 169 174
148 165 170
74 99 61
62 86 50
66 90 53
73 99 59
75 102 62
68 93 55
71 97 58
75 101 61
70 95 57
73 98 60
71 96 58
69 95 56
117 135 125
155 171 182
148 163 165
155 169 178
147 163 168
139 156 159
158 173 181
148 163 170
147 164 168
154 171 178
146 162 168
150 167 173
148 165 171
83 108 76
69 94 56
72 97 59
73 99 59
69 94 57
71 96 57
78 105 64
68 93 54
90 114 87
103 125 107
123 142 137
133 150 153
148 165 169
74 100 64
67 92 54
67 92 55
72 98 59
79 107 67
75 101 61
74 101 61
74 100 60
71 97 58
70 96 57
70 96 57
77 103 62
127 144 142
143 160 164
159 175 186
161 177 188
155 171 178
156 173 185
160 177 188
156 172 179
156 173 183
148 165 170
153 171 177
162 179 189
150 167 173
71 96 58
73 100 61
75 101 60
74 100 61
74 100 60
77 103 62
74 100 60
75 102 63
69 94 56
74 100 61
71 96 58
75 101 61
156 172 180
156 173 180
159 176 186
167 183 195
154 169 176
157 173 185
165 181 194
156 173 180
157 174 180
159 174 184
155 171 177
151 168 174
72 96 64
76 103 62
77 104 63
72 97 58
73 98 59
74 100 60
73 100 60
74 101 61
75 102 62
75 102 62
74 100 60
79 104 71
170 186 197
160 177 188
151 167 175
158 174 182
152 169 176
155 171 179
166 181 190
160 177 186
163 181 193
155 173 184
130 148 147
134 151 152
162 179 189
156 174 184
164 181 188
157 174 182
154 171 179
155 172 178
155 173 180
157 175 182
152 168 173
163 179 190
127 147 142
76 102 63
72 98 59
78 105 65
70 96 57
69 96 57
76 102 63
77 105 64
73 99 60
72 99 59
76 102 62
148 165 171
169 186 198
161 178 187
171 187 199
160 177 187
161 178 188
159 176 182
159 174 183
164 182 193
152 169 177
122 141 135
76 103 62
79 106 66
77 104 64
78 105 64
79 107 66
99 121 99
160 177 186
164 181 191
164 180 192
102 126 104
73 100 61
78 105 64
80 108 67
77 104 63
77 105 63
76 104 62
80 107 66
74 101 61
129 148 144
168 185 198
160 177 186
161 177 185
164 181 192
179 195 210
163 181 192
163 179 186
165 182 195
168 185 199
103 127 110
79 107 66
82 110 67
80 108 67
78 105 65
78 106 65
75 102 62
73 100 60
76 103 63
116 136 126
167 184 194
163 181 191
161 179 188
168 185 197
125 146 138
79 107 65
79 106 65
74 100 61
80 108 67
125 145 138
166 183 193
161 178 185
166 183 192
171 187 199
160 177 188
166 183 194
164 181 193
158 175 184
161 179 190
160 177 184
78 104 66
80 107 66
78 106 66
76 103 63
72 98 58
78 106 65
72 99 59
77 103 63
79 107 66
75 102 62
78 105 67
153 170 178
147 164 171
156 173 181
156 172 181
168 185 195
161 177 186
159 177 185
153 169 175
170 188 198
160 177 189
158 176 186
91 116 88
77 104 63
76 103 63
115 136 125
152 169 173
165 182 194
155 172 181
152 168 174
149 166 171
156 173 180
161 176 181
153 171 179
75 101 62
74 100 60
72 98 59
78 105 65
75 101 61
74 100 60
73 98 59
74 100 61
76 104 63
74 100 60
74 101 61
79 103 73
160 176 183
160 175 181
148 165 168
156 171 179
155 172 178
159 175 184
150 166 174
166 182 192
151 167 170
166 182 191
156 172 181
146 163 164
77 104 64
72 99 58
74 100 61
70 96 57
73 99 60
73 99 60
71 98 58
70 96 57
75 102 61
69 95 57
74 100 61
77 104 63
130 149 146
164 181 192
157 174 181
163 178 187
153 171 178
156 171 176
168 185 197
156 173 181
152 169 175
161 178 190
152 168 176
152 168 174
154 170 177
76 102 63
72 98 59
69 95 57
72 98 59
69 94 54
77 104 63
67 92 54
77 104 63
73 99 59
76 104 64
78 104 63
73 99 60
94 115 97
161 177 189
161 177 187
162 177 188
159 175 185
145 162 169
156 172 179
159 176 185
155 171 179
159 174 182
151 167 169
131 148 148
128 146 146
112 131 119
139 155 153
146 163 164
143 160 161
157 173 182
152 169 175
153 169 178
147 164 170
149 166 172
160 176 185
153 169 176
152 169 177
145 163 167
87 109 83
73 99 59
70 94 56
75 102 62
72 97 58
72 98 59
74 100 60
75 100 59
72 98 58
72 98 59
73 98 59
74 100 60
68 93 55
149 164 170
163 179 189
160 176 187
151 169 178
157 173 182
152 167 174
152 168 177
142 159 164
160 176 186
155 171 181
155 171 180
154 171 179
152 169 176
75 101 61
72 97 58
67 92 55
66 90 53
69 94 55
73 98 58
72 98 60
67 92 54
68 92 54
74 100 60
72 97 58
72 97 58
76 101 61
162 178 186
146 161 166
153 170 179
153 169 174
155 171 183
158 173 182
158 174 183
160 176 184
157 173 182
148 164 168
156 173 180
160 177 187
157 173 181
75 100 60
76 103 63
72 98 58
73 99 61
70 95 57
72 99 60
74 100 60
66 90 53
71 96 57
73 98 59
66 90 53
74 99 60
69 94 56
165 182 194
155 172 181
142 157 161
159 173 181
159 176 186
154 170 176
156 173 181
153 170 176
151 168 175
148 165 170
150 167 175
162 178 189
162 179 188
77 103 64
72 98 59
73 99 60
75 101 62
77 104 64
70 95 57
72 98 59
65 89 52
74 100 60
70 96 58
74 100 60
72 97 59
74 99 60
143 159 163
166 182 195
154 171 178
152 168 177
144 161 165
159 176 184
147 164 169
153 170 175
138 156 158
136 154 154
131 148 150
104 125 109
95 117 94
154 169 173
155 170 179
159 175 182
154 171 177
152 168 176
162 177 187
151 167 174
146 163 168
151 168 173
150 167 174
154 170 177
165 181 190
145 164 169
74 100 61
69 94 56
72 97 59
73 99 60
76 103 63
69 94 55
67 91 53
69 94 56
71 96 58
72 98 58
74 100 60
71 97 57
149 164 168
158 173 183
159 175 184
157 173 180
152 168 173
155 172 180
160 177 187
149 165 170
149 166 171
160 175 188
164 181 191
147 164 172
159 175 184
78 106 65
76 103 62
76 103 63
63 87 50
71 97 58
74 100 60
72 98 59
77 104 64
71 97 59
76 103 62
73 99 59
72 98 58
140 158 160
155 172 178
154 171 179
148 164 171
155 171 179
157 174 185
156 172 183
155 172 180
166 184 201
145 163 167
160 177 188
154 171 177
93 117 93
74 101 61
77 103 62
74 101 61
77 103 62
71 96 59
70 95 55
78 104 63
70 96 56
69 94 55
77 104 63
71 97 58
149 165 170
154 170 175
158 174 185
162 178 188
157 174 180
132 151 150
88 110 81
78 105 64
73 99 60
76 102 62
75 102 62
90 111 95
154 172 180
150 167 174
157 174 184
163 179 188
160 176 186
144 163 168
162 178 185
156 174 182
155 172 181
162 177 186
163 180 189
76 103 63
74 101 61
73 100 60
79 107 65
73 100 61
81 109 67
73 100 60
76 102 62
76 103 62
73 100 60
85 110 80
159 176 185
163 181 192
164 180 192
172 188 201
159 175 186
162 179 189
168 185 197
166 183 194
158 174 183
161 180 192
95 118 97
80 107 66
85 111 78
146 163 166
171 188 199
158 175 183
165 181 191
166 181 191
163 180 194
164 181 193
86 111 76
74 100 60
78 106 66
78 105 64
76 103 63
76 103 63
77 105 64
78 105 64
78 105 65
149 168 177
167 185 198
169 185 195
170 186 200
160 178 186
167 183 192
126 146 141
80 109 67
81 109 67
78 106 65
78 105 64
78 105 64
78 105 64
74 100 60
76 103 62
101 124 102
167 184 195
161 178 190
173 189 201
167 183 196
160 177 183
168 185 195
162 180 190
158 176 184
121 142 132
82 107 76
172 190 205
158 175 182
164 182 197
166 184 195
164 181 193
169 186 196
154 172 180
174 191 205
168 186 200
160 177 186
113 136 125
76 104 64
76 103 62
77 104 63
75 102 62
78 105 65
75 102 61
75 101 61
80 107 66
74 102 62
80 107 65
134 153 148
157 174 182
170 187 202
163 179 187
158 176 185
164 180 192
160 177 184
151 168 176
167 183 194
166 183 192
159 175 185
153 170 178
77 104 64
74 101 61
76 103 62
76 102 61
72 99 59
76 104 63
74 100 60
72 99 58
120 140 130
142 159 160
167 184 195
128 147 145
77 104 63
76 102 62
74 101 61
72 98 58
73 99 60
71 96 58
70 96 56
78 104 64
74 100 61
76 103 63
72 97 57
102 125 104
166 183 193
160 176 188
159 176 184
160 178 189
162 179 188
152 169 174
155 172 180
152 170 176
155 171 180
157 174 185
161 178 187
163 181 190
74 100 60
75 101 61
76 103 62
71 97 59
74 101 61
73 99 60
71 98 58
75 101 61
72 98 58
76 103 63
72 97 58
71 97 59
129 148 147
167 184 199
155 172 182
154 171 178
158 175 185
152 170 176
158 174 184
151 168 174
154 170 177
157 173 183
154 171 178
156 172 179
145 162 164
79 106 64
71 97 59
75 102 62
74 100 60
71 96 58
74 101 61
69 95 56
72 98 59
72 98 59
73 99 59
75 102 62
74 100 60
72 98 60
149 166 170
146 163 168
149 165 168
150 167 175
156 174 183
155 172 177
157 173 181
154 172 180
155 172 178
161 176 187
148 165 172
154 171 180
154 170 179
71 97 58
75 101 61
69 94 56
72 98 58
75 101 62
73 99 59
73 99 60
74 100 60
69 94 56
68 93 56
72 97 58
66 92 53
86 108 80
132 148 144
127 147 145
118 137 124
115 134 125
101 121 105
92 113 93
91 115 86
79 103 73
71 96 58
69 94 56
63 88 51
73 99 60
73 100 60
162 177 185
158 174 183
143 159 165
155 171 176
152 170 179
160 176 186
156 172 180
153 169 178
161 177 186
160 176 185
158 174 183
148 165 171
143 159 165
70 96 57
71 97 58
76 103 63
74 100 61
74 100 59
74 100 60
70 95 56
68 93 55
69 94 56
72 98 60
67 92 54
72 97 58
72 98 59
152 167 172
155 172 180
154 171 177
155 172 181
149 165 168
159 175 184
145 161 165
152 169 176
159 174 184
156 171 178
149 166 171
154 170 176
159 176 185
69 94 56
78 105 64
77 104 64
69 94 55
74 101 61
66 91 54
71 97 58
69 94 56
69 94 56
71 97 57
69 94 56
71 96 57
74 100 61
127 146 143
149 166 173
164 180 192
151 167 172
155 171 178
152 169 174
150 166 173
152 169 175
156 172 180
153 170 179
157 173 181
150 166 171
149 166 174
112 131 124
67 92 54
74 101 61
80 104 71
95 116 98
108 128 114
107 126 115
108 128 115
126 145 142
123 141 138
144 161 164
141 157 159
143 160 164
128 146 144
71 96 57
74 101 61
74 100 61
78 104 63
72 97 58
74 101 61
74 101 60
68 93 54
73 99 59
72 97 58
73 99 60
71 97 57
122 141 134
154 170 178
156 173 183
165 182 195
155 172 180
158 173 183
151 166 172
148 164 167
161 177 185
162 178 187
149 165 172
154 170 176
152 168 172
106 125 114
76 103 63
72 97 58
74 101 60
73 99 59
75 101 61
71 97 58
71 97 58
68 93 57
70 95 57
74 100 60
71 96 58
74 100 60
147 165 170
158 175 185
140 157 162
150 166 168
157 174 183
157 174 183
161 177 186
154 170 178
154 172 180
162 177 188
156 173 180
157 173 183
149 164 169
71 97 58
75 101 62
70 95 56
70 95 57
71 97 58
70 95 57
74 100 61
74 100 60
72 99 59
69 95 57
77 104 62
77 103 64
155 172 180
163 180 190
157 174 182
154 172 181
148 165 171
160 175 184
157 174 181
154 172 181
162 179 190
147 165 172
153 170 176
160 176 185
119 140 131
73 99 60
75 101 62
76 103 62
72 98 59
73 99 59
75 101 61
73 100 60
75 101 61
75 102 62
74 100 60
73 100 60
129 148 149
83 108 78
71 97 58
77 103 63
77 104 63
71 97 58
78 104 64
78 105 64
74 100 60
74 100 60
73 100 61
79 107 66
151 169 177
162 178 187
161 179 189
153 171 180
159 175 183
155 174 183
158 175 183
156 173 182
160 176 182
163 180 190
160 178 190
120 141 133
73 99 59
77 104 64
71 97 58
74 101 61
76 103 63
78 105 64
82 110 68
76 104 63
73 99 59
73 100 60
132 151 149
161 178 188
156 172 181
173 189 202
155 173 181
168 184 196
162 178 186
172 188 201
170 186 198
156 172 180
107 128 114
161 178 189
162 179 184
150 166 174
167 183 195
164 181 193
165 183 194
166 182 191
168 184 196
168 185 198
149 168 174
72 100 60
77 104 64
79 106 65
77 105 65
76 103 64
79 106 65
78 105 64
76 104 64
81 108 69
155 173 181
172 190 204
153 170 178
74 100 60
79 108 67
78 106 64
83 112 70
79 107 64
74 101 61
75 102 62
77 105 63
80 108 66
155 174 183
171 189 201
169 185 195
166 182 193
166 183 193
161 179 190
163 180 191
158 176 186
166 184 194
172 189 201
105 128 108
77 105 64
139 158 160
170 186 194
168 184 197
161 177 184
174 190 203
170 186 198
164 180 191
171 188 200
154 172 179
76 103 62
75 102 62
75 102 63
77 105 64
77 104 63
74 101 62
79 106 65
77 104 63
75 102 61
78 104 64
84 109 76
166 183 194
160 176 186
158 175 186
161 178 187
168 184 194
165 181 191
158 176 186
162 178 188
168 185 197
154 171 180
166 183 195
117 137 128
77 103 62
70 96 57
79 107 66
79 106 65
76 103 62
73 99 59
72 99 59
69 95 56
74 100 60
76 102 62
74 100 60
147 163 169
161 179 189
150 168 174
122 141 133
77 103 66
75 101 60
78 105 65
76 103 63
75 103 62
71 97 57
75 102 61
74 100 60
136 154 155
155 171 177
157 172 178
164 181 193
152 170 175
156 174 181
156 172 179
159 174 182
150 168 173
161 179 193
163 180 192
154 171 181
150 167 171
76 102 62
72 98 59
76 103 62
74 101 61
70 95 57
74 101 61
71 97 58
74 99 59
75 102 61
77 105 64
77 104 63
73 99 60
122 141 132
167 183 194
154 171 180
149 167 174
154 170 178
155 171 178
166 182 194
150 167 171
160 177 186
168 185 198
147 166 169
164 181 190
156 173 184
86 109 86
77 105 63
75 102 62
73 99 59
71 97 58
78 105 64
77 104 64
73 99 59
74 100 60
75 101 60
78 105 65
67 92 54
73 100 60
155 173 184
159 175 183
158 173 183
154 169 178
151 167 175
162 179 188
156 172 177
147 162 165
156 172 179
157 173 181
149 166 172
148 164 170
156 172 182
83 106 76
71 96 57
74 100 61
67 93 55
69 95 57
71 97 58
74 101 61
73 100 60
74 100 60
72 98 58
70 96 57
70 95 56
70 96 56
131 150 148
152 167 171
157 174 184
153 168 175
150 166 172
157 173 183
157 174 182
153 169 174
151 169 176
151 168 174
156 173 180
154 170 177
157 174 183
135 153 154
72 97 58
70 96 58
73 99 60
76 102 61
68 94 56
78 104 63
71 96 58
74 100 60
71 96 58
78 104 65
75 98 65
83 105 76
84 106 78
142 159 160
139 157 158
130 149 144
123 140 137
127 145 144
136 155 154
131 148 147
122 140 134
125 144 138
112 131 122
113 132 121
128 146 141
120 139 132
128 147 144
123 141 140
122 141 138
136 155 151
133 151 149
133 151 150
124 142 134
126 145 140
109 127 119
133 152 149
124 144 138
112 130 120
124 142 139
116 135 129
126 143 141
124 142 138
124 141 139
136 154 154
125 145 141
126 144 138
131 148 145
131 149 146
139 155 158
134 153 154
143 160 162
143 160 166
121 139 135
72 97 58
69 94 56
73 99 60
68 93 55
73 99 59
73 99 60
69 94 57
71 96 58
72 98 58
72 98 59
72 98 58
75 101 62
71 96 56
162 178 189
152 167 173
148 164 169
157 173 181
155 172 178
158 175 186
155 172 181
153 170 179
154 171 178
151 167 174
162 178 189
153 171 177
154 171 176
72 98 59
72 97 58
74 100 60
75 101 60
68 94 55
71 96 57
71 97 58
73 100 61
72 98 58
71 98 58
73 98 59
71 96 57
74 100 60
154 171 179
157 175 185
160 176 185
146 164 169
157 174 181
158 175 186
150 168 177
151 168 178
148 165 171
153 170 179
150 166 171
153 169 175
141 157 160
80 107 68
76 104 64
75 102 62
75 102 61
73 99 61
75 102 61
75 101 62
72 97 58
71 97 58
73 99 60
67 93 55
78 104 63
68 93 55
152 169 177
158 174 181
169 184 195
165 182 194
163 179 188
162 178 187
160 176 186
149 167 172
148 165 171
154 172 176
152 169 176
155 172 180
163 180 191
75 102 63
70 96 58
71 98 58
73 99 59
75 101 62
76 103 62
72 98 59
74 101 61
69 95 56
72 98 60
76 104 63
77 104 63
139 157 156
158 176 187
169 185 197
162 179 187
156 173 181
162 178 188
171 187 201
165 181 193
160 176 185
150 167 174
168 185 197
158 175 185
155 172 180
74 101 60
75 102 62
74 101 61
74 101 61
73 98 60
86 110 79
127 146 143
163 179 191
162 179 188
153 171 179
155 172 180
149 166 174
75 102 61
72 99 60
77 104 63
72 98 58
80 108 67
75 102 62
74 100 60
77 103 63
74 101 61
72 98 58
74 100 61
111 131 118
143 161 165
166 183 195
164 180 191
158 173 182
162 179 191
163 179 188
164 181 191
168 185 196
165 183 195
159 175 185
155 171 181
82 105 74
73 98 59
77 104 63
71 97 57
74 101 61
75 103 63
76 104 64
77 105 64
77 104 63
72 98 58
79 105 70
160 178 188
155 173 182
171 187 200
168 185 196
155 172 179
161 179 188
88 112 85
72 99 60
76 103 63
78 106 65
140 158 155
163 180 191
173 189 201
165 181 195
161 178 186
164 181 195
177 194 211
160 177 185
160 177 185
162 179 190
136 156 151
78 106 64
79 107 65
80 108 66
75 102 61
81 109 67
77 105 64
79 106 65
74 101 61
87 114 77
78 105 64
79 106 65
81 109 67
77 104 64
78 105 64
78 105 64
81 109 67
81 109 67
119 139 129
167 185 197
169 186 200
165 183 194
162 179 187
162 180 190
168 185 198
170 185 195
166 183 194
161 179 192
140 159 161
76 104 63
78 105 64
73 100 60
75 102 61
78 106 65
124 143 135
175 191 204
168 185 197
154 172 179
163 180 191
106 130 110
79 107 65
76 103 63
76 104 63
73 100 60
76 103 63
74 101 61
76 103 62
78 106 65
71 97 58
73 98 58
136 154 155
159 176 182
162 179 190
163 180 191
161 177 187
172 189 203
150 167 173
162 179 189
160 177 188
158 174 182
155 172 178
163 180 189
85 109 77
70 95 56
75 102 61
75 102 61
75 102 63
72 97 59
76 103 62
75 101 60
76 103 63
76 103 62
79 107 66
76 103 63
159 175 183
156 172 182
158 173 178
160 175 185
157 172 179
162 178 188
153 170 179
161 178 188
141 159 158
103 125 107
78 105 65
75 102 61
152 169 177
158 174 182
158 176 185
161 177 181
156 173 179
162 180 190
158 175 185
159 176 186
157 173 182
154 171 180
167 183 194
153 170 177
150 167 176
79 106 65
76 104 64
74 101 61
69 94 55
75 102 62
75 101 62
74 100 61
71 98 59
73 99 60
74 101 61
71 96 57
71 97 57
129 147 141
152 169 178
157 174 180
165 181 192
165 181 192
148 165 170
156 173 183
154 169 176
159 175 180
152 170 176
162 178 185
146 163 170
163 180 191
115 134 125
72 98 59
72 97 59
71 97 58
74 100 60
72 97 58
74 99 59
74 101 61
71 97 58
75 102 62
75 101 62
77 103 63
76 102 62
116 135 128
150 166 174
154 171 179
151 168 174
158 174 180
157 173 182
165 182 194
155 170 177
166 182 191
149 166 173
157 175 186
149 165 173
161 178 188
126 145 139
76 102 62
76 102 62
70 95 56
72 98 58
74 99 60
73 99 59
73 99 59
72 98 59
76 102 61
68 93 55
77 104 63
72 98 58
75 102 62
151 168 175
162 179 189
160 177 188
156 173 180
153 171 179
153 170 177
146 163 170
158 174 179
153 169 176
157 174 182
153 169 175
156 172 178
156 171 175
74 98 61
68 93 55
72 97 58
75 101 61
73 100 60
72 98 59
66 90 53
75 101 60
70 95 56
77 103 62
69 95 56
69 95 55
72 97 58
111 131 117
159 175 184
155 170 176
153 169 175
159 176 185
153 170 176
156 172 179
152 167 172
157 173 181
148 165 171
152 168 175
154 170 174
145 162 168
151 167 175
76 102 62
70 96 58
73 99 59
74 100 61
68 93 54
76 103 62
74 100 60
77 104 63
74 100 60
71 96 58
76 103 63
73 98 59
74 100 60
121 138 135
158 174 185
164 180 190
144 161 165
162 177 185
157 174 186
160 177 187
161 176 186
154 169 174
145 162 165
156 171 180
143 159 164
164 180 190
145 162 171
74 101 61
71 96 58
72 98 58
73 99 60
76 103 62
73 100 61
73 99 60
71 97 58
76 103 62
74 100 60
78 104 64
72 98 59
71 97 58
152 169 175
149 165 169
158 175 182
150 165 170
155 172 179
139 155 159
161 176 185
151 168 174
150 167 175
158 174 182
148 166 173
140 156 162
163 179 189
130 149 145
74 100 60
70 95 57
71 97 58
77 103 63
72 97 58
77 104 63
69 95 57
73 99 60
72 99 60
70 95 56
77 103 62
72 99 59
87 112 81
156 174 181
155 172 182
155 171 180
159 175 182
157 175 184
153 171 177
155 171 182
161 178 190
157 173 181
153 170 177
161 179 188
161 178 188
162 178 189
77 104 63
74 100 60
73 99 60
76 102 62
75 101 61
75 101 61
76 103 63
76 103 63
78 105 63
75 101 61
74 101 62
75 102 61
77 103 66
153 170 178
151 168 176
147 163 166
155 171 179
157 173 183
161 178 190
151 169 176
159 175 182
150 167 171
151 169 177
161 177 187
151 168 175
142 160 162
79 106 64
77 104 64
75 103 63
73 99 59
74 100 60
72 98 59
70 96 57
77 104 63
70 96 58
67 92 55
77 103 62
72 98 59
120 139 132
150 167 175
160 178 188
158 175 183
161 177 186
154 172 179
159 176 185
162 179 188
168 184 197
152 168 174
157 174 180
166 183 194
155 172 177
133 151 148
144 162 166
155 171 175
158 174 184
157 174 182
147 165 170
154 171 180
151 168 176
157 173 182
155 172 179
159 176 185
166 182 194
79 104 71
73 99 60
77 103 63
74 100 60
75 101 62
76 103 64
72 98 59
75 102 62
73 100 60
78 106 64
74 101 61
80 109 67
161 179 189
146 164 169
162 179 190
160 177 187
159 177 186
151 167 174
163 181 192
160 177 187
167 185 197
157 173 182
174 190 202
127 145 142
76 103 63
78 105 65
72 99 58
75 102 61
73 100 61
77 103 63
77 103 63
76 103 62
75 102 62
74 100 60
118 140 132
165 182 194
154 172 178
74 101 61
77 105 64
78 105 65
78 105 64
75 102 62
81 109 67
75 102 62
80 108 66
159 176 187
168 184 195
167 183 192
165 181 191
161 177 185
167 185 197
164 181 192
158 177 187
170 187 200
165 183 195
92 115 90
78 105 65
81 109 67
74 101 61
75 102 62
80 109 67
71 97 58
77 104 63
76 104 64
80 108 66
76 103 61
75 102 62
80 108 67
77 104 64
88 115 76
171 189 203
154 172 178
162 181 192
171 187 199
168 185 196
163 181 192
170 185 195
165 183 195
170 187 198
171 188 201
80 106 70
81 109 67
79 108 66
80 107 65
78 106 65
79 107 65
72 98 59
79 107 66
77 104 64
90 115 84
151 169 172
80 108 67
78 106 65
77 105 64
74 101 61
78 106 65
82 110 67
75 103 63
78 105 64
76 103 62
75 102 63
79 106 71
153 170 175
165 182 192
163 180 191
164 181 188
159 176 186
156 173 183
161 178 188
153 170 178
165 182 194
163 180 189
158 175 185
124 142 135
77 104 64
76 102 62
80 108 66
77 105 64
76 103 63
79 106 64
75 102 61
73 100 60
78 105 63
74 100 60
73 99 60
91 116 90
159 176 183
165 181 191
166 181 189
155 173 180
161 178 184
165 182 193
157 174 181
155 172 180
150 167 174
166 182 193
162 179 188
166 182 192
86 108 82
76 103 62
113 132 121
143 161 166
165 182 191
157 175 185
160 176 185
159 176 184
165 180 188
158 174 181
157 173 183
159 176 184
148 163 165
76 102 62
73 99 60
77 104 64
75 102 62
79 106 65
73 99 60
73 100 60
70 94 56
78 105 64
74 100 60
75 102 62
77 104 64
124 143 133
158 174 180
165 181 192
154 170 179
162 178 188
155 172 179
165 182 193
164 179 189
155 173 182
155 172 180
151 169 177
150 167 173
156 173 182
122 141 130
76 103 63
73 99 59
77 103 63
78 104 64
70 95 57
75 101 61
79 106 66
76 103 62
73 99 60
77 103 63
73 99 60
75 101 62
84 109 76
152 169 178
155 172 181
160 176 181
163 179 188
150 166 171
159 176 185
155 173 182
157 173 181
146 162 167
155 170 177
161 177 188
168 184 197
158 174 181
75 102 62
73 99 61
72 96 57
74 100 60
73 100 60
73 100 60
75 101 61
79 106 65
76 102 62
74 99 59
75 101 61
71 96 58
74 100 60
130 149 146
156 173 183
157 173 179
146 162 165
147 165 171
148 166 171
152 169 176
154 170 176
148 166 172
167 184 196
165 180 190
156 172 181
157 173 181
157 174 184
73 99 59
72 98 60
68 94 56
75 101 61
72 97 59
70 96 57
68 92 54
71 97 58
73 99 60
77 103 63
70 95 56
69 95 56
74 100 60
128 145 143
153 170 178
159 176 187
153 170 176
157 174 182
159 176 184
159 176 186
150 165 171
142 159 161
159 176 186
163 179 190
158 175 183
158 176 185
152 168 174
74 101 61
72 98 60
78 105 64
76 102 62
71 96 57
74 99 60
73 98 59
71 97 58
70 95 56
76 103 63
76 102 61
75 101 61
75 102 62
123 141 135
156 173 180
157 173 180
151 167 172
149 167 174
151 166 171
161 177 188
161 177 186
153 170 177
152 168 173
154 172 180
164 181 193
153 169 176
162 179 189
73 99 59
69 93 55
73 99 59
74 101 60
74 100 60
69 94 55
73 99 59
74 100 60
74 100 60
67 92 54
71 97 58
71 97 57
67 93 55
118 138 128
158 174 182
155 171 181
152 169 177
160 176 184
151 169 172
161 176 186
155 172 180
147 164 167
159 175 183
144 160 164
146 162 168
152 169 177
148 166 172
73 100 61
74 100 60
69 94 56
72 97 58
70 96 56
71 97 58
73 99 60
70 96 57
76 103 62
70 96 57
69 95 56
74 101 61
68 93 56
150 167 172
162 177 189
159 176 185
157 172 181
145 162 166
141 159 162
164 180 189
158 173 180
155 172 181
153 170 177
154 170 178
166 182 192
162 178 187
133 151 152
75 102 63
70 95 57
72 98 59
74 101 61
72 97 58
68 93 55
76 103 62
76 103 63
71 97 59
72 98 58
73 99 60
75 101 62
82 106 74
157 175 184
152 169 178
151 168 173
162 179 190
154 170 180
165 181 192
164 180 193
168 185 197
156 172 181
162 179 187
164 181 194
155 172 182
148 166 171
75 101 61
71 96 58
73 100 60
75 102 62
78 105 65
74 100 60
71 98 59
75 102 62
72 98 58
74 100 61
70 95 57
69 94 56
116 135 127
164 180 189
158 174 181
149 167 176
158 176 185
159 177 187
145 163 167
125 145 138
86 111 80
77 103 63
72 98 59
79 107 66
73 99 60
165 182 192
156 173 181
160 177 185
156 174 181
160 176 189
164 181 193
156 173 182
158 174 182
157 175 186
158 175 181
160 176 184
162 178 190
120 141 133
79 106 65
78 104 63
74 102 62
76 103 63
75 101 61
73 99 59
76 104 63
73 99 60
75 102 62
76 104 63
78 105 63
127 147 147
166 184 197
154 172 180
167 184 198
158 175 183
169 185 195
156 173 183
156 173 181
156 174 182
167 182 193
163 181 192
162 178 189
74 101 62
76 104 64
75 102 61
76 103 63
78 105 65
79 106 64
72 98 60
79 107 66
72 99 60
125 144 138
162 178 187
88 113 88
82 110 68
78 105 64
74 102 61
78 105 64
75 102 63
72 98 59
78 106 65
75 102 61
79 106 65
115 136 122
161 179 188
166 184 195
168 184 195
158 177 187
165 182 194
165 182 195
166 182 192
161 179 191
161 180 193
142 160 161
83 112 70
80 108 67
77 105 65
78 105 64
75 102 62
78 105 63
78 106 65
79 107 65
78 105 64
81 110 68
83 112 69
148 167 169
167 183 196
162 179 190
177 194 210
164 181 192
166 183 195
170 188 203
166 184 196
162 179 191
169 186 200
125 145 138
74 101 61
77 104 63
75 102 61
75 103 62
80 107 66
82 109 66
77 104 63
76 104 63
76 104 63
79 107 65
160 178 187
171 189 204
156 174 183
123 144 137
73 100 60
73 99 60
77 104 63
74 101 61
75 102 61
77 104 63
76 104 63
133 153 148
167 185 198
159 176 183
158 176 186
164 183 194
168 185 198
162 179 188
159 176 183
171 187 200
167 184 194
158 175 185
157 174 184
101 122 104
76 103 62
77 105 64
76 103 62
80 107 66
81 109 67
76 103 62
79 106 65
81 108 67
74 100 60
78 105 64
76 103 62
135 153 153
164 181 193
168 184 195
163 181 193
162 178 187
164 181 190
156 173 182
163 180 189
162 179 188
160 177 186
164 181 194
161 177 185
165 180 189
76 102 62
74 100 60
74 100 61
72 98 59
75 101 61
77 104 63
78 105 64
75 101 61
99 121 103
126 146 138
153 169 170
155 172 178
142 159 160
74 101 61
72 98 59
75 102 61
74 100 59
69 95 56
78 105 64
76 103 62
73 99 59
73 99 60
78 105 64
74 101 61
74 100 60
95 118 92
161 179 188
155 173 181
161 178 188
157 173 182
158 177 186
157 175 182
164 179 188
158 176 181
163 179 189
156 173 180
155 171 177
158 175 185
158 175 182
73 98 59
78 105 64
71 96 57
72 99 59
78 106 65
74 100 60
72 99 59
70 95 56
72 99 59
73 101 61
71 97 59
72 98 59
73 99 60
147 165 169
160 177 185
159 174 184
161 177 187
155 171 179
155 172 181
158 174 181
162 177 184
158 175 185
157 173 180
165 182 194
149 167 171
150 166 168
115 134 125
76 103 62
72 98 60
77 104 63
72 98 58
75 101 61
72 97 59
76 103 62
75 101 61
74 100 60
73 99 60
74 100 61
73 99 60
70 95 57
156 173 181
159 175 184
155 172 179
157 174 182
156 173 181
149 166 169
150 166 172
152 169 174
163 179 190
149 167 171
152 169 175
159 176 185
161 178 190
133 150 148
71 96 57
72 97 58
76 102 61
71 97 58
70 95 56
73 100 60
71 97 58
71 97 58
73 100 61
71 96 58
76 103 62
73 98 59
79 106 65
155 171 181
153 169 175
153 169 175
158 175 186
153 170 177
161 177 186
156 173 181
159 175 184
160 178 189
158 174 185
159 176 186
156 173 181
154 170 178
155 173 182
76 102 62
73 98 59
73 99 59
73 98 59
73 99 59
77 104 63
75 101 61
72 97 58
73 99 60
68 93 55
69 95 57
75 102 62
77 102 62
112 133 121
151 167 174
156 173 181
152 170 178
166 182 191
161 178 186
155 171 179
152 170 177
155 170 180
156 172 178
148 164 169
161 177 188
149 166 171
149 166 171
76 99 68
78 105 63
72 97 58
68 93 55
71 97 58
78 105 65
74 100 60
73 99 60
73 100 60
72 98 60
74 100 60
75 101 60
71 97 57
70 95 56
162 177 186
152 168 175
159 176 188
158 175 182
150 167 176
162 179 187
150 168 174
163 179 191
158 175 185
172 189 201
153 170 179
147 163 168
156 172 175
114 133 121
77 104 64
75 101 61
69 94 56
75 102 62
75 102 61
72 98 59
70 96 57
70 96 56
71 97 58
72 98 59
74 100 61
75 102 61
75 102 61
165 181 192
155 171 178
154 171 179
156 172 181
159 176 183
153 171 178
144 161 163
166 182 193
164 179 188
147 164 168
153 169 177
154 170 175
165 181 192
97 119 97
71 97 59
78 105 64
74 100 60
69 94 56
74 99 59
72 97 59
74 101 61
75 101 62
73 99 59
75 102 62
73 99 59
75 102 61
102 123 107
165 182 192
160 176 185
152 167 175
157 172 178
160 177 188
167 183 194
150 168 175
155 172 182
167 183 195
158 175 185
153 171 180
159 175 184
149 167 171
76 102 61
72 98 59
71 98 58
74 100 60
76 102 62
74 100 60
73 99 60
75 101 61
76 103 62
70 95 57
74 100 59
79 105 70
129 148 143
112 133 117
76 102 69
76 102 62
74 100 60
75 102 61
76 103 63
74 99 58
77 103 62
75 101 61
72 98 59
73 99 59
73 100 61
144 162 168
137 154 157
154 170 178
145 163 170
158 175 183
166 183 196
163 180 189
160 176 183
165 181 190
159 175 184
159 176 186
162 179 191
146 164 171
78 105 65
75 102 61
73 100 60
77 104 64
74 101 61
72 98 58
75 102 62
78 106 65
74 100 60
71 97 59
73 99 60
79 103 73
160 178 185
166 184 197
163 179 189
160 176 188
172 188 200
165 182 194
162 180 189
151 169 175
159 177 188
169 185 196
158 176 186
124 144 136
76 103 64
77 103 63
80 108 66
74 100 60
76 103 66
155 172 179
159 175 184
169 186 198
164 181 193
170 187 200
143 161 163
74 100 60
76 104 63
75 103 62
78 106 65
74 101 62
74 101 61
78 106 65
81 109 68
71 96 58
86 115 71
137 155 157
164 181 190
175 191 206
163 181 192
174 190 204
157 176 187
157 175 188
161 179 191
166 184 196
165 182 194
118 139 129
77 105 65
78 105 65
77 105 64
84 112 70
80 108 67
81 109 68
76 104 62
128 148 141
165 183 194
165 184 195
168 185 198
158 176 183
175 192 208
163 181 191
168 185 194
166 184 194
167 184 197
159 177 186
79 107 65
76 103 63
75 102 62
77 105 65
77 104 64
79 107 65
77 104 63
76 103 63
80 107 65
83 111 69
97 121 99
169 186 201
164 182 193
164 182 192
167 184 196
165 181 191
167 184 193
160 178 187
90 116 84
78 105 64
78 106 65
75 102 61
159 175 182
160 178 190
155 174 183
158 175 184
164 181 193
167 185 196
165 181 193
163 179 189
171 187 198
164 182 193
159 175 183
155 171 179
78 106 65
76 102 62
76 104 63
77 104 62
73 99 60
74 101 61
75 101 61
78 106 65
79 106 65
73 99 59
76 103 63
76 103 61
156 174 182
162 179 191
159 176 183
159 176 185
167 183 193
157 175 184
157 174 182
157 174 182
154 171 178
172 189 201
153 171 175
151 167 173
141 159 161
80 107 66
74 100 60
73 99 59
67 93 54
80 108 66
74 100 60
76 104 63
73 100 60
76 103 62
74 100 60
76 103 62
72 98 58
100 121 105
160 176 185
161 179 190
140 158 160
127 146 142
95 119 96
79 106 65
78 105 64
78 105 64
74 100 60
76 104 63
76 103 62
79 106 65
99 120 101
164 180 191
160 177 188
165 181 193
152 170 177
157 174 183
152 170 176
160 177 187
151 169 176
154 170 178
160 177 187
158 176 185
154 171 178
157 173 181
80 107 65
77 104 63
70 95 56
77 104 64
74 100 60
75 102 61
77 103 63
75 102 62
76 103 62
75 101 61
68 93 55
69 94 55
74 100 61
153 171 174
155 170 179
146 163 168
160 178 187
163 180 190
159 176 186
157 173 181
158 175 182
158 174 180
146 164 166
148 165 171
164 181 194
160 177 187
159 176 187
72 98 59
72 98 58
73 100 59
74 100 60
75 102 61
76 102 61
76 104 63
74 101 60
73 99 59
71 96 58
72 98 59
75 102 62
73 99 59
113 133 123
154 171 181
157 173 178
165 182 193
150 166 173
157 171 178
158 174 180
158 175 184
152 170 176
161 177 186
157 174 181
161 177 189
158 174 183
150 167 173
89 113 84
72 99 60
76 103 62
70 96 56
72 97 58
69 95 57
70 95 57
75 102 62
72 99 59
73 100 60
70 96 57
77 103 62
78 105 64
75 102 62
145 163 166
146 162 166
147 165 170
152 169 176
169 185 195
158 175 182
161 178 190
160 176 185
150 167 174
147 163 167
148 165 168
149 165 168
154 171 178
157 173 181
71 97 58
78 105 64
69 94 55
71 97 58
74 101 61
74 101 60
76 102 62
77 103 63
73 99 60
70 96 57
75 101 61
72 99 59
74 100 61
95 117 94
147 164 169
158 175 183
156 173 178
163 180 192
151 168 173
163 181 191
160 176 185
157 173 183
162 179 190
162 177 188
158 175 183
157 175 184
146 162 169
125 145 141
70 95 56
76 102 62
69 95 57
77 103 62
74 100 61
71 96 56
79 106 64
73 100 60
68 93 55
70 95 57
76 102 61
71 97 57
79 107 65
150 167 172
154 170 173
149 166 172
162 179 189
161 177 188
157 174 184
156 174 183
159 176 185
161 178 189
174 192 207
159 176 184
154 170 177
160 178 186
154 171 177
74 101 62
71 97 58
72 98 59
76 103 63
70 95 56
71 96 57
73 99 60
79 106 64
73 99 60
71 98 59
78 105 64
73 99 59
75 102 63
116 136 127
165 181 192
163 180 190
161 176 186
166 181 192
156 172 178
163 180 190
157 173 181
150 167 171
167 183 193
156 173 179
158 175 183
161 178 186
161 177 187
74 99 63
74 100 60
71 97 58
76 103 62
75 101 62
73 100 60
76 103 63
74 99 59
72 98 60
76 102 62
72 99 59
76 102 61
75 102 62
118 138 130
149 167 175
146 163 168
153 171 178
161 177 189
169 184 194
147 163 170
155 172 181
161 177 184
155 173 182
155 171 178
159 176 186
166 182 193
157 174 181
79 106 65
73 99 60
76 103 63
73 100 61
74 100 63
112 133 120
135 153 153
155 172 182
156 172 182
152 169 179
158 176 185
152 169 175
141 158 163
78 105 64
73 99 59
74 100 60
79 106 65
70 97 58
71 97 58
76 103 63
76 102 62
77 104 64
76 104 63
78 105 64
76 103 63
111 130 115
159 177 185
170 187 201
153 170 176
154 169 176
152 169 177
150 167 173
155 171 180
165 181 193
157 173 181
163 180 188
171 188 201
159 176 183
82 111 70
77 105 64
80 108 66
75 102 62
77 103 63
79 107 66
79 107 65
77 103 63
73 100 60
75 102 62
77 104 63
74 101 61
153 171 177
169 186 200
166 182 192
162 178 190
158 176 184
157 174 185
152 168 175
156 173 181
155 173 181
162 179 191
165 183 196
157 175 183
77 104 64
138 158 160
167 185 197
158 176 185
158 175 183
167 183 193
160 176 188
156 174 183
167 183 198
163 180 188
160 178 190
100 124 101
77 104 64
79 107 66
73 100 60
77 104 64
78 106 64
73 100 61
82 109 67
83 112 70
75 101 60
82 108 70
170 186 198
167 185 200
166 183 196
170 187 201
168 183 196
169 185 196
164 181 193
165 183 194
168 184 196
159 178 188
90 117 87
78 105 65
78 106 65
77 105 63
86 114 78
170 187 198
173 190 205
160 178 188
165 182 192
165 183 193
165 182 195
171 187 197
172 189 203
167 184 196
174 191 205
98 121 98
77 105 64
76 103 62
81 110 68
83 112 69
80 107 66
78 106 65
77 104 63
74 100 60
81 109 68
80 108 67
153 170 177
155 172 180
171 187 198
168 184 195
158 176 186
168 186 199
162 179 187
158 176 183
159 177 185
164 181 193
170 187 199
131 149 147
164 182 189
167 183 196
162 179 189
163 179 188
160 177 187
164 180 188
157 174 181
162 179 193
160 178 186
170 187 199
161 179 189
143 160 163
80 109 67
77 105 65
73 100 60
76 103 62
72 99 59
77 104 63
76 103 62
79 107 66
79 107 66
78 106 64
72 98 60
85 112 76
168 184 197
160 177 188
163 179 188
165 181 191
144 160 165
163 180 189
162 179 187
171 186 197
153 171 179
170 187 200
157 175 185
158 174 181
133 152 151
73 100 61
77 104 64
71 96 57
79 107 66
75 102 61
73 99 59
75 102 62
74 101 60
71 97 58
72 99 59
70 95 57
75 101 60
112 133 123
161 178 188
160 177 185
167 183 192
154 171 176
166 182 194
157 173 180
162 179 190
161 179 189
165 183 195
155 172 178
131 150 151
111 132 114
85 108 82
159 176 183
162 178 187
161 178 187
156 174 182
156 173 181
149 165 171
156 173 180
161 177 186
160 177 186
167 183 195
160 176 183
153 169 175
157 173 181
81 108 68
76 103 62
74 100 60
75 101 61
73 99 60
74 101 60
69 95 56
73 99 59
79 105 64
77 103 62
69 95 57
72 99 60
73 99 59
92 115 93
156 174 183
153 171 180
147 165 167
143 160 167
164 181 193
161 177 187
155 173 180
165 182 193
156 174 184
158 174 181
154 171 178
161 178 189
158 174 184
97 119 96
75 102 62
73 99 60
67 92 54
74 102 62
78 105 64
75 101 62
75 102 62
79 106 64
73 100 61
75 102 61
70 95 56
75 101 61
77 104 64
151 167 172
159 176 187
169 185 197
157 174 182
159 176 183
147 163 168
149 166 170
161 178 188
152 170 180
164 181 193
164 180 189
159 176 184
144 161 166
147 162 166
73 99 59
74 100 61
75 101 61
79 106 64
73 99 61
77 104 63
75 101 62
71 96 57
80 107 65
69 94 56
73 100 60
73 100 61
75 101 62
69 94 55
154 171 179
155 172 178
158 174 182
156 172 179
152 169 176
160 176 186
150 167 175
164 180 190
167 183 196
161 178 186
158 175 186
145 162 166
151 169 174
154 169 177
72 98 59
73 100 60
70 96 57
71 97 57
75 102 62
77 104 63
72 98 58
75 102 62
72 98 58
72 98 59
70 96 57
78 104 63
76 102 63
76 102 65
165 182 192
154 170 177
162 177 186
171 186 197
155 172 181
146 164 168
152 170 176
150 167 173
162 179 191
160 176 187
163 179 187
153 169 176
162 179 188
142 159 161
75 102 62
75 102 62
69 94 56
73 98 59
74 100 60
76 103 62
74 101 60
73 99 60
74 100 60
72 97 58
79 106 65
74 101 62
79 106 65
114 134 122
151 168 172
155 172 180
158 173 179
152 170 179
151 169 176
164 180 188
146 164 171
157 174 181
157 174 184
154 170 179
160 176 182
158 175 182
160 176 184
118 138 128
70 95 57
72 98 58
69 94 56
74 100 59
76 103 63
72 98 58
75 102 62
74 100 61
76 103 62
77 103 63
75 101 61
72 99 59
71 96 57
159 176 184
163 180 191
160 176 185
146 163 172
163 180 191
158 177 186
158 174 183
151 168 174
142 159 161
161 178 188
155 172 181
160 175 182
154 170 176
158 175 185
76 103 62
79 106 64
74 101 61
71 98 58
75 102 62
74 101 61
81 108 66
76 102 61
75 102 62
73 100 61
73 99 61
76 103 62
74 101 60
132 150 150
159 174 180
154 172 178
165 181 193
156 174 182
161 177 188
163 180 190
153 170 178
155 172 177
145 162 168
165 181 192
136 154 154
120 138 132
94 116 94
166 183 195
157 175 183
154 170 178
166 183 195
153 169 175
156 173 184
150 166 171
149 167 177
151 168 173
156 173 179
169 185 195
165 181 193
147 164 170
74 100 60
78 104 63
75 102 61
72 98 59
77 103 63
76 103 63
72 99 59
73 100 60
79 106 64
79 106 65
77 105 65
76 103 63
94 118 93
158 174 184
163 181 193
162 178 186
167 184 197
164 181 191
154 171 177
156 172 182
162 179 191
150 167 172
161 177 186
159 176 183
152 170 178
107 129 112
74 101 61
76 103 62
78 104 63
77 105 64
75 102 62
73 99 60
78 105 64
77 105 64
75 102 62
73 100 60
74 101 61
113 133 125
162 178 186
160 177 188
171 188 203
164 181 192
159 175 182
165 183 195
156 173 180
151 169 176
129 149 144
73 99 60
75 103 63
148 166 171
169 186 199
154 171 178
162 179 189
165 183 196
159 177 187
168 185 197
164 179 190
165 182 193
167 184 198
160 179 191
145 163 165
81 108 66
73 100 61
72 99 60
77 105 64
75 102 62
75 103 62
78 105 66
80 108 66
74 101 61
77 105 64
126 146 139
169 186 198
164 182 191
164 181 191
163 181 194
164 181 193
160 177 185
153 171 180
169 188 203
160 178 186
150 168 171
171 188 201
130 150 145
170 187 199
160 178 190
167 184 195
176 192 205
169 186 198
166 183 194
175 192 206
165 183 194
168 186 198
153 171 175
77 106 65
80 108 67
74 101 60
78 106 64
81 109 67
74 102 61
79 107 65
80 108 66
80 108 67
75 102 61
98 122 97
165 182 191
163 181 194
169 186 197
170 187 200
161 179 190
164 181 191
171 188 201
154 171 179
165 182 193
167 184 194
168 185 198
92 115 91
79 106 64
79 107 66
80 107 65
114 135 120
156 175 183
160 178 187
166 183 193
161 178 187
167 184 196
166 183 193
166 183 192
89 114 85
77 103 63
78 106 65
78 106 65
77 104 64
72 99 59
73 99 60
75 101 61
80 107 66
78 105 64
77 103 63
72 99 60
90 113 89
165 182 193
160 176 184
157 175 180
157 176 186
153 171 178
162 179 191
158 174 179
167 184 197
169 185 198
151 169 174
165 180 190
165 182 194
113 134 123
76 103 63
74 100 60
75 102 62
79 105 63
74 101 62
77 104 63
74 100 59
80 108 66
74 101 60
74 100 60
77 104 62
75 102 63
127 145 144
163 181 195
161 177 186
161 178 190
156 173 182
160 176 185
161 178 185
156 174 180
167 183 193
162 179 187
165 181 195
163 180 191
163 180 189
157 173 179
77 104 63
75 102 62
79 106 64
73 100 60
83 107 77
109 130 114
125 144 139
149 167 171
162 179 189
164 182 194
147 163 169
164 180 190
163 179 189
92 116 90
75 102 62
73 98 58
72 97 58
76 103 62
77 104 63
77 104 64
79 107 65
72 99 60
74 101 61
71 98 59
76 103 62
71 96 58
76 102 62
164 181 191
159 175 183
153 170 179
154 171 179
160 177 187
159 176 186
160 176 186
165 182 193
148 166 173
153 171 178
171 186 197
160 177 187
155 173 181
149 165 169
73 100 60
76 103 62
76 103 62
74 100 60
75 102 61
75 102 61
72 98 58
75 102 62
73 100 60
71 97 58
76 104 62
73 99 59
69 96 57
94 115 96
151 168 174
168 184 194
156 173 181
159 175 184
162 178 187
166 184 198
164 179 187
154 170 175
162 178 186
149 165 171
167 182 194
147 163 168
154 172 180
134 151 152
76 103 62
75 102 62
72 98 59
73 99 59
76 102 61
78 104 63
77 104 63
72 98 59
77 103 62
71 96 57
76 102 61
74 101 60
76 103 62
90 115 88
163 180 191
153 168 175
147 164 170
159 176 184
166 182 193
159 176 185
154 171 177
160 177 189
151 169 176
158 174 184
156 172 179
154 171 178
158 175 184
170 187 200
74 101 61
76 103 63
74 100 60
73 99 60
74 101 61
70 95 57
75 102 62
72 99 60
76 103 63
76 103 62
75 102 62
78 105 64
76 102 62
74 100 60
144 161 165
158 176 186
150 168 174
142 159 164
152 170 180
155 172 181
153 170 177
159 176 185
158 173 180
164 180 189
161 176 187
164 180 192
157 175 187
159 175 183
76 103 62
73 99 60
71 97 58
68 94 55
75 102 62
73 99 60
76 102 62
71 97 57
74 100 60
70 96 57
71 96 58
73 99 60
74 100 62
77 103 63
161 179 189
154 171 182
165 180 191
152 168 173
160 176 185
159 176 186
154 170 175
162 178 188
151 168 176
159 175 184
150 166 172
167 184 198
147 164 169
158 175 182
71 96 57
70 96 56
71 97 59
77 104 63
74 101 61
72 99 60
75 101 61
70 96 57
74 101 60
71 97 58
74 100 60
74 100 60
75 101 60
86 111 78
159 175 184
165 181 191
153 171 175
164 180 190
165 180 191
164 182 189
160 176 185
156 172 178
150 166 172
156 173 182
153 168 172
171 188 201
153 170 177
127 146 140
77 104 64
73 99 60
76 103 62
71 97 59
72 97 58
68 94 55
73 99 60
76 103 62
79 106 66
75 102 62
73 100 59
74 100 61
72 98 59
153 169 177
160 177 187
155 173 180
144 162 162
114 135 124
89 110 86
74 100 60
78 105 63
73 100 60
74 101 61
71 97 58
72 99 60
78 104 63
103 127 108
158 174 184
157 174 182
155 173 180
169 185 197
163 179 189
155 173 182
159 175 185
159 176 184
158 174 185
150 168 176
164 180 190
156 173 180
150 166 171
75 102 62
73 100 60
75 101 62
75 102 61
72 98 59
74 100 62
79 107 65
71 97 58
72 98 58
75 102 62
77 104 64
76 103 62
81 107 74
151 170 175
165 182 194
160 176 185
163 178 188
156 173 182
169 185 198
158 176 186
161 178 188
161 178 192
163 180 193
163 180 193
161 178 186
137 154 155
76 102 62
75 102 62
77 105 65
77 104 63
72 98 59
76 103 63
76 103 63
74 101 61
78 106 65
76 103 62
71 97 58
83 108 76
165 181 191
157 175 186
161 179 190
167 186 198
138 157 158
75 101 63
68 93 56
75 102 62
75 103 63
72 98 59
79 108 66
85 110 79
169 186 198
165 183 197
172 189 202
161 179 189
163 180 188
171 188 199
155 172 183
156 172 179
167 184 195
169 185 195
166 183 195
95 118 97
75 103 63
79 107 66
80 108 67
77 104 63
75 102 62
75 102 63
77 104 63
73 100 60
78 106 66
77 105 64
172 188 201
169 186 198
165 183 194
172 190 204
169 186 199
174 191 202
167 185 198
167 185 200
88 112 83
77 104 63
76 104 63
101 126 102
164 183 193
168 185 194
181 198 215
168 186 200
165 182 191
163 180 190
166 184 195
88 113 81
74 101 61
83 111 69
78 106 64
81 109 66
79 106 65
82 110 68
82 110 68
81 109 68
79 106 65
77 104 63
164 182 195
160 178 188
166 183 192
168 185 197
166 184 196
161 178 186
167 184 194
164 181 194
166 182 194
161 178 189
161 179 187
163 181 190
78 105 64
80 107 66
82 110 67
75 102 61
78 106 64
77 104 62
81 109 67
76 103 62
92 117 89
147 165 170
167 183 197
153 171 176
75 102 62
76 103 63
76 103 63
78 106 65
77 105 65
77 104 64
70 96 57
72 99 60
79 107 65
77 104 63
78 105 64
75 103 63
136 154 155
172 189 202
168 184 195
166 182 192
165 182 193
147 164 169
152 170 176
158 175 185
159 177 186
161 179 191
163 180 191
168 183 194
159 176 186
101 123 100
72 98 59
76 103 63
72 98 60
77 104 63
76 103 62
74 101 61
74 100 61
74 101 61
77 104 63
76 103 63
76 103 62
76 103 62
137 156 154
161 177 185
163 179 190
154 170 174
160 178 188
158 174 182
171 187 199
153 172 179
150 167 173
166 183 195
166 183 192
164 180 188
161 179 187
158 175 185
75 102 61
76 103 63
70 96 57
74 101 61
78 105 64
76 102 62
72 99 59
73 99 59
78 105 64
73 100 61
77 103 63
78 106 65
74 101 60
124 143 136
145 163 166
123 142 135
107 128 116
78 105 66
74 100 60
76 103 62
76 103 62
68 93 54
76 103 62
74 101 60
74 99 60
73 100 60
74 100 59
154 171 176
165 181 190
167 184 196
164 181 190
156 171 179
161 179 192
161 178 191
155 171 178
153 171 178
152 169 175
158 175 186
161 178 189
159 175 184
166 183 195
76 101 63
67 92 54
76 102 61
71 97 58
71 97 57
73 99 60
76 102 61
74 100 60
70 95 57
77 103 62
72 98 59
72 98 59
74 101 61
72 98 58
156 173 180
151 168 174
166 181 193
152 168 177
151 169 175
155 172 179
159 175 185
156 172 177
161 179 190
150 167 171
164 181 190
161 178 189
152 169 176
159 175 181
95 119 96
79 106 65
75 101 61
74 100 60
72 98 58
68 94 55
74 101 61
71 97 59
74 100 60
78 106 65
71 98 59
75 102 62
73 99 60
74 101 60
118 137 128
156 173 180
149 168 173
161 178 187
163 180 190
152 169 177
164 181 189
150 167 174
161 177 186
162 178 187
159 176 186
152 169 174
160 177 188
158 174 181
144 163 170
75 102 62
71 96 57
73 99 59
73 100 60
76 102 61
72 99 58
74 101 61
76 102 62
75 101 61
78 104 64
72 97 59
72 97 58
73 99 60
70 96 57
142 159 163
156 172 180
162 178 188
159 175 184
159 175 184
160 176 184
148 166 169
156 173 183
157 173 180
168 185 196
151 168 175
159 175 183
159 174 181
152 168 175
73 100 61
76 103 63
72 99 60
76 104 63
69 94 55
74 100 61
77 103 63
70 95 56
70 96 56
72 97 58
74 100 60
76 102 62
74 99 60
76 102 62
151 168 175
166 182 192
167 183 192
159 176 185
155 172 181
158 174 183
159 176 185
160 176 186
156 171 178
160 176 185
157 174 185
161 178 190
163 180 191
155 171 179
103 125 106
74 101 61
69 94 56
76 104 63
64 88 52
72 98 59
73 99 60
76 103 63
72 98 59
74 100 62
72 99 59
77 104 63
77 104 62
76 104 63
135 153 152
156 173 181
152 168 175
156 173 180
152 169 175
159 175 185
162 179 189
160 176 185
166 182 192
148 165 170
164 180 191
149 166 172
159 175 184
155 173 182
95 118 91
77 104 62
77 104 63
69 95 55
72 98 59
74 101 60
75 102 62
86 112 79
109 129 117
131 150 149
155 171 174
156 173 181
155 173 180
159 176 185
70 96 58
78 105 63
73 99 60
81 108 66
73 99 60
75 102 61
78 104 63
75 101 60
74 100 60
72 98 59
74 100 61
74 100 60
74 101 61
105 126 112
157 174 185
159 175 183
162 180 190
162 179 189
161 178 186
160 178 185
159 176 183
153 170 178
165 182 194
168 185 197
168 185 197
170 186 199
168 184 196
75 101 61
76 103 62
72 99 60
77 104 62
75 101 61
77 105 64
70 96 58
78 106 64
72 98 60
78 105 64
77 104 63
79 107 66
76 103 62
164 181 193
159 176 184
164 180 189
156 172 180
164 181 190
160 177 185
162 179 191
166 182 192
163 181 193
168 184 197
160 178 189
161 179 187
147 165 173
76 103 63
77 104 64
74 100 60
81 109 67
79 107 65
73 100 60
79 106 65
79 107 66
78 105 64
76 103 62
79 107 66
77 102 65
138 157 155
77 104 63
78 106 65
80 108 67
76 103 63
79 105 64
78 104 64
73 99 60
78 105 65
81 109 67
80 108 67
78 106 65
151 170 176
165 183 196
161 178 187
172 189 204
166 183 195
168 185 199
167 183 196
171 188 200
164 182 193
157 174 184
161 178 187
146 163 165
80 107 66
80 107 65
77 104 63
77 104 64
73 100 59
80 108 67
77 105 64
78 105 64
75 102 62
78 105 64
114 136 123
163 179 187
173 188 199
172 188 200
165 182 194
143 161 166
81 109 67
79 107 65
78 105 64
79 107 66
78 105 64
82 110 69
150 168 170
162 180 188
162 179 187
162 179 191
144 164 167
76 102 61
74 102 62
75 103 62
75 102 61
80 108 66
82 110 68
78 106 64
78 106 65
81 109 66
77 104 64
88 112 83
164 181 190
164 181 192
166 183 195
167 185 198
171 189 202
171 188 202
163 180 191
162 179 189
164 182 192
163 180 190
166 184 194
116 137 125
79 107 65
79 107 65
77 105 64
76 103 62
78 105 64
76 103 62
80 108 66
76 104 64
77 104 64
78 105 65
77 105 64
120 141 133
167 185 196
126 146 141
79 106 65
82 111 69
78 105 64
77 104 63
82 110 67
78 105 63
73 101 61
78 106 65
79 106 64
75 101 62
160 176 185
159 176 186
164 182 192
172 189 202
171 189 202
164 182 191
163 179 191
150 169 176
169 187 201
158 174 184
164 180 189
158 175 185
165 182 193
86 112 77
79 106 64
80 107 65
76 102 62
77 104 63
79 106 65
74 100 60
74 101 61
78 106 65
77 104 64
72 98 60
74 100 60
75 101 61
134 153 153
165 182 194
164 181 191
166 182 192
164 182 192
158 174 183
165 181 192
165 181 193
158 175 182
164 181 193
159 177 186
162 179 187
167 183 193
164 180 191
79 106 64
74 101 61
82 111 68
74 100 60
80 107 65
75 101 60
75 102 62
74 100 60
76 103 62
76 103 62
75 101 61
69 95 56
77 105 64
95 116 94
159 174 180
159 175 184
160 177 186
146 164 170
166 182 192
156 172 179
155 171 179
156 174 184
154 170 175
145 162 165
142 160 162
121 141 133
113 134 124
102 125 107
160 175 183
151 168 175
166 182 191
166 182 192
166 181 190
164 180 191
165 181 190
155 172 179
163 178 187
173 190 204
155 171 176
159 176 185
149 168 172
136 154 154
70 95 57
76 103 62
72 98 59
71 97 58
78 105 64
72 98 58
76 103 62
71 97 58
73 100 60
74 100 61
74 99 59
70 96 58
72 98 59
78 104 66
167 183 195
144 162 166
150 166 172
158 175 183
162 178 189
166 182 193
160 176 183
156 173 181
149 166 173
161 177 188
152 170 177
148 164 168
162 180 190
154 169 175
75 102 63
71 97 58
72 98 58
73 99 59
71 97 58
76 103 63
76 103 62
73 98 59
79 106 65
72 99 59
76 103 63
75 101 60
74 100 60
70 95 56
147 163 167
162 180 191
158 174 183
152 169 175
163 179 190
151 167 175
145 162 168
158 174 182
166 182 193
154 170 178
149 166 171
157 174 184
167 182 193
155 171 178
155 171 177
77 104 64
73 99 58
76 103 63
74 101 61
73 99 59
75 102 61
72 99 60
75 101 60
73 98 58
74 100 61
72 99 59
77 104 63
71 97 58
72 97 57
154 171 178
163 180 188
165 181 190
154 172 178
156 173 182
153 169 177
153 171 178
155 170 175
155 172 182
165 181 191
155 172 180
151 169 176
158 175 186
157 174 180
88 112 84
77 103 63
74 101 61
74 100 62
75 101 61
71 97 59
72 98 59
74 101 61
68 93 55
73 99 59
76 104 63
74 100 60
77 103 62
74 100 61
99 120 104
147 165 172
154 171 180
159 176 184
160 177 185
147 164 168
161 178 187
153 170 177
158 174 183
161 178 188
161 176 185
158 176 185
153 170 178
158 175 184
157 173 181
72 98 59
72 98 58
71 97 58
73 99 59
73 99 60
72 98 59
70 95 57
74 100 61
74 101 61
75 101 62
78 105 65
73 99 59
74 101 60
72 99 60
160 176 185
164 181 193
161 175 183
147 165 169
165 182 193
166 182 192
159 176 186
152 168 173
162 178 187
151 168 174
170 187 202
145 164 170
130 149 149
121 139 131
152 170 175
164 180 192
152 169 173
160 177 188
165 180 190
159 176 183
157 174 183
160 177 188
149 167 174
168 185 195
156 172 180
159 176 186
154 171 179
144 161 168
77 103 63
78 105 64
75 101 61
76 103 62
72 98 58
73 99 59
76 103 63
77 105 64
72 98 59
75 102 63
72 98 59
74 101 60
77 104 64
119 141 129
164 181 193
162 178 188
164 181 191
152 170 178
161 177 190
157 173 181
161 179 188
152 171 178
158 174 184
147 164 167
168 185 195
169 185 197
163 180 190
75 101 61
76 103 62
78 105 64
80 107 66
80 108 66
75 101 60
76 103 62
74 100 61
79 107 66
78 105 64
74 100 60
73 100 60
76 103 63
142 161 164
164 180 189
158 175 184
155 172 179
155 172 181
164 181 191
164 181 193
153 170 176
165 181 189
158 175 185
160 177 187
169 185 198
159 177 186
79 105 66
73 99 59
76 103 63
76 102 61
77 104 64
70 96 58
78 106 65
93 116 94
153 171 176
161 178 189
162 180 191
160 178 190
141 160 162
75 102 62
72 98 59
77 104 64
75 103 63
75 102 63
79 107 66
74 101 62
77 105 63
76 103 63
80 108 66
73 99 60
97 120 103
147 165 166
166 182 193
166 182 195
165 183 197
170 186 199
163 180 190
163 181 191
168 185 198
165 183 195
176 193 209
163 180 190
94 117 94
80 108 66
75 102 61
79 106 66
73 100 60
80 108 67
81 109 67
79 106 64
79 107 65
79 107 66
79 107 65
157 175 184
168 185 197
88 115 79
76 104 64
79 107 67
78 106 65
82 111 69
84 113 70
77 104 64
80 108 66
79 107 65
76 105 64
150 170 177
82 109 70
79 107 66
83 112 70
78 105 64
78 106 65
78 105 64
78 105 65
79 107 65
78 107 66
76 103 63
76 103 62
146 165 169
172 189 200
173 189 202
157 173 183
162 179 187
172 189 202
171 187 200
168 185 198
160 179 191
166 183 191
164 181 193
163 180 189
81 108 72
74 101 62
81 109 67
77 104 64
78 106 65
79 107 66
77 104 63
74 101 61
79 106 65
80 108 66
75 102 62
78 106 65
160 178 187
164 181 190
168 184 195
161 179 190
158 175 183
170 186 200
151 169 172
105 128 112
74 100 60
75 101 61
81 109 67
78 105 64
76 103 66
165 181 194
168 185 197
164 181 192
161 179 190
161 177 186
162 179 186
167 183 194
163 182 193
161 178 186
167 184 197
161 177 186
161 178 187
154 171 179
81 108 66
80 107 65
79 107 66
77 104 63
78 105 64
77 105 64
77 105 64
76 103 63
79 106 64
77 104 64
77 105 64
75 102 61
78 106 65
144 161 161
169 185 198
166 182 193
164 182 192
165 182 194
155 172 179
166 183 197
165 182 192
160 177 185
160 178 185
162 178 186
173 189 200
160 176 187
164 180 189
77 104 63
72 97 58
79 106 64
78 106 65
74 101 62
75 103 62
75 102 61
74 101 61
76 102 62
78 106 64
71 97 58
77 104 64
73 100 61
81 107 71
152 169 174
162 178 188
159 176 184
165 181 191
161 178 185
159 174 181
154 170 178
161 179 188
166 183 194
149 166 170
152 169 176
158 175 184
164 180 189
163 179 189
71 97 57
74 100 60
73 99 59
75 101 61
74 100 60
71 97 58
73 98 62
97 120 100
105 128 111
132 150 145
132 151 150
150 167 169
158 176 183
171 187 200
71 97 58
79 107 65
77 104 63
73 99 59
73 98 59
75 101 60
72 99 59
78 106 65
77 104 64
71 98 58
74 100 60
71 96 58
71 98 58
73 100 60
147 165 168
153 170 178
165 181 187
152 169 175
161 177 186
152 169 172
149 167 173
158 176 185
168 184 194
156 173 182
156 173 179
160 176 182
171 188 200
164 181 190
157 174 181
76 102 62
75 102 62
73 99 59
77 104 63
72 97 59
75 102 61
76 104 64
70 95 57
75 101 62
71 97 59
74 100 60
75 102 63
74 100 61
77 104 63
166 182 193
153 168 173
164 180 190
160 175 182
149 166 173
160 178 188
162 178 190
159 175 186
164 181 194
160 178 189
153 170 178
160 177 186
163 179 187
155 172 178
142 159 162
72 98 60
73 99 60
75 102 62
71 97 58
73 99 58
75 102 61
71 96 57
79 105 64
75 102 62
75 102 61
74 101 61
77 104 63
70 96 57
80 107 65
157 174 182
161 178 187
156 173 180
155 171 182
161 178 189
162 178 189
160 177 187
157 173 183
155 173 180
169 184 197
164 181 191
162 179 187
158 175 183
158 174 184
115 136 125
70 96 57
73 99 60
73 99 60
74 101 61
69 95 55
78 105 64
74 100 60
76 104 64
71 98 59
73 99 60
73 99 60
72 98 58
75 101 61
76 103 61
165 181 192
155 172 182
159 176 185
164 180 189
149 166 173
149 166 172
158 174 182
157 174 180
159 176 187
148 166 171
159 175 185
160 175 181
158 175 182
155 172 181
91 115 90
73 99 59
75 101 61
77 103 63
74 100 60
76 103 64
72 98 59
75 102 62
80 107 65
71 97 57
79 107 66
73 100 60
75 101 61
82 107 73
129 147 145
130 150 144
104 127 107
112 132 117
83 107 77
73 99 59
76 103 62
71 97 59
77 104 63
73 99 60
79 106 65
75 102 62
77 104 64
71 97 59
93 116 95
155 171 178
151 167 173
156 174 182
167 184 197
146 164 167
154 170 177
158 175 183
154 171 178
162 178 189
157 173 184
145 163 165
157 174 180
162 179 191
151 168 173
77 104 64
78 105 65
74 101 61
75 102 61
78 105 64
72 98 59
73 100 61
75 102 62
79 106 65
78 106 65
78 106 65
73 99 60
76 103 62
119 140 133
160 177 186
157 173 183
157 174 179
165 182 192
165 181 189
169 186 198
162 179 187
168 185 197
161 176 185
165 181 191
162 179 191
164 180 191
168 184 196
75 100 64
77 104 63
74 100 60
76 104 64
76 103 63
78 105 65
76 103 63
78 105 64
75 102 62
79 107 65
80 108 67
76 102 62
76 102 63
150 168 175
155 173 182
170 187 201
153 171 181
173 188 203
163 181 194
162 179 187
158 175 181
156 172 179
161 177 186
164 181 192
158 176 184
168 185 200
121 141 132
74 100 60
87 113 80
132 152 150
155 172 179
167 184 196
163 180 189
158 177 187
169 186 200
161 179 190
159 176 187
169 185 197
159 175 183
79 106 65
79 106 65
79 106 65
82 110 67
77 105 64
76 103 63
83 111 69
78 106 65
80 109 67
79 106 64
79 106 64
78 105 65
172 188 199
168 185 198
178 193 206
160 178 187
156 173 181
172 188 200
167 184 196
157 174 181
171 189 204
160 178 187
171 189 205
149 166 171
78 105 64
79 106 65
81 109 67
76 103 63
79 107 65
79 107 66
79 106 65
80 108 66
82 110 68
150 169 173
147 165 171
79 106 66
78 106 65
79 106 65
79 106 65
82 111 68
78 106 65
81 110 68
79 106 65
80 108 67
128 147 140
163 181 191
162 179 187
89 115 84
80 108 66
82 110 67
78 105 65
80 106 64
77 105 65
82 110 69
77 104 64
102 125 102
167 184 197
167 183 193
165 182 193
167 185 198
165 182 192
159 176 184
173 191 207
167 185 196
168 184 194
163 180 191
168 185 195
141 161 163
77 104 63
79 106 65
80 108 67
76 103 63
75 101 61
76 104 63
76 104 63
78 105 64
79 107 65
80 108 66
75 102 62
84 112 74
157 173 180
168 184 194
169 187 200
167 184 196
157 174 182
162 180 190
165 180 188
173 190 204
159 177 187
164 182 193
165 182 195
150 168 171
108 129 111
167 184 195
162 178 187
167 183 192
159 176 183
164 180 189
170 187 201
167 183 194
170 187 200
170 188 202
166 185 196
167 184 194
168 185 195
163 180 191
75 102 61
78 107 65
77 104 62
77 105 65
77 104 63
77 105 64
80 108 66
77 104 63
78 105 64
77 104 63
75 102 62
74 101 61
77 104 63
151 168 174
164 181 191
162 179 189
165 182 192
170 187 198
171 187 200
157 174 182
163 178 185
158 175 183
156 172 178
163 181 192
159 175 182
166 183 195
154 171 176
76 104 64
75 101 60
74 101 61
77 104 63
74 101 61
73 100 61
80 108 66
74 101 60
74 101 61
77 104 63
77 105 64
76 102 62
76 104 63
72 99 59
150 167 173
165 180 187
161 178 186
171 188 201
153 171 180
164 180 190
154 170 179
168 183 193
160 177 187
159 176 185
158 176 185
163 179 186
165 181 191
165 182 193
78 104 69
78 106 65
77 104 64
77 104 63
69 95 56
77 103 63
76 103 62
70 95 56
70 96 57
76 104 63
74 100 61
69 95 56
73 100 59
74 100 60
110 130 119
157 174 181
157 174 182
163 180 190
154 171 178
162 180 191
158 175 185
136 154 155
130 150 145
139 158 158
117 137 128
98 120 102
108 128 114
81 107 67
75 102 62
155 171 178
157 175 184
153 170 174
149 165 168
158 175 183
151 169 177
153 170 176
163 180 189
158 174 181
161 178 187
151 169 174
155 171 180
160 177 187
161 179 191
105 126 110
73 99 60
73 99 59
75 102 62
74 100 61
74 101 62
76 103 63
76 103 63
77 104 64
75 102 62
76 103 62
71 97 58
73 100 60
72 98 59
80 108 65
158 175 183
158 175 183
157 174 183
157 172 177
171 187 197
155 172 182
154 172 179
163 179 188
153 169 175
158 175 182
155 173 181
156 172 177
164 180 192
158 174 181
128 148 146
72 98 59
70 96 57
71 97 58
73 99 59
76 102 62
72 99 59
79 106 65
73 99 60
76 102 62
80 108 67
73 99 59
75 101 61
77 105 64
72 98 59
155 172 182
157 174 182
161 178 187
159 175 182
158 174 184
155 171 176
147 165 172
160 177 186
162 177 185
164 180 191
159 177 188
155 172 179
154 171 178
157 174 184
157 174 181
73 100 60
74 101 61
76 103 63
79 106 65
79 106 65
76 102 63
70 96 57
75 101 62
80 108 65
76 103 62
75 102 61
75 102 62
75 101 61
73 99 59
167 182 191
163 179 189
157 175 181
159 177 188
167 185 197
149 167 174
156 174 183
156 172 180
157 174 184
163 179 189
162 179 188
148 164 169
157 173 181
155 172 177
150 168 170
115 134 124
122 142 135
138 155 155
150 167 169
155 172 180
153 170 180
152 169 176
167 184 194
152 168 173
171 188 201
151 167 176
157 174 182
153 171 178
167 183 197
74 100 60
77 104 63
73 100 61
75 100 61
78 105 64
75 102 62
73 100 60
80 107 65
76 102 62
72 98 58
72 98 59
75 102 62
73 99 60
73 99 60
146 162 165
159 176 185
161 177 186
157 174 182
157 174 183
162 178 188
163 180 191
150 166 172
161 179 189
164 180 191
157 173 183
164 182 190
166 182 191
167 184 197
130 149 145
71 97 57
75 102 62
77 103 63
73 100 61
75 101 62
75 102 62
76 103 63
76 102 62
76 103 62
76 103 62
78 106 65
75 102 62
75 101 62
129 149 143
164 182 192
153 172 180
158 176 187
172 189 204
155 172 177
155 171 178
160 177 187
156 174 182
162 178 188
160 176 186
149 167 173
156 173 181
172 189 203
84 111 76
73 100 60
78 106 65
78 105 64
77 104 64
71 97 59
70 95 57
79 107 65
76 104 64
78 106 66
76 103 63
77 104 64
75 102 62
119 139 132
158 174 185
155 172 179
168 184 194
164 182 192
157 173 182
157 175 184
160 178 189
159 175 182
164 181 194
161 178 186
129 147 142
86 113 75
119 140 130
174 189 203
165 182 192
171 188 200
167 185 197
164 182 197
159 176 186
164 181 194
151 168 175
156 174 183
165 183 195
177 194 209
164 181 192
104 127 112
79 105 64
77 104 63
77 104 64
79 107 66
79 106 64
78 106 64
75 102 61
76 103 63
79 107 65
77 105 64
75 102 62
118 138 129
163 181 190
163 181 190
161 178 185
162 179 193
165 181 193
161 178 188
164 181 193
167 184 196
169 187 198
175 192 205
167 184 195
98 124 97
76 104 63
78 105 64
80 108 67
80 108 67
79 106 65
121 141 134
163 180 191
154 171 177
172 189 202
163 181 192
109 131 116
75 102 62
79 107 65
79 107 66
81 109 66
81 109 66
84 111 74
166 183 193
171 189 205
174 192 206
172 189 201
164 182 192
159 177 184
85 112 77
79 108 67
81 109 67
82 111 69
79 106 65
154 174 180
168 186 199
164 181 193
166 183 194
167 184 195
176 192 205
158 176 183
167 183 194
169 187 200
161 178 185
156 175 182
160 177 185
98 123 96
77 104 64
78 106 64
73 100 59
80 108 67
77 105 64
75 102 61
76 104 64
78 105 65
80 108 66
78 106 65
76 102 62
112 133 118
161 179 187
164 180 189
160 177 186
165 182 194
160 177 186
162 181 192
169 185 198
159 178 189
166 185 196
160 178 187
167 183 195
158 175 181
124 145 138
75 102 62
77 104 63
76 104 63
105 127 109
155 173 181
168 185 198
154 172 182
154 171 177
168 185 197
174 189 201
162 180 190
168 185 199
159 177 185
76 103 62
79 106 65
78 105 65
81 109 67
78 105 65
78 105 64
76 104 64
80 107 66
76 103 63
74 101 60
75 102 62
80 108 66
72 99 60
139 156 155
168 185 196
163 178 185
153 170 178
165 181 193
167 183 192
163 181 192
158 175 183
159 177 188
172 188 202
161 177 185
161 178 187
161 179 188
164 182 193
86 111 76
78 105 64
77 104 62
79 107 66
77 104 63
74 101 61
74 100 61
74 101 60
75 101 61
76 103 62
75 102 61
76 102 63
75 101 60
78 105 64
163 180 191
164 180 187
156 173 181
159 178 189
157 174 182
163 181 192
164 181 193
156 173 181
154 171 179
154 171 179
167 184 195
162 178 186
164 181 190
165 182 192
132 150 146
76 103 62
78 104 63
75 101 61
77 105 64
80 107 66
71 96 57
77 104 63
75 102 61
74 101 61
80 108 65
73 99 59
71 96 57
72 99 60
75 103 62
164 180 190
162 179 188
154 171 179
159 175 182
156 174 185
164 180 190
152 170 176
152 169 177
165 183 194
162 179 188
150 166 173
164 181 194
160 178 188
156 172 180
119 139 130
72 98 59
73 101 61
76 103 63
74 100 61
76 103 63
73 99 60
74 100 60
76 103 62
82 105 76
92 115 92
104 125 109
107 128 112
130 149 145
136 154 152
119 138 131
102 123 108
101 123 101
102 124 100
85 108 80
80 106 68
75 101 62
75 101 61
72 98 59
77 104 63
76 104 63
77 104 63
71 97 57
78 105 63
73 100 59
161 178 187
170 186 199
155 173 181
157 173 180
161 178 188
155 172 178
153 170 177
153 171 177
164 180 191
158 174 181
156 173 183
166 183 194
161 176 186
156 173 185
131 150 147
78 105 64
74 100 59
74 101 61
77 104 63
73 100 60
77 103 63
75 102 61
73 99 60
80 107 65
73 99 59
70 95 57
78 106 65
76 104 62
76 102 61
157 173 180
163 179 190
155 172 181
149 167 172
155 173 181
154 171 179
164 181 190
158 174 180
169 184 196
160 178 188
164 180 191
151 169 176
148 167 172
165 182 193
155 171 175
72 98 60
75 102 62
75 101 62
76 103 62
77 104 63
70 96 58
85 111 78
100 123 103
104 126 110
116 137 124
107 128 115
115 137 126
137 155 155
130 148 147
141 159 162
89 113 81
92 116 90
74 100 60
77 103 62
71 97 57
76 103 62
78 105 64
74 100 61
75 101 61
74 100 60
76 103 63
77 104 65
77 104 63
75 101 60
153 170 179
165 182 192
156 174 183
150 167 173
166 184 195
155 172 184
164 181 193
152 169 177
159 175 182
163 180 191
154 170 179
158 175 184
156 172 181
165 181 191
150 167 173
78 105 64
75 101 61
77 104 63
78 105 65
74 100 59
76 103 63
73 100 61
77 104 63
72 98 60
76 103 62
74 101 61
76 103 62
71 97 57
75 101 61
163 180 193
158 176 186
170 187 201
162 180 193
160 178 187
166 182 192
159 175 183
147 165 168
148 165 170
164 180 191
167 184 195
159 175 184
161 179 188
152 169 176
105 126 111
77 104 63
75 101 61
73 99 60
75 102 62
76 103 62
75 102 62
74 100 60
79 106 65
74 100 60
78 105 64
80 108 66
77 103 62
79 106 64
149 167 173
162 177 184
160 177 186
159 176 185
168 185 200
169 186 198
161 177 185
166 184 197
160 176 186
165 181 192
161 178 188
152 169 175
165 181 192
159 175 184
82 108 72
75 103 63
77 104 64
72 99 59
75 101 61
81 108 67
77 104 64
78 106 65
76 103 62
76 104 63
76 103 62
79 107 66
80 108 66
106 130 113
165 182 193
157 175 181
177 193 208
163 182 194
154 171 178
126 147 140
82 107 74
77 104 63
78 106 65
76 103 63
78 106 65
76 104 64
93 118 88
168 185 196
166 182 194
167 183 193
162 178 187
173 189 201
167 184 199
163 180 192
169 187 200
164 181 189
159 175 182
162 179 189
169 185 197
144 163 164
74 101 60
74 101 61
80 108 66
78 106 65
78 105 64
78 107 66
77 104 64
74 101 62
74 101 60
80 107 65
74 100 61
90 115 86
168 185 197
171 186 197
156 173 179
166 183 195
167 185 198
168 186 200
171 189 202
170 187 200
167 185 198
165 182 193
175 192 204
138 157 153
76 102 61
76 103 63
119 140 133
164 182 192
159 176 183
171 188 201
170 186 198
171 187 201
169 188 205
165 183 194
161 179 188
80 108 67
82 110 67
76 103 62
123 143 136
162 179 189
165 183 196
173 191 204
162 179 190
165 182 190
165 184 197
174 191 205
173 190 206
166 183 194
95 120 95
82 109 70
172 188 200
167 185 195
163 180 190
163 181 191
166 182 193
162 179 188
166 183 193
161 179 189
164 182 192
171 186 199
169 186 198
159 176 182
78 105 65
79 107 65
73 100 60
81 109 67
75 102 62
78 106 64
80 109 67
80 108 67
81 109 66
83 112 69
82 111 69
75 103 63
149 168 174
165 182 193
167 186 198
153 170 174
166 183 194
162 179 190
166 183 194
162 179 186
174 191 204
155 173 182
165 182 195
166 183 195
165 183 194
105 127 105
80 108 66
79 107 66
77 104 64
76 103 63
80 108 66
78 106 65
79 106 65
78 105 64
80 106 68
129 148 145
163 179 188
167 184 195
138 156 156
76 103 62
79 107 65
75 103 63
78 106 65
78 104 63
79 106 65
79 106 65
79 106 66
78 106 65
78 105 64
78 106 64
73 99 60
75 102 61
161 178 187
163 180 191
169 186 198
174 191 205
162 180 189
159 177 185
158 175 182
166 182 194
153 169 176
155 172 178
166 183 194
159 175 183
167 184 195
166 182 191
94 117 92
78 105 64
75 101 61
79 106 65
74 101 60
80 107 64
79 107 66
78 104 63
76 103 64
73 100 60
72 98 59
78 105 63
73 99 59
79 106 65
134 153 150
157 174 183
162 179 187
165 183 194
163 181 192
162 179 189
162 180 188
168 185 197
172 189 204
160 177 186
159 176 187
162 178 188
159 175 183
164 180 189
148 166 170
76 103 64
76 103 62
77 103 62
74 101 61
75 102 61
74 101 60
77 105 64
72 98 58
74 101 61
77 103 62
75 102 61
78 105 64
75 102 62
76 104 64
141 158 157
157 172 177
153 171 179
158 176 185
156 172 180
157 173 180
163 181 192
168 185 197
160 178 187
157 174 185
159 175 187
164 180 190
159 177 186
158 175 186
156 173 180
71 98 58
76 102 61
75 102 62
74 101 61
76 103 63
71 97 57
79 106 65
78 105 65
74 101 61
76 103 62
71 98 58
77 104 63
78 105 64
74 101 61
78 106 65
156 173 182
163 180 190
155 173 181
151 167 175
156 173 183
159 175 183
164 180 189
163 180 190
161 177 185
159 177 187
168 185 197
156 172 178
164 180 191
155 171 180
140 157 154
70 95 56
77 104 63
75 102 62
77 104 64
77 103 63
77 104 64
79 106 66
77 103 63
74 99 59
77 104 64
73 99 59
76 104 63
73 101 61
71 98 59
138 157 159
165 182 196
166 184 196
149 167 175
155 173 184
152 168 175
166 182 192
161 178 187
156 174 183
156 173 182
148 166 171
157 175 185
164 180 189
159 176 188
157 173 182
81 105 72
76 103 63
75 102 62
76 102 62
72 98 58
75 102 62
75 102 63
79 107 65
78 104 64
77 105 64
82 109 67
73 100 60
76 104 63
74 100 60
69 95 56
172 189 203
164 182 195
151 168 174
153 170 176
158 174 182
160 175 183
153 171 179
156 172 180
167 184 195
159 177 186
157 174 182
153 169 175
166 183 193
156 173 181
157 174 183
75 101 61
75 102 62
76 103 62
75 103 62
78 106 65
74 100 61
78 106 66
70 96 58
74 101 61
79 106 65
75 102 62
74 100 60
79 107 66
77 103 62
83 109 77
159 177 185
156 173 184
160 177 186
148 164 169
167 183 194
162 178 188
166 182 192
163 178 186
160 176 184
158 175 184
156 173 182
165 182 194
157 175 183
167 184 194
102 126 104
74 101 60
73 100 59
73 100 60
75 101 61
76 102 61
77 105 64
76 102 61
79 106 65
77 104 64
71 98 58
80 107 66
74 101 60
77 103 63
78 105 67
162 179 188
167 185 197
164 180 190
165 181 191
160 177 188
163 180 190
167 184 196
158 174 184
158 175 182
167 184 196
155 173 181
165 181 192
168 184 195
160 175 183
80 106 71
73 100 60
73 100 60
77 105 63
74 101 61
72 98 58
78 106 65
76 103 62
74 100 59
74 101 61
77 103 62
76 103 62
73 100 60
76 104 64
153 171 179
160 178 188
159 174 181
159 177 185
162 179 190
172 189 200
168 184 197
162 178 187
165 181 191
155 173 180
156 174 182
170 186 198
167 184 197
155 172 178
87 110 86
74 100 61
76 103 63
75 101 61
73 100 60
80 107 65
72 99 60
76 103 62
75 101 60
77 104 64
76 104 63
77 105 64
76 104 63
113 133 121
110 130 117
75 102 62
74 101 61
78 106 65
78 105 63
77 105 65
80 107 65
73 100 60
80 107 65
75 102 61
70 95 57
79 106 65
76 102 62
162 180 193
165 182 191
166 184 196
167 184 197
168 186 197
160 177 184
162 180 190
153 170 174
160 177 184
167 185 197
169 186 198
159 176 184
161 178 188
75 102 62
78 106 65
80 108 66
83 111 68
77 105 64
79 107 65
77 104 63
78 105 64
77 104 63
75 102 62
78 106 65
76 103 62
152 169 178
162 180 188
172 189 204
163 179 191
174 191 205
164 181 194
163 180 191
173 190 205
165 182 192
160 177 188
168 186 199
128 149 145
154 171 178
167 186 200
168 185 195
151 169 175
165 183 196
163 179 188
166 185 196
163 180 190
172 189 204
171 188 202
169 186 201
79 105 67
167 185 197
161 179 189
180 198 214
165 183 195
170 186 196
172 190 203
171 189 201
166 182 193
161 180 189
165 183 192
161 179 191
131 153 145
79 106 68
157 174 179
167 185 200
166 183 195
162 180 190
166 183 195
170 188 200
169 187 199
166 184 197
168 185 197
170 187 199
131 152 146
78 105 64
83 112 69
75 102 62
74 100 61
79 107 66
82 110 68
76 104 63
81 110 68
78 105 65
78 105 65
83 112 70
81 108 66
161 178 187
168 184 196
173 188 202
172 189 200
165 183 193
169 186 198
160 178 185
169 186 199
165 182 193
170 188 202
167 184 193
166 184 195
170 186 193
79 105 69
75 103 62
78 105 63
81 109 68
75 102 62
77 104 64
75 102 61
78 105 64
78 106 65
76 103 62
78 106 65
77 104 63
79 107 66
127 148 143
166 184 195
148 165 169
111 131 119
72 99 59
76 103 62
77 104 64
78 105 64
76 103 63
82 110 67
76 104 64
75 102 62
78 105 64
79 107 65
155 173 179
171 188 199
167 185 199
159 176 185
160 178 188
160 178 187
171 189 203
159 176 185
164 181 192
169 186 198
155 172 182
161 178 188
168 185 194
167 184 196
115 137 121
75 102 61
76 103 63
75 103 62
73 100 60
80 109 68
77 105 63
76 103 63
74 100 60
75 103 63
82 111 68
75 102 61
80 108 66
74 100 60
112 132 120
166 184 195
169 186 199
163 182 193
159 175 185
168 184 196
168 185 197
156 173 180
151 169 177
160 175 185
161 177 188
159 177 185
165 182 194
153 170 177
157 173 181
83 107 75
79 106 65
78 105 65
78 105 64
77 104 63
78 105 64
78 105 64
77 103 63
79 106 65
70 96 57
77 104 63
74 100 60
74 100 60
76 103 63
79 103 71
164 180 189
158 174 182
163 181 192
162 180 191
158 174 182
157 175 183
160 178 190
165 181 191
167 185 200
165 181 192
158 176 183
160 177 187
150 167 171
161 178 187
143 162 165
74 101 61
77 104 63
78 105 64
75 102 62
73 99 59
76 103 63
78 105 64
78 106 65
80 108 66
82 110 67
74 101 60
74 101 62
79 106 65
79 107 65
117 137 128
162 179 187
150 167 174
156 172 181
160 176 186
156 173 181
164 180 190
164 180 191
146 164 172
161 178 190
167 185 197
171 186 196
157 174 181
160 176 185
164 181 191
101 123 105
76 103 62
77 104 64
77 104 62
77 104 64
73 100 60
77 104 63
79 105 63
78 105 64
70 96 58
70 95 57
77 104 63
74 101 61
76 104 63
73 99 59
134 151 149
163 180 191
157 173 178
163 179 188
154 171 177
166 182 190
146 164 169
164 179 186
161 179 189
161 177 186
157 173 180
157 174 182
169 185 194
163 181 194
157 173 181
99 121 104
78 105 64
80 108 66
72 98 59
77 104 63
79 106 65
69 95 57
74 101 61
78 105 64
76 104 63
74 100 59
73 99 58
72 98 58
73 100 61
74 100 60
149 167 170
164 181 192
154 171 177
161 177 186
157 173 182
154 171 180
156 172 179
167 184 194
165 182 193
161 178 186
156 173 178
170 185 194
157 173 179
148 166 171
151 168 174
88 112 83
77 104 63
80 107 66
77 104 63
77 104 63
77 104 64
77 103 62
76 103 64
76 103 63
76 102 62
72 98 60
76 103 63
74 100 60
77 105 64
75 101 62
152 170 177
159 177 186
152 170 176
160 178 189
158 174 185
164 181 191
158 175 183
162 177 186
169 187 201
167 183 195
163 179 186
166 182 192
153 170 180
164 180 189
147 163 166
71 97 58
78 105 64
74 100 61
74 100 61
74 101 61
74 100 60
76 102 62
76 103 63
72 98 58
74 101 61
76 103 62
78 105 64
80 107 65
77 104 64
122 141 136
159 178 188
158 175 184
154 171 180
164 182 193
170 186 195
164 181 191
154 171 178
164 179 188
163 180 191
166 182 194
166 184 197
155 172 178
159 177 186
158 174 184
72 98 60
71 97 59
73 99 60
74 102 62
71 97 58
77 104 63
74 101 61
77 104 63
74 100 61
76 104 63
78 105 64
79 106 65
74 102 61
76 103 63
151 168 173
160 178 188
159 176 185
156 173 180
156 173 182
161 177 187
156 173 181
166 184 196
159 177 186
166 183 193
162 179 190
160 178 187
158 175 183
160 177 187
95 119 92
76 103 63
78 105 64
80 108 66
73 99 59
79 107 66
74 101 61
89 110 92
123 143 138
165 181 195
168 185 197
152 170 176
164 180 189
160 178 188
75 103 62
81 108 66
73 99 60
77 104 62
78 105 63
76 103 63
75 101 60
78 105 64
80 108 66
76 104 63
77 105 65
82 111 69
79 106 65
151 169 175
169 187 199
160 176 186
168 186 196
167 185 198
168 184 196
166 184 198
162 178 186
168 186 198
167 185 197
162 178 188
169 186 198
168 186 199
100 126 102
81 109 67
75 102 61
76 104 64
80 109 68
77 104 64
75 102 63
78 106 65
80 109 67
75 102 63
76 103 62
80 108 66
112 135 121
169 186 199
162 180 191
164 181 192
164 181 193
163 181 192
160 178 187
161 178 189
104 126 111
79 107 65
78 107 66
80 108 66
123 143 134
171 187 199
175 191 204
171 188 203
168 186 200
169 186 199
171 188 202
167 186 201
169 187 199
169 186 197
164 182 192
173 190 204
180 197 214
171 190 203
173 191 206
169 188 204
174 191 206
170 187 200
167 186 201
160 178 186
177 194 210
88 115 81
78 105 64
79 106 65
79 106 65
78 106 65
126 147 139
163 181 191
164 183 194
165 183 194
169 187 199
162 180 191
166 184 194
85 111 76
78 107 67
78 105 64
76 104 64
80 108 66
81 109 67
80 109 67
81 109 68
76 103 62
78 106 65
82 110 68
79 107 66
96 120 95
170 187 198
170 188 200
174 190 203
166 184 195
171 187 197
155 173 179
175 193 210
169 186 198
163 180 188
164 181 191
180 197 213
164 181 191
158 177 183
78 105 64
81 109 67
77 103 61
78 106 64
78 105 64
82 111 68
81 108 66
79 107 66
80 108 67
76 103 63
78 106 64
80 107 66
74 101 61
157 174 182
154 173 181
167 183 193
171 188 202
160 176 185
174 190 202
161 179 189
174 191 205
148 165 168
113 135 123
77 103 65
77 104 64
78 105 64
81 109 67
161 178 186
158 175 185
168 185 196
165 182 193
170 188 200
166 183 194
162 179 187
175 190 202
171 188 200
167 184 198
164 180 190
175 191 203
158 175 184
163 179 189
112 132 121
75 102 61
80 108 66
75 101 61
71 98 60
77 104 63
75 101 61
73 100 59
73 99 60
77 104 63
77 104 64
81 109 66
83 110 68
74 101 60
73 100 60
166 183 196
160 177 188
152 169 175
160 177 183
164 182 194
160 178 189
169 187 201
163 179 191
152 170 180
160 178 188
154 172 178
161 177 185
161 178 188
161 178 187
125 145 141
75 101 61
78 106 65
72 97 57
76 103 62
80 108 66
75 102 62
77 104 63
78 106 64
78 105 63
78 105 64
74 101 62
75 102 62
73 99 59
74 100 60
159 176 185
162 177 186
160 177 187
154 172 180
157 174 184
169 186 199
161 179 189
160 176 181
153 170 176
164 180 190
158 174 181
164 181 192
155 173 183
158 174 185
160 178 188
77 104 66
72 99 58
73 99 59
70 96 57
73 101 62
76 103 63
77 103 62
78 105 64
74 100 60
77 105 63
77 105 64
74 101 62
74 101 61
74 100 60
75 101 61
163 181 193
166 182 193
163 180 191
157 176 187
168 185 198
153 168 172
161 177 184
152 168 173
170 186 198
162 180 193
160 177 189
162 178 189
161 177 183
162 179 191
163 179 189
74 99 63
75 101 61
74 100 61
72 98 58
76 103 62
72 98 58
71 98 59
78 105 64
73 100 60
78 105 64
76 102 61
78 105 64
74 101 61
80 108 67
77 104 63
148 165 169
168 185 198
167 184 195
164 181 192
170 186 198
165 183 195
167 184 196
157 173 180
163 180 189
159 175 184
159 177 188
158 176 186
156 173 180
165 180 188
161 180 190
119 138 132
74 99 59
76 102 61
75 102 62
72 98 58
75 102 62
78 106 65
77 103 62
79 106 65
75 102 61
79 107 65
72 99 59
70 95 57
71 96 57
75 102 63
115 134 124
161 178 186
163 180 190
158 176 188
161 178 190
166 182 191
165 182 194
159 177 187
156 174 181
164 180 191
164 180 189
161 178 187
160 177 186
166 182 191
158 175 184
138 157 156
71 98 58
68 94 56
73 100 60
74 101 61
74 101 60
75 102 61
77 104 64
76 103 63
73 99 60
73 98 59
80 107 66
73 99 60
72 98 59
76 103 63
111 131 117
162 179 190
150 168 174
166 183 192
154 171 179
163 180 190
167 184 196
149 167 171
159 176 184
163 181 190
159 176 186
164 180 190
162 179 192
165 181 193
156 173 182
115 136 123
76 103 63
73 100 60
74 101 61
74 100 60
79 106 65
75 102 63
77 104 64
70 97 58
74 101 61
78 105 64
79 107 66
73 99 60
75 102 62
76 103 63
164 180 191
154 170 177
166 183 196
157 174 181
165 182 192
156 173 182
153 170 175
158 176 186
152 169 177
159 175 184
156 173 179
163 179 189
159 177 187
160 178 188
153 168 174
76 103 62
76 104 63
80 108 66
74 101 60
75 101 61
73 100 60
76 103 63
82 110 67
81 109 67
76 104 63
75 102 62
74 101 61
77 105 64
77 105 65
158 176 185
167 184 195
165 182 196
161 178 185
162 179 191
160 177 188
171 189 204
163 180 194
157 173 182
164 181 191
162 180 190
153 171 177
154 172 182
158 175 182
99 123 99
98 122 99
135 155 154
164 180 189
153 170 179
154 172 177
152 171 181
165 182 194
157 174 183
163 180 191
163 178 190
165 183 195
162 179 194
171 187 200
80 106 68
77 105 64
81 108 66
82 110 68
75 102 62
80 108 66
77 104 64
74 100 61
76 103 62
77 105 65
75 102 62
78 105 64
76 103 62
121 142 135
180 195 208
167 184 195
159 177 186
163 180 189
164 180 190
172 190 206
154 172 180
166 183 194
173 190 204
162 180 192
169 186 196
168 184 195
137 157 155
75 103 64
73 100 60
79 106 64
73 99 61
82 110 68
81 109 67
76 103 61
78 106 65
79 107 65
80 109 67
76 103 62
80 108 66
164 180 190
169 186 200
166 184 197
161 179 190
86 112 76
77 105 65
78 106 65
76 104 64
79 107 67
79 107 67
77 104 64
80 107 68
171 188 201
169 187 200
158 176 187
174 191 205
175 192 208
167 185 196
172 190 205
165 183 194
178 195 211
164 183 194
171 189 204
167 184 197
165 182 189
167 187 200
178 195 207
174 192 208
169 187 200
143 163 166
78 105 64
78 106 65
78 106 65
82 111 68
78 105 64
82 111 69
79 107 66
81 108 66
89 115 78
164 182 194
168 186 200
149 168 171
77 104 63
81 109 67
78 105 63
80 109 67
79 106 64
77 105 63
78 106 65
74 102 61
75 102 61
77 104 63
79 107 66
78 106 64
143 162 162
168 184 193
163 181 191
171 190 205
173 190 204
172 190 203
169 186 197
157 175 183
158 175 185
166 183 195
171 187 198
163 180 191
165 182 192
150 169 176
78 105 64
79 107 65
79 107 67
83 111 68
76 103 63
78 105 63
80 109 67
75 102 62
73 100 60
79 107 65
76 103 63
77 104 63
76 103 62
156 175 182
168 185 195
160 177 185
171 187 199
164 182 197
173 189 201
158 176 186
160 179 191
162 179 189
165 182 193
163 181 190
161 179 188
161 179 187
156 173 183
115 137 125
119 140 127
155 173 179
168 186 198
158 175 182
161 177 185
168 184 193
157 175 183
155 173 183
161 177 183
168 185 196
156 173 181
163 179 190
163 180 190
142 160 160
79 107 66
75 102 62
73 100 60
76 103 62
75 102 62
78 105 65
75 102 62
78 106 64
79 106 65
76 104 63
77 104 63
81 109 67
74 101 61
79 107 65
160 176 185
157 175 184
166 183 194
155 172 179
165 183 194
170 187 199
160 177 185
168 185 196
165 181 191
154 170 175
161 178 191
164 181 190
151 168 171
160 177 186
160 177 186
73 101 61
74 101 61
72 98 59
77 104 63
75 101 61
76 103 63
76 103 62
77 104 62
73 100 60
75 102 62
75 101 61
73 98 60
78 105 63
75 102 62
87 113 80
166 182 193
161 178 188
162 177 187
163 179 190
158 175 184
159 176 184
158 175 182
160 176 185
168 184 194
161 176 184
165 182 196
155 174 185
156 173 182
157 175 186
159 178 188
75 102 61
75 102 62
78 106 65
74 101 60
77 104 64
76 104 63
74 101 61
76 103 62
77 104 63
73 100 60
77 104 64
75 102 63
77 104 63
76 102 62
74 101 61
161 176 185
155 172 179
162 180 192
151 169 178
158 175 181
162 179 192
154 171 177
157 175 183
156 172 178
159 177 186
162 178 187
155 172 181
156 172 179
158 174 183
170 187 201
76 103 62
74 101 61
77 103 62
74 100 60
73 100 60
70 96 56
76 103 62
73 100 61
76 103 61
75 102 62
74 100 60
76 103 63
76 103 63
74 100 59
78 105 64
151 170 176
166 182 191
159 174 180
160 177 186
163 179 188
162 179 189
167 184 194
164 180 189
158 175 185
170 188 202
160 177 185
165 183 194
167 185 197
161 177 187
156 173 179
140 158 161
82 110 67
72 98 59
79 107 66
78 106 65
77 105 64
79 107 66
79 106 64
76 103 61
75 102 62
80 108 66
71 98 59
74 101 61
76 103 63
72 97 58
77 104 67
156 170 175
155 173 183
157 174 181
153 170 177
162 179 189
158 175 185
155 173 182
159 177 188
159 175 185
167 183 192
155 172 182
162 179 189
153 171 177
167 183 193
166 182 192
71 97 58
80 107 66
73 99 59
76 103 62
74 101 60
75 103 62
79 106 65
78 105 65
75 101 61
73 99 59
74 101 61
79 107 66
79 106 65
79 107 65
75 102 62
163 180 191
166 184 195
159 177 186
159 176 186
165 181 192
163 179 185
164 181 191
159 175 181
163 181 193
166 183 193
159 177 186
168 185 195
163 179 188
150 167 174
159 176 184
76 102 61
74 100 61
76 104 63
76 103 62
79 106 65
74 100 61
75 102 62
74 100 60
75 102 61
76 102 61
80 107 65
82 109 67
77 103 62
73 99 60
78 104 63
149 166 172
171 188 200
165 182 191
165 181 192
159 175 181
158 176 185
147 165 171
161 178 189
163 179 183
163 181 192
168 185 197
155 171 178
164 182 192
161 178 188
148 166 171
78 106 65
74 101 59
78 106 65
75 102 61
79 107 66
76 103 63
76 102 61
76 103 62
78 105 65
73 99 60
73 100 60
76 103 62
79 107 66
78 105 64
163 181 190
169 185 196
165 183 195
153 171 178
156 174 184
154 171 178
160 177 186
145 162 166
155 171 179
142 162 163
112 134 121
79 107 65
81 109 67
73 99 60
157 175 179
161 178 187
166 183 195
162 179 190
169 185 198
160 178 187
164 181 191
161 179 189
156 173 184
160 178 188
171 189 204
159 176 185
162 179 189
160 177 185
92 116 90
78 105 64
76 103 62
80 108 66
75 102 61
76 102 62
75 102 62
78 105 64
78 106 65
76 102 62
77 104 64
76 103 62
75 102 61
92 117 88
168 186 199
162 179 188
177 193 207
172 190 204
166 184 194
167 185 199
167 185 197
163 180 190
172 189 204
157 175 184
167 184 197
172 189 202
164 182 193
74 101 61
79 107 66
81 108 67
77 104 63
77 105 64
74 101 61
79 107 66
81 110 68
77 104 63
83 111 69
78 106 65
81 110 67
142 162 163
78 106 65
74 101 61
83 110 68
80 107 66
76 104 63
80 108 66
76 103 63
80 108 67
85 113 70
79 107 65
80 109 68
138 158 160
156 174 183
169 187 200
169 187 200
170 187 201
168 184 196
170 188 200
169 187 198
177 194 209
170 188 204
169 187 199
176 193 208
167 183 193
169 186 198
172 191 205
93 120 87
81 109 67
79 107 65
81 109 67
77 105 64
80 108 66
80 109 67
77 104 64
76 104 64
78 105 63
83 111 69
78 106 65
147 166 170
141 161 163
80 109 67
77 104 64
78 106 65
77 104 63
79 107 67
80 108 66
77 104 64
80 108 66
74 101 60
77 105 64
76 103 63
156 174 183
164 182 192
164 181 191
167 184 196
172 190 204
172 189 201
167 183 191
159 177 189
171 189 204
164 181 192
164 180 187
170 188 202
166 182 191
139 158 158
80 107 66
81 110 68
82 110 68
77 104 64
78 106 65
72 98 59
75 102 62
73 100 61
76 103 61
77 104 63
71 97 58
80 108 66
74 101 61
158 175 183
162 179 190
162 178 187
163 181 192
166 183 196
168 185 198
164 181 190
161 177 188
167 184 196
172 188 200
160 178 186
163 180 192
172 189 203
164 180 190
98 121 99
79 106 64
75 102 61
74 101 60
76 104 63
82 110 68
76 103 61
98 122 99
134 153 149
158 175 180
165 183 194
170 187 198
158 175 183
155 172 179
152 170 173
78 106 65
77 105 65
74 101 60
75 102 62
78 105 64
76 103 62
77 105 63
80 108 66
83 111 68
75 102 62
76 103 62
77 103 62
77 104 63
78 105 64
149 167 171
165 182 194
167 184 196
156 173 181
154 172 178
170 187 198
153 170 178
167 184 193
168 185 197
160 176 185
162 179 190
164 181 189
157 174 183
163 180 189
162 180 189
76 102 65
73 98 59
78 105 63
74 101 61
73 99 59
76 104 63
80 108 67
74 101 61
77 105 64
77 105 64
75 102 62
74 101 61
76 104 63
75 103 63
76 103 63
158 175 186
163 181 193
172 188 201
162 179 190
148 166 172
158 175 184
163 179 190
160 176 188
157 174 179
160 176 184
160 177 182
165 181 191
167 182 192
162 179 189
157 174 181
104 125 108
79 106 65
82 109 67
74 101 60
77 105 64
79 106 64
74 100 60
73 99 59
73 100 60
77 104 63
78 105 64
75 103 63
77 104 63
74 101 61
73 101 61
110 131 118
165 183 193
155 172 182
157 173 181
162 179 188
166 183 195
157 173 181
169 186 198
171 187 198
165 182 191
166 183 195
160 176 184
153 171 177
163 181 191
152 170 177
170 186 197
74 101 61
76 103 63
80 107 65
72 99 59
75 102 61
77 104 64
72 98 58
70 95 56
79 106 64
75 102 61
77 104 63
78 106 65
76 103 62
74 100 60
80 107 66
166 183 193
168 184 196
153 171 179
152 170 176
155 171 176
154 172 181
153 170 178
168 184 195
159 176 184
156 173 182
158 175 184
164 182 192
147 163 170
172 188 200
150 168 174
144 162 165
77 105 64
72 97 58
76 102 62
73 100 60
75 102 63
76 104 63
76 102 63
73 99 59
74 100 60
77 104 63
77 104 62
75 101 61
79 107 65
79 106 64
76 103 63
158 175 183
168 184 196
156 174 185
166 182 193
167 184 196
170 186 198
159 176 187
163 179 191
160 177 184
162 179 188
155 172 181
157 174 183
153 170 178
165 182 194
154 171 177
83 108 73
76 103 63
78 106 65
77 105 63
77 105 64
77 104 63
77 104 63
76 102 62
78 106 64
79 107 65
76 103 62
75 102 62
75 102 62
76 103 62
73 101 60
137 154 151
161 178 189
161 177 186
156 173 183
166 182 191
156 173 179
154 170 179
161 179 189
166 184 194
155 170 177
164 180 189
165 182 192
154 170 178
166 182 194
156 173 177
140 160 160
74 101 61
71 98 58
73 100 61
75 102 62
76 103 63
80 107 65
76 103 62
78 105 64
77 104 64
75 101 61
79 106 65
76 103 62
77 104 64
73 99 60
101 123 107
154 172 179
164 181 194
168 184 197
170 185 197
156 173 182
163 179 187
163 180 188
158 175 185
159 177 185
166 183 196
161 178 187
167 184 197
163 179 189
167 183 194
110 132 113
79 106 65
74 102 61
81 108 66
77 103 62
78 104 63
76 102 62
77 105 64
79 106 64
76 103 62
75 102 62
79 107 65
79 107 66
76 103 63
77 105 65
162 178 186
150 168 177
142 161 161
121 143 135
80 105 68
77 104 63
78 105 65
75 103 62
76 103 62
76 103 62
76 103 63
76 103 63
77 104 63
77 105 63
159 175 181
163 180 192
157 175 186
166 183 195
159 176 183
159 176 187
168 185 195
166 182 192
162 179 188
164 182 193
168 186 198
167 184 193
157 175 185
164 181 192
97 121 96
77 104 63
81 109 68
78 106 64
76 104 64
76 103 63
80 108 65
77 105 64
76 103 62
73 100 60
80 109 67
74 101 61
74 100 61
86 112 79
166 182 192
179 196 212
164 183 195
168 185 198
164 182 193
168 184 196
156 174 182
168 184 195
172 189 202
163 180 190
163 182 194
177 193 206
163 181 191
85 111 77
79 106 65
78 106 65
79 106 65
77 105 64
79 106 65
77 105 64
75 101 61
108 131 112
168 184 195
161 178 189
165 182 194
157 175 184
80 108 67
79 107 66
80 108 67
79 106 65
82 110 68
79 106 66
78 105 64
81 109 67
80 108 66
73 101 61
79 107 67
87 112 81
168 185 195
174 191 205
173 190 204
170 187 198
166 184 196
166 184 195
174 191 205
165 183 195
172 188 200
167 186 199
164 182 192
166 183 191
77 105 64
78 105 64
76 103 63
81 108 67
79 107 66
82 110 68
80 108 65
79 107 66
82 110 68
83 112 69
75 103 63
79 108 66
156 174 180
168 186 200
174 192 207
175 191 204
172 188 201
130 151 144
81 109 68
78 106 65
80 108 66
81 109 67
80 108 67
78 107 66
80 107 68
173 190 202
174 189 201
166 183 195
162 179 187
169 186 198
166 184 199
159 178 191
165 181 190
165 181 192
158 176 183
178 195 211
153 171 177
168 183 194
112 134 122
75 103 62
72 98 58
81 108 66
78 107 66
76 103 62
80 108 67
75 102 61
76 103 63
75 102 62
83 111 68
76 103 62
78 106 65
77 105 64
163 179 187
170 187 198
169 186 197
158 175 183
154 172 180
167 185 198
167 185 198
170 187 200
169 186 201
166 184 194
167 184 195
164 181 193
160 178 188
170 187 200
96 119 93
75 102 62
75 102 61
79 107 65
71 98 58
80 107 65
80 108 66
78 105 64
73 100 60
75 102 61
76 103 62
76 103 63
76 102 62
75 103 63
103 127 102
143 162 164
106 129 113
80 108 66
73 99 60
78 105 62
75 102 62
79 106 64
79 106 65
77 104 63
74 101 61
77 105 64
80 107 65
78 106 65
75 102 62
119 142 131
168 185 197
160 177 187
166 183 193
162 179 189
153 171 179
166 182 193
159 175 183
168 185 198
163 180 190
169 185 195
161 179 188
167 183 192
173 190 202
160 179 190
128 147 145
77 105 64
78 105 64
81 109 67
77 105 63
76 103 62
77 103 62
76 103 62
74 101 61
79 107 66
77 104 63
75 102 60
80 108 66
75 102 62
77 105 64
92 116 90
163 180 189
168 185 196
160 176 185
167 184 197
154 171 177
157 176 186
168 186 199
156 174 184
172 189 204
172 188 201
163 180 189
164 180 191
172 188 200
171 187 201
156 174 182
70 95 57
71 98 58
74 100 60
75 102 62
74 101 60
74 101 61
74 101 60
78 105 64
77 104 63
75 101 60
72 98 59
72 98 59
76 103 62
74 101 61
73 99 60
163 179 186
160 175 182
163 180 189
172 189 203
161 178 187
170 187 199
176 193 207
162 179 191
161 177 186
166 183 192
163 180 192
157 174 183
163 179 189
159 176 185
161 178 189
160 177 187
79 106 65
73 99 59
75 102 61
79 106 65
76 104 63
74 101 61
74 101 61
73 100 60
77 104 63
75 102 62
75 102 61
75 101 61
78 106 64
77 105 64
77 105 64
170 186 199
159 175 186
167 185 198
156 174 184
172 188 201
159 175 184
159 176 185
159 175 184
160 176 186
166 183 195
173 190 204
159 176 185
159 177 188
167 184 194
161 178 187
152 170 178
74 101 61
76 103 63
76 102 63
75 102 62
78 105 64
81 108 67
77 105 64
77 104 63
78 105 64
78 106 64
77 104 63
78 104 64
78 106 65
76 103 63
76 103 63
163 180 189
161 178 187
164 180 190
163 180 191
163 179 188
169 186 197
160 176 184
160 177 183
164 182 195
162 179 188
150 166 172
168 185 196
165 182 194
161 179 190
154 172 179
143 162 163
75 101 61
75 102 62
75 102 62
76 103 63
77 104 64
77 103 63
71 97 58
76 104 64
78 105 64
74 101 62
79 106 65
78 105 65
75 102 62
75 102 62
74 102 62
161 178 188
157 173 179
158 175 182
164 181 193
162 179 189
154 170 177
164 182 193
155 172 180
165 182 193
152 169 177
165 181 190
163 181 191
154 172 180
164 181 190
171 188 200
76 102 65
78 106 65
77 103 63
78 105 64
76 103 62
80 108 66
72 99 59
80 107 66
77 105 65
76 103 63
76 104 64
73 100 60
79 106 65
77 104 64
75 101 61
154 171 178
163 180 189
167 183 195
158 175 181
153 170 177
174 192 205
159 177 185
162 177 185
166 183 192
173 188 200
169 185 195
156 173 181
156 172 181
162 179 189
161 178 188
83 110 76
79 107 65
75 103 62
78 105 64
76 103 61
74 102 62
78 105 64
78 106 64
75 102 62
89 114 82
111 133 119
143 162 165
156 174 182
163 180 189
166 183 194
78 106 65
76 102 63
78 105 64
79 107 66
77 104 64
78 105 64
77 104 64
79 106 65
78 105 64
79 107 66
79 106 65
76 103 63
79 107 66
80 107 65
154 170 178
165 182 193
163 180 190
161 178 187
170 186 199
165 181 189
164 182 194
166 182 194
161 179 191
173 188 198
161 179 188
164 181 191
162 179 189
167 183 196
121 142 137
78 106 65
77 104 63
74 101 61
82 110 68
75 103 63
82 110 67
82 110 68
80 108 66
78 106 64
80 108 67
80 108 66
76 104 64
78 106 65
162 180 191
163 180 193
162 179 189
166 183 195
161 180 191
174 191 204
162 180 189
175 192 207
165 183 192
161 179 188
174 191 204
171 189 203
160 177 184
118 139 123
80 108 66
84 112 69
77 105 64
90 114 86
160 177 187
160 177 186
169 185 197
155 174 184
161 177 183
171 189 202
166 184 197
169 188 202
83 108 78
76 104 64
79 106 64
78 105 65
81 109 67
74 101 62
79 106 64
75 102 62
78 106 65
79 107 66
84 112 69
78 106 64
152 170 176
166 183 195
174 191 204
165 183 193
162 181 193
172 189 203
179 195 210
179 197 214
163 181 188
124 146 138
80 108 66
79 108 67
83 111 68
79 106 64
80 109 67
77 105 65
79 107 66
76 104 63
83 111 68
80 108 66
81 110 67
96 121 93
168 187 200
172 189 202
169 187 202
166 182 191
169 185 197
160 178 187
163 181 192
168 186 200
171 188 203
117 138 126
79 107 66
82 110 67
99 123 98
166 184 195
174 191 202
168 185 196
165 184 195
166 184 199
167 185 196
166 184 195
169 186 199
166 183 196
171 188 201
163 179 190
168 185 197
169 187 199
90 116 82
77 105 64
79 107 66
76 103 62
78 106 65
81 109 67
79 108 66
82 110 67
79 107 66
78 107 66
78 105 64
82 110 68
79 106 66
79 107 65
169 186 198
160 177 187
167 185 196
160 177 183
169 185 196
173 190 202
162 180 189
167 185 196
159 176 186
167 184 197
165 181 192
157 175 185
165 182 192
165 181 191
97 121 101
78 106 65
76 103 63
77 105 65
79 106 64
78 105 63
78 106 65
77 105 64
73 100 59
75 103 63
74 101 61
80 108 66
75 102 62
72 99 60
79 106 68
153 169 175
162 180 191
159 176 185
160 177 187
169 185 197
164 180 188
157 174 180
151 169 174
125 145 140
112 133 119
82 109 70
81 108 67
77 103 63
75 102 61
84 110 78
156 173 180
165 182 193
172 188 202
161 178 187
162 179 189
160 178 189
164 180 189
165 183 195
167 184 194
155 173 178
164 181 191
166 183 194
177 194 209
157 174 182
164 180 189
72 98 59
82 110 68
82 109 67
77 104 63
75 102 61
77 105 64
78 105 64
81 109 67
75 102 63
76 103 62
78 105 63
76 103 63
82 109 67
76 103 63
73 99 59
158 176 184
175 192 206
152 170 177
155 173 181
166 183 195
164 180 193
165 183 195
160 176 185
164 180 191
157 174 182
166 182 193
149 167 173
149 166 175
161 179 190
170 186 197
127 147 141
78 105 64
78 106 65
73 99 60
78 106 65
77 103 62
74 101 60
84 112 70
77 104 64
72 98 59
78 106 65
78 105 63
74 102 62
76 103 63
76 103 62
75 101 61
157 174 179
161 178 188
154 171 179
162 179 187
167 184 196
160 177 186
161 178 184
172 188 201
155 172 183
169 186 197
159 175 182
170 186 199
155 172 182
158 175 183
163 180 189
136 155 154
77 104 63
74 100 60
76 102 62
78 106 64
75 102 61
77 104 64
78 106 65
77 104 63
76 103 63
77 104 63
78 105 64
74 101 61
77 104 63
76 103 62
75 102 62
156 173 182
156 174 180
160 177 187
156 173 179
168 185 198
165 180 189
166 182 196
155 172 179
166 182 191
163 181 192
162 180 190
164 180 190
165 182 192
160 176 185
162 179 188
167 183 192
70 96 58
81 109 68
75 101 61
77 104 64
80 107 66
75 102 62
76 103 63
78 106 65
76 102 62
77 105 64
78 105 64
75 102 61
77 104 64
76 103 62
73 100 60
147 163 168
164 181 193
157 175 184
168 185 196
163 180 190
170 186 198
164 181 190
153 171 178
164 182 194
164 181 191
161 179 188
165 183 197
157 174 182
154 170 176
150 167 174
159 176 185
77 104 63
77 104 62
73 99 59
76 103 63
80 108 66
78 106 66
81 108 67
77 104 63
78 106 64
74 101 61
74 101 61
74 101 60
78 105 65
77 105 64
75 101 61
146 164 167
166 183 194
159 175 183
168 185 194
170 186 200
162 179 190
157 174 182
167 184 198
163 180 192
170 187 200
164 180 191
163 181 190
169 186 196
166 182 192
167 184 198
152 169 177
78 104 64
78 106 66
76 103 62
79 106 64
78 106 65
75 102 61
72 98 59
76 103 62
78 106 65
76 103 63
73 100 60
77 105 63
77 104 62
77 103 62
76 104 63
158 175 181
162 179 188
165 182 193
166 183 194
170 186 199
160 177 188
153 172 180
164 182 196
162 178 191
167 183 195
152 170 176
161 177 189
165 183 194
163 180 188
153 171 179
79 106 65
90 115 83
119 139 129
149 167 172
164 180 189
163 181 192
160 176 186
163 180 190
171 188 201
165 182 194
162 179 188
169 185 196
174 191 205
159 175 183
154 173 179
78 105 65
79 107 66
76 103 63
82 111 69
79 107 65
75 102 62
77 104 63
78 106 65
78 105 65
78 105 64
76 103 63
79 106 65
79 107 65
79 106 64
146 161 166
170 186 196
168 185 199
158 175 184
165 182 190
162 179 187
167 183 194
163 181 193
167 185 196
176 193 208
161 178 186
166 183 195
160 177 186
165 182 192
126 146 138
80 108 67
73 100 60
80 109 68
78 106 65
77 105 64
78 106 66
76 103 63
79 107 65
81 110 68
78 105 64
82 110 68
79 107 65
75 102 61
154 173 180
171 187 198
167 184 193
154 172 179
171 189 204
167 184 197
172 189 204
161 179 188
168 184 196
158 176 187
162 179 188
171 189 201
173 190 206
137 154 151
144 162 166
171 188 199
166 184 199
174 191 204
173 190 201
160 177 187
175 192 205
166 183 193
167 184 199
170 187 201
171 187 200
163 181 194
130 150 146
78 106 66
80 107 66
81 109 67
81 109 68
79 108 67
85 113 70
81 109 67
79 106 66
75 103 63
80 109 68
77 104 63
98 122 100
166 184 195
170 186 197
170 188 200
176 193 208
171 190 206
171 188 201
88 115 81
78 106 64
81 110 68
83 112 70
81 109 67
79 108 67
80 108 66
79 107 65
83 111 68
83 112 69
79 107 65
79 107 66
133 153 153
159 176 185
183 200 218
175 192 204
170 187 199
167 184 196
171 189 203
159 177 187
173 190 205
170 187 199
162 179 191
163 180 191
170 188 201
139 159 156
124 144 135
170 187 199
173 191 207
168 184 195
168 186 199
167 183 191
168 185 197
168 186 199
169 187 198
163 181 194
159 177 186
167 184 197
149 168 173
82 109 70
76 103 63
82 111 68
81 109 68
77 104 62
75 102 61
75 102 62
81 110 67
78 106 65
78 106 65
81 109 68
79 107 66
78 106 65
83 110 71
167 186 200
160 177 186
169 186 198
163 181 194
170 188 202
167 184 194
161 178 186
160 178 190
169 185 198
170 186 197
162 178 186
166 184 196
165 183 194
160 178 189
101 124 106
78 105 64
75 102 62
79 106 65
78 106 64
77 105 64
79 106 64
72 99 60
78 105 64
78 105 65
79 107 67
78 106 65
77 105 64
78 106 65
78 106 64
167 183 194
163 181 193
161 178 186
170 187 199
168 184 196
164 180 186
157 174 182
163 181 194
164 182 192
165 183 195
164 181 190
164 182 191
161 177 183
171 188 199
158 174 181
81 107 71
116 139 126
129 148 141
150 168 175
159 176 185
162 179 186
164 181 192
174 191 205
164 181 192
169 186 199
173 189 202
159 176 185
159 177 186
160 177 187
163 180 189
87 113 78
74 101 61
76 103 62
79 107 66
73 99 59
76 103 62
79 106 64
75 102 61
73 99 59
78 105 63
72 99 59
82 109 67
75 102 62
77 104 63
80 108 67
120 141 130
160 176 187
161 179 191
168 185 195
160 179 189
157 174 181
168 184 196
159 177 186
162 180 190
161 178 187
165 182 194
161 178 191
165 183 192
162 178 187
161 178 188
159 176 185
79 106 65
78 105 64
77 104 63
79 107 65
74 100 60
79 106 65
76 103 62
73 99 60
71 98 58
76 103 63
77 104 64
74 100 61
76 103 63
76 102 63
79 106 65
103 126 105
157 174 180
161 178 188
165 181 191
166 182 194
159 176 183
157 175 185
170 187 200
169 186 199
170 187 199
154 173 181
166 182 195
162 180 191
167 183 194
162 179 189
157 174 182
104 127 109
78 105 64
80 107 66
79 105 64
79 107 66
78 106 66
75 103 62
74 101 60
76 103 62
75 102 62
78 105 64
76 103 63
74 100 59
74 100 60
78 106 65
78 105 63
166 184 196
169 186 200
153 171 179
151 168 173
153 170 178
158 175 182
160 176 186
164 179 189
166 184 196
162 180 188
155 173 181
165 181 191
157 174 183
159 177 185
166 182 192
162 179 187
74 100 61
78 105 64
77 104 64
77 103 62
80 108 67
75 101 61
76 103 62
75 103 63
74 100 60
79 106 66
77 104 64
74 101 61
75 102 61
75 101 61
70 96 57
128 149 141
165 182 192
154 172 180
166 182 194
159 175 181
160 177 186
159 176 184
161 178 189
163 181 191
162 180 189
164 182 191
163 180 190
162 179 187
166 183 193
156 173 180
149 166 172
82 108 76
81 109 66
74 101 60
75 102 61
75 102 61
73 99 60
77 104 63
77 104 64
72 98 59
75 103 63
80 108 66
80 109 67
77 103 63
77 104 63
78 106 65
74 100 60
155 173 181
161 178 188
168 183 192
167 184 194
154 172 180
170 185 197
164 180 189
162 180 192
158 175 185
171 187 199
162 178 187
171 187 200
163 181 192
162 179 191
163 180 191
95 118 97
71 97 58
79 106 64
72 99 60
74 100 60
82 109 67
78 106 64
74 100 60
81 109 67
76 103 63
80 107 66
74 100 61
76 103 63
78 105 63
78 104 63
111 131 119
159 177 187
168 184 194
168 186 199
164 180 188
158 176 184
164 181 191
157 174 181
167 184 195
149 167 172
130 150 146
94 116 96
76 104 63
79 106 66
75 102 62
80 106 76
172 188 201
166 183 195
161 180 188
178 194 210
167 184 195
158 175 183
161 180 191
162 179 189
166 183 191
167 183 193
163 179 187
163 180 190
161 179 191
163 180 189
154 172 175
77 105 64
75 102 61
73 99 59
78 106 65
81 109 67
76 103 63
76 102 62
79 106 66
76 103 62
76 104 63
75 101 61
81 110 68
76 103 63
77 104 63
148 166 166
168 185 197
162 180 191
166 184 195
160 178 184
165 182 192
159 175 185
170 188 202
162 178 189
169 187 201
166 184 196
160 178 187
174 192 207
168 185 197
147 165 169
77 105 64
83 112 70
81 109 68
79 107 66
76 104 63
78 106 65
80 109 67
79 107 65
74 102 62
80 108 67
78 106 65
81 109 68
80 109 67
125 146 140
164 181 193
166 183 194
178 195 211
171 188 202
167 184 194
165 183 192
170 187 199
160 178 189
146 165 169
102 126 104
75 103 62
78 107 66
77 103 65
166 184 194
174 191 204
163 180 191
172 189 201
169 187 199
169 185 196
167 185 195
157 175 183
174 191 205
176 192 207
159 178 190
163 181 193
167 183 194
77 104 63
79 107 66
75 102 61
81 110 68
80 108 66
78 106 65
79 107 65
77 104 63
78 106 65
82 110 68
78 106 65
77 105 65
164 182 194
166 184 196
163 181 194
149 168 171
83 112 69
80 108 66
81 109 67
83 111 69
81 110 69
82 111 69
80 108 66
76 104 64
79 107 65
83 112 69
78 107 65
79 107 65
164 182 192
167 185 196
170 188 202
178 197 215
165 182 191
178 193 206
163 181 193
175 193 207
168 185 196
181 198 216
168 185 194
163 180 188
172 189 201
98 122 95
73 100 61
79 107 65
79 107 66
81 109 67
115 137 123
160 178 188
174 191 202
165 183 196
171 188 202
172 191 207
170 186 199
172 190 205
161 179 191
81 109 67
76 104 63
77 104 63
80 108 67
78 106 64
79 107 66
80 109 68
79 107 65
78 106 65
78 105 64
80 107 65
80 109 67
75 103 62
85 112 79
167 184 196
169 186 197
161 180 190
173 190 204
164 182 193
159 176 184
162 180 191
162 180 192
172 189 201
169 187 199
162 180 190
170 186 196
170 188 201
173 190 205
107 130 111
78 106 64
73 99 60
82 110 67
79 107 66
77 104 64
75 102 62
79 107 66
75 102 62
76 103 62
78 106 63
80 108 66
76 104 63
76 102 61
78 105 64
169 186 197
169 185 198
172 188 201
162 179 191
171 188 198
161 178 186
162 179 190
163 180 190
154 173 182
163 179 187
161 177 186
167 184 193
159 176 184
164 182 194
168 185 198
78 105 67
77 105 64
75 102 62
79 106 65
78 105 64
79 107 66
82 110 68
71 98 59
75 102 62
76 102 62
104 126 106
119 140 131
146 163 165
161 180 189
176 193 209
134 152 149
74 101 61
80 108 66
75 102 62
73 99 60
78 105 64
78 106 64
74 101 61
78 105 65
81 109 67
79 106 65
79 106 65
77 105 64
77 103 62
74 100 60
77 105 64
167 183 193
161 179 189
152 169 174
166 184 193
166 183 195
169 187 201
159 176 188
166 184 198
160 178 189
162 180 190
156 174 181
166 183 193
170 187 199
164 180 187
168 185 196
149 167 173
79 107 66
72 99 58
73 100 60
74 101 61
76 102 61
79 107 66
76 103 63
72 100 60
76 103 63
74 101 60
74 101 60
74 100 60
76 102 62
78 106 65
74 101 60
140 158 158
171 187 198
162 180 191
163 178 188
155 172 181
163 178 189
159 176 185
156 173 180
152 170 176
164 181 190
163 180 191
158 176 186
156 173 182
165 182 192
164 180 190
162 179 188
75 102 61
75 102 62
73 99 60
75 102 62
71 98 58
77 105 64
80 108 66
77 104 63
78 105 64
77 105 64
75 102 61
83 111 68
78 106 65
76 104 63
74 100 60
76 103 62
164 181 191
156 172 180
165 183 194
163 179 189
156 173 180
171 188 202
156 173 180
158 175 186
162 179 189
162 179 189
164 180 193
158 175 182
155 172 180
174 191 205
167 182 193
162 180 189
76 103 63
78 106 65
77 104 63
75 103 63
73 99 59
72 98 59
78 105 63
76 103 62
79 107 66
76 103 64
76 103 62
77 104 64
80 108 66
79 107 65
76 104 63
78 104 67
162 179 190
159 176 185
162 179 189
163 180 191
161 179 190
157 174 184
166 183 194
160 179 188
158 177 185
167 183 193
151 168 173
162 179 191
162 180 190
171 187 198
165 181 191
124 144 138
78 104 63
78 106 65
79 106 65
79 107 66
75 101 61
77 104 63
78 105 64
76 104 63
70 96 58
81 108 66
75 102 61
80 107 65
76 103 63
80 108 67
78 106 65
151 169 173
172 189 204
173 190 203
167 183 195
163 180 190
165 182 193
161 179 189
165 182 193
161 177 188
160 178 189
161 179 189
151 168 174
157 174 181
166 182 192
163 180 189
171 189 204
77 104 63
77 104 63
77 104 63
72 98 58
77 103 63
76 103 62
78 106 64
76 104 63
80 108 65
74 100 60
77 104 63
73 100 60
75 101 61
82 109 70
93 118 91
140 159 163
126 146 142
102 126 103
77 105 65
77 104 64
80 108 66
80 108 67
77 104 64
76 103 62
81 109 67
75 101 61
78 106 65
75 102 62
80 108 66
79 107 66
112 134 117
168 186 197
172 190 205
169 187 202
160 178 188
163 181 193
155 171 176
160 177 187
170 187 198
162 180 189
152 169 176
169 186 200
166 183 193
163 182 192
168 184 195
143 163 163
75 102 62
76 104 63
79 106 65
78 105 65
76 103 63
78 106 66
81 109 67
79 107 65
78 107 66
75 102 62
80 107 66
77 105 63
80 108 67
77 104 64
139 156 158
176 193 207
160 178 185
167 185 199
171 189 205
170 187 199
168 185 196
170 186 196
160 178 185
162 179 189
167 184 196
162 179 187
158 177 184
169 188 201
150 167 171
76 103 62
80 108 67
76 103 63
84 112 69
73 100 59
77 105 64
76 103 63
78 105 65
75 103 63
82 111 69
78 105 64
76 103 63
78 106 65
105 128 110
164 181 189
166 184 197
161 179 188
163 180 190
147 165 169
84 110 75
80 107 66
72 99 60
75 102 63
80 108 67
79 107 65
79 107 66
80 107 66
151 170 178
171 188 201
162 180 189
167 185 197
175 192 206
167 184 193
168 185 197
170 188 201
167 185 197
172 189 202
165 183 196
171 188 202
168 186 198
97 123 96
80 108 66
75 103 62
79 107 66
81 109 67
83 111 69
81 110 68
84 114 71
80 109 68
81 109 66
79 107 67
82 110 68
169 187 198
104 129 103
80 108 67
79 107 66
77 106 65
80 109 67
82 110 69
82 111 68
82 110 68
78 106 65
79 107 65
78 106 65
83 112 69
101 124 102
169 187 200
168 184 194
168 187 198
170 188 201
163 181 192
173 190 204
166 184 195
178 195 211
162 181 192
174 191 206
164 182 193
164 182 192
172 189 203
82 111 69
75 103 63
82 110 68
80 109 67
78 106 66
79 107 66
81 109 68
76 104 62
78 106 65
92 117 87
143 162 165
167 185 198
174 191 203
147 165 167
79 108 65
78 105 64
79 106 64
76 104 63
80 107 65
83 111 69
78 106 64
76 104 62
77 104 63
77 104 64
81 109 67
74 101 61
79 107 65
79 106 65
167 185 198
170 187 200
166 184 197
173 189 202
163 180 190
165 182 192
164 182 192
162 179 188
174 191 207
171 188 201
173 190 205
170 187 200
160 178 188
166 183 193
121 142 135
81 110 68
78 105 64
77 105 65
75 102 61
77 105 63
82 110 68
78 105 64
77 104 62
76 103 62
78 106 65
79 107 66
79 106 65
72 99 60
80 109 68
158 176 183
166 185 197
163 181 190
162 180 190
162 178 188
164 180 191
167 184 195
168 185 199
160 178 189
166 183 193
161 177 186
163 181 191
162 179 190
170 188 202
165 182 194
123 143 135
74 101 61
76 104 63
75 102 62
81 109 67
78 105 63
79 106 64
76 103 62
80 108 67
80 108 66
76 103 62
80 107 65
77 105 64
78 106 65
76 102 62
78 105 65
161 180 191
167 184 196
155 170 177
162 179 189
158 175 182
143 162 164
122 142 132
106 128 112
100 124 98
78 106 65
75 102 62
75 101 61
74 100 61
77 104 64
76 103 62
132 152 147
168 186 196
166 183 194
159 176 183
164 182 192
154 172 181
157 175 185
167 184 197
169 187 199
163 180 190
157 174 183
158 175 183
163 181 190
167 184 195
164 180 189
161 178 192
79 105 67
70 95 57
76 103 62
74 101 61
78 105 64
76 103 62
79 107 65
76 102 61
77 104 63
73 99 60
78 105 65
84 112 70
76 103 62
78 105 64
72 98 59
75 101 61
163 179 189
160 178 186
165 182 193
162 179 190
163 180 190
172 188 201
160 176 185
155 173 181
163 181 191
164 181 192
167 186 197
161 178 187
165 182 193
154 171 178
157 174 182
166 181 189
78 106 65
77 104 64
79 106 65
76 103 63
75 102 62
79 106 64
75 102 62
77 104 63
78 105 64
74 100 60
79 106 65
77 104 63
83 111 69
83 112 69
77 105 63
75 102 62
158 175 183
165 181 189
161 177 185
162 180 192
164 180 190
152 170 177
166 182 190
168 186 196
171 188 202
164 182 192
160 178 188
165 183 195
162 179 188
160 177 186
155 173 180
166 182 192
74 101 61
78 106 65
78 105 64
73 100 60
81 109 67
83 111 69
77 104 64
80 107 66
79 107 66
75 102 62
77 104 63
76 103 62
73 99 59
76 103 63
74 101 61
81 108 66
157 175 183
158 174 183
170 186 198
166 185 200
161 176 185
167 184 196
171 187 200
167 184 196
163 181 190
159 177 185
158 176 186
165 182 193
172 189 202
170 188 200
149 166 169
164 182 194
77 105 64
81 109 67
78 106 64
77 104 63
76 103 62
81 109 67
80 107 65
80 108 67
75 102 62
81 109 68
75 102 62
76 103 62
77 104 63
77 105 64
77 105 65
85 109 79
155 172 179
166 182 192
159 175 185
167 183 194
155 172 180
160 177 186
163 180 189
164 180 191
171 189 203
154 171 176
170 188 201
161 178 189
156 174 181
165 181 189
162 180 191
117 138 129
83 111 69
76 103 63
84 110 76
110 130 115
118 138 131
133 152 150
148 167 173
165 181 194
165 181 191
167 184 192
157 174 188
167 182 194
150 167 170
166 183 195
172 188 200
79 106 64
76 102 61
81 108 67
76 104 63
81 109 67
75 102 62
80 107 65
76 103 63
80 108 66
80 108 65
77 105 64
79 107 65
75 102 61
77 104 64
76 103 62
141 160 162
161 178 186
169 187 200
158 176 188
173 189 201
166 182 195
160 177 187
174 192 207
166 183 193
160 177 188
169 186 199
155 173 182
168 184 194
168 185 195
165 181 191
127 147 141
78 106 64
75 102 62
80 108 67
79 106 65
80 108 65
78 106 65
79 107 66
75 102 62
79 107 66
79 106 66
76 103 64
77 104 64
81 109 67
78 106 65
149 167 171
170 187 199
177 194 209
154 171 177
175 193 206
175 192 206
167 185 198
169 187 202
167 184 198
165 184 198
165 183 196
164 182 194
172 189 204
167 183 196
160 177 184
79 108 67
80 109 67
79 107 66
83 111 69
77 105 65
78 105 64
82 111 69
81 109 68
78 106 65
78 106 65
76 103 62
74 101 61
82 110 68
96 121 95
129 150 144
80 108 66
77 104 64
79 108 67
76 103 63
80 108 65
82 111 69
80 108 67
80 107 65
71 98 57
79 107 65
81 109 67
76 104 64
131 150 146
174 192 206
168 185 196
161 178 188
167 186 197
168 186 198
165 182 191
162 180 191
178 195 210
177 195 211
175 192 209
166 183 195
169 187 201
129 150 145
77 105 64
79 107 66
79 106 66
80 109 68
81 110 68
77 105 64
81 109 68
80 108 67
83 112 70
78 106 65
81 109 68
84 113 70
80 108 66
80 108 67
81 110 68
82 110 68
81 109 67
78 106 65
81 109 67
83 111 69
80 108 66
82 111 69
130 151 144
167 184 198
169 185 197
171 189 203
175 192 208
174 191 204
164 181 192
170 187 198
166 183 193
172 189 202
164 182 190
170 188 200
158 176 185
159 178 186
78 107 66
79 107 65
80 108 67
81 109 67
79 107 65
80 108 67
81 110 68
79 107 65
82 110 68
81 109 67
80 107 65
81 109 68
79 107 66
133 153 148
155 172 175
100 124 98
76 103 62
80 108 67
81 110 68
79 108 66
78 106 65
76 104 64
80 108 66
79 107 65
81 108 66
82 110 68
80 107 65
91 117 84
168 186 198
170 187 198
168 184 194
169 187 201
167 184 195
158 174 184
165 183 195
173 190 204
166 182 192
165 182 190
172 189 202
168 185 198
169 186 198
164 181 194
124 145 137
78 105 64
78 105 64
77 104 63
78 105 64
78 105 64
77 105 64
78 107 66
77 105 65
83 111 68
77 106 65
81 109 67
78 106 64
80 108 66
80 108 67
131 151 148
162 179 192
156 175 183
167 184 197
165 183 194
161 178 189
159 176 185
168 184 193
165 183 194
164 182 191
162 179 189
154 172 178
157 175 185
164 181 190
167 184 194
157 175 183
75 101 61
80 108 67
79 107 65
80 108 66
79 107 66
78 105 64
74 100 61
77 104 62
73 100 61
78 106 66
72 99 59
79 106 63
78 104 63
77 105 65
77 103 63
171 189 202
169 186 198
162 179 189
163 178 188
159 175 183
158 174 181
167 184 196
161 178 188
169 185 199
167 185 198
163 180 192
163 181 192
158 175 182
171 187 200
159 176 185
165 181 190
87 112 81
105 125 109
127 147 142
149 167 171
140 158 158
156 173 181
164 181 192
160 177 186
163 181 192
173 191 206
153 171 178
164 181 190
169 186 201
153 171 179
167 184 196
163 180 191
74 101 61
76 103 63
78 105 65
78 105 64
78 105 64
76 102 61
80 107 66
80 107 65
76 103 62
81 108 67
80 107 66
75 102 61
75 102 61
74 101 61
77 104 63
80 108 66
165 182 192
158 176 187
168 186 199
162 179 187
157 175 182
160 177 186
169 185 196
156 174 185
161 176 185
164 181 191
171 186 198
168 185 199
159 177 186
164 182 193
156 173 180
170 187 200
77 104 63
76 103 62
77 104 64
77 104 63
80 108 66
79 106 65
79 107 65
77 104 63
78 105 63
77 104 64
75 102 62
76 102 62
77 105 64
81 108 66
78 106 65
80 108 65
167 185 195
157 175 182
159 176 186
154 171 178
170 186 200
166 183 195
160 177 185
166 183 191
152 169 175
167 184 197
157 174 182
167 184 195
161 178 190
150 168 173
159 176 183
162 179 187
80 108 66
74 100 60
77 104 64
75 101 60
79 107 65
74 100 61
79 106 65
79 106 64
77 104 64
78 105 64
77 104 64
76 103 62
78 106 66
76 103 62
77 104 63
81 108 66
164 181 192
162 181 192
160 176 187
164 180 189
164 181 190
166 184 199
164 181 189
161 178 188
155 172 181
160 177 187
163 179 190
160 177 185
164 180 188
166 182 192
156 174 184
165 181 190
80 106 70
79 106 65
75 102 61
76 103 63
81 109 68
76 103 62
77 105 64
73 100 60
78 106 65
82 110 68
79 106 65
78 105 64
74 101 61
76 102 62
78 106 64
74 101 61
166 184 194
158 174 181
172 188 201
161 178 185
165 182 192
166 182 194
169 186 200
152 169 173
147 166 171
118 139 130
117 137 130
109 131 112
82 105 76
78 106 66
74 100 60
76 103 63
161 178 188
155 171 179
162 179 189
171 187 199
166 183 192
167 184 196
165 183 195
169 184 194
170 186 197
167 184 196
178 196 211
147 165 166
164 181 190
164 182 193
163 180 189
155 173 182
77 105 64
79 107 65
75 102 61
76 102 62
81 108 66
77 104 63
77 104 63
79 108 66
78 105 63
76 103 63
77 104 63
79 106 65
78 106 65
81 109 66
76 103 62
167 184 196
168 185 197
158 176 186
170 187 200
158 176 186
161 178 186
171 187 200
170 188 204
164 181 194
161 177 186
171 187 200
165 182 196
167 185 199
169 186 196
160 178 188
107 128 114
73 100 60
76 103 62
74 101 61
78 105 64
75 103 63
78 106 64
77 104 63
79 106 65
81 109 68
80 109 67
79 106 65
78 106 64
81 108 67
78 106 65
148 167 172
168 186 197
161 179 191
172 188 201
163 178 188
159 177 189
168 185 197
163 181 191
166 182 190
164 181 189
167 184 194
166 184 195
176 194 208
176 194 210
163 180 190
83 111 68
78 107 66
74 101 60
76 103 62
79 106 65
75 102 62
81 109 67
77 105 64
77 104 64
120 142 137
166 183 194
171 189 203
168 185 199
169 186 200
81 108 69
80 108 66
78 106 65
80 107 66
77 104 64
79 107 66
80 108 66
77 105 64
81 110 69
84 113 70
77 105 65
80 107 66
77 104 63
107 129 112
174 192 205
173 191 205
164 182 195
168 185 197
171 189 204
165 183 194
164 182 191
165 181 191
166 184 197
173 190 203
175 193 208
169 187 200
153 170 176
75 102 62
80 108 66
80 107 65
80 109 67
78 106 66
82 111 69
78 106 65
79 107 65
80 108 66
82 111 68
82 110 68
81 109 66
80 108 67
84 113 71
82 110 68
81 109 67
79 107 66
78 106 66
79 107 66
83 112 69
159 177 183
163 181 192
168 186 198
167 184 195
173 191 204
166 184 196
176 193 207
175 192 206
165 183 195
176 192 205
172 189 200
178 194 209
172 190 202
136 156 156
80 109 68
82 110 68
80 108 66
78 106 64
78 106 65
79 107 66
80 108 66
78 107 65
80 108 67
76 104 63
79 107 66
80 108 67
80 108 67
144 164 168
166 184 198
172 189 201
159 177 186
160 176 182
168 185 195
134 155 150
85 111 78
80 108 66
83 112 69
80 108 66
80 108 66
80 108 66
80 108 66
97 123 92
169 186 199
169 186 200
169 186 198
171 187 199
166 184 196
161 181 192
167 185 198
164 181 192
168 187 202
167 185 197
159 177 189
168 185 196
153 170 175
166 183 196
122 143 136
80 108 66
76 104 63
81 110 68
75 103 63
76 104 62
78 106 66
81 108 66
77 104 64
81 109 68
79 107 66
75 102 61
79 107 66
73 99 60
77 105 64
113 134 123
163 180 191
168 185 197
172 187 201
161 178 186
168 185 195
173 189 202
173 190 204
170 186 197
160 178 189
167 184 196
161 178 188
167 185 194
176 193 211
168 185 197
162 180 191
75 103 61
78 105 64
79 107 66
75 101 61
74 100 60
77 104 63
75 102 62
78 106 65
77 105 64
74 100 60
77 105 65
76 103 63
73 100 61
75 102 62
77 105 64
117 137 127
164 181 190
168 185 197
169 185 196
172 189 201
165 182 191
169 186 199
165 180 190
166 184 195
171 186 196
169 187 201
171 189 203
173 191 202
166 184 197
164 181 190
176 192 206
115 136 125
75 101 62
78 105 64
74 100 60
76 103 62
79 107 66
74 101 61
78 104 63
74 101 60
80 108 65
78 105 64
80 107 65
79 106 65
74 101 60
89 115 85
96 120 95
148 165 167
134 153 147
120 140 128
102 126 106
101 124 105
81 106 78
80 108 67
77 104 64
75 101 61
78 106 65
77 104 63
79 107 65
73 99 59
78 105 64
80 107 65
80 108 65
129 148 142
166 182 192
163 182 194
159 175 184
166 183 195
152 170 178
169 185 195
172 188 200
171 189 202
165 182 192
167 183 193
161 177 183
149 165 171
172 190 204
162 179 189
166 185 198
168 184 194
68 94 55
78 105 64
78 105 65
78 105 65
79 107 65
79 107 65
78 106 65
74 100 60
78 106 65
74 100 60
77 104 64
76 103 63
79 106 65
77 104 62
77 105 63
76 104 64
168 184 196
164 181 191
164 181 192
165 183 194
162 178 186
162 180 190
167 184 193
167 184 197
148 165 171
161 178 185
159 176 185
173 189 204
155 172 181
155 173 180
171 187 198
164 181 192
77 105 65
79 106 65
75 102 62
78 105 65
74 101 61
73 100 60
73 100 60
72 98 59
74 101 61
76 104 63
75 101 62
78 105 64
78 105 64
82 110 68
79 106 65
74 101 61
137 155 153
158 176 186
168 185 197
154 172 180
167 185 196
167 184 195
165 181 192
170 187 201
165 181 189
172 190 205
161 177 186
173 189 202
162 179 189
152 169 173
171 187 200
165 181 192
134 153 151
79 106 65
77 105 63
77 104 64
79 107 66
82 110 67
76 103 62
75 102 62
87 112 81
99 122 101
111 132 118
127 146 137
129 149 145
152 170 173
151 169 175
170 187 199
149 166 170
74 101 61
73 100 59
81 109 67
79 106 65
78 106 65
76 103 63
73 100 61
75 102 62
75 102 61
76 103 63
77 104 64
74 101 61
79 106 65
73 100 60
75 101 62
111 133 120
161 178 187
173 189 203
157 173 183
159 177 186
159 176 185
166 183 194
161 178 186
161 178 188
155 174 179
169 187 199
164 182 191
151 170 179
167 186 198
163 180 191
153 170 176
111 132 115
78 106 66
80 108 65
75 102 62
80 108 66
79 107 65
74 102 62
76 104 64
78 105 64
78 106 65
78 105 64
79 107 65
78 105 64
77 105 64
78 106 65
78 106 65
167 185 198
168 186 199
159 177 189
162 180 191
159 177 187
168 184 195
161 178 187
160 178 187
169 187 200
161 178 185
159 177 186
163 181 190
163 181 191
178 194 209
161 179 187
95 120 92
81 109 67
76 103 62
75 101 61
79 107 66
80 108 66
81 109 67
78 106 64
79 107 66
78 105 64
77 104 63
81 108 67
79 108 67
76 103 62
77 104 63
162 179 189
162 179 191
171 188 203
151 169 173
175 191 205
164 181 191
172 188 201
160 177 188
165 182 192
164 183 196
169 186 198
167 183 194
171 187 201
166 184 194
160 177 185
78 106 64
80 108 67
80 108 66
79 107 64
118 139 127
153 171 179
165 181 189
176 194 209
165 183 194
163 181 194
161 179 188
155 173 182
174 190 203
169 186 200
98 122 96
77 104 63
77 105 64
78 106 64
77 105 64
77 105 64
81 109 68
79 107 66
79 106 64
77 104 63
79 108 67
80 109 67
79 107 66
84 112 75
165 182 193
169 187 199
163 181 192
168 186 201
170 188 201
160 177 184
170 187 199
171 187 199
172 189 203
171 188 202
171 189 201
175 192 208
179 195 208
89 115 83
79 108 67
83 111 69
83 112 70
78 106 64
81 110 68
80 109 68
79 107 66
81 110 68
79 108 66
79 107 65
78 106 65
81 109 67
82 111 68
80 108 66
79 107 65
84 113 70
85 112 80
184 201 219
166 186 199
164 181 191
176 193 207
170 188 202
165 182 192
168 186 199
174 191 205
182 199 218
176 194 211
172 188 200
164 181 194
163 181 193
108 130 116
76 104 63
75 102 63
78 106 64
78 105 63
81 109 67
77 105 64
80 109 67
80 108 66
77 104 64
78 105 64
78 106 65
79 107 66
77 105 64
161 180 189
164 181 191
161 179 188
176 193 207
171 188 201
170 187 199
172 190 204
165 181 188
160 178 187
171 187 201
167 185 199
151 171 175
100 125 96
80 108 66
107 130 112
164 183 193
167 184 196
169 187 200
170 188 199
161 180 190
164 182 193
167 186 199
157 175 181
158 175 183
161 177 185
163 181 191
155 173 182
163 182 193
171 188 199
134 152 145
80 108 66
79 107 66
76 102 61
78 106 65
75 102 62
79 106 64
80 108 67
78 105 63
80 108 66
78 106 65
81 109 67
81 109 67
82 110 69
77 104 63
86 110 81
164 182 193
174 190 203
174 190 204
167 185 195
175 190 201
164 182 193
165 183 194
169 186 198
162 179 188
164 181 193
162 180 190
168 186 197
170 186 197
156 175 185
172 189 201
77 104 69
75 102 61
77 104 62
79 107 66
76 104 63
72 99 59
75 102 61
76 104 63
78 107 66
75 102 62
75 102 62
77 103 62
78 105 65
78 106 65
79 107 66
79 106 64
163 180 190
162 179 186
177 193 206
163 181 191
160 178 190
170 186 197
160 177 186
169 186 198
168 185 197
164 180 189
157 175 183
166 183 196
175 191 204
159 176 181
173 190 202
173 191 205
74 101 61
79 107 66
77 104 63
80 108 67
80 107 66
78 106 65
77 103 62
80 108 66
78 105 63
79 107 66
81 108 66
76 103 63
78 105 64
75 102 62
76 103 62
79 107 66
168 185 197
169 184 197
165 184 197
157 176 186
161 178 189
168 186 198
162 180 187
170 187 198
175 192 205
164 181 190
160 177 187
166 183 192
165 181 192
164 182 194
168 184 196
158 175 182
89 115 82
89 112 86
108 130 112
119 140 131
122 141 133
121 142 135
124 145 137
141 158 158
140 157 159
154 172 181
159 177 182
151 169 171
159 177 189
167 183 192
167 184 197
162 178 186
142 161 162
78 105 65
77 105 64
75 102 62
75 101 62
74 101 61
79 106 64
78 105 65
77 104 63
74 101 61
80 109 68
73 99 60
75 102 61
77 104 63
78 105 64
79 106 65
74 101 61
174 191 204
168 185 196
159 178 188
166 181 190
163 181 191
168 184 194
160 177 186
162 180 191
166 182 192
158 176 185
168 184 196
156 173 181
165 181 191
164 181 191
160 177 188
163 180 190
80 107 65
75 103 61
78 105 65
78 105 65
73 100 60
78 105 63
77 104 63
82 111 68
80 108 66
75 102 62
79 107 66
77 105 65
78 106 64
80 108 67
75 102 61
77 105 65
124 144 134
159 176 185
155 171 176
155 171 178
138 156 156
138 158 157
125 144 139
117 138 128
108 129 114
123 144 131
104 125 109
100 122 102
87 110 87
76 103 62
78 105 63
79 105 64
77 105 65
160 176 182
161 179 188
168 184 197
165 183 194
171 188 200
164 181 193
166 182 195
167 183 193
168 184 194
166 183 194
164 181 190
158 176 184
169 186 196
159 177 188
174 190 204
157 175 184
76 103 63
70 96 57
74 101 61
78 106 65
78 106 65
78 105 63
75 103 63
80 108 65
77 104 63
80 108 67
74 102 61
76 103 62
77 105 64
70 96 56
76 104 63
79 106 65
161 179 189
166 184 194
156 175 185
161 179 189
161 178 187
161 179 190
169 185 195
158 176 185
168 185 196
176 192 207
163 180 192
170 186 198
166 184 196
157 175 184
160 177 189
165 182 193
76 103 63
77 104 64
75 103 62
82 111 69
76 103 63
77 105 64
74 101 61
82 110 68
78 106 65
78 105 64
78 106 65
80 108 66
79 106 66
77 105 65
79 107 65
90 114 82
170 187 197
166 185 199
164 181 193
167 184 196
160 178 188
174 191 206
166 184 197
177 193 207
170 188 201
161 178 187
162 179 191
162 179 188
173 189 202
168 185 196
163 179 186
80 108 69
76 103 62
79 107 66
79 107 66
74 101 61
78 106 65
80 108 67
78 105 65
77 104 63
79 106 64
76 103 63
82 110 68
76 103 63
79 107 65
79 107 65
151 170 178
169 187 199
168 184 196
166 183 192
172 190 203
169 186 202
170 188 201
165 182 192
161 179 190
164 181 191
168 186 196
167 184 194
160 177 185
169 185 197
151 171 175
164 182 194
174 192 206
165 183 194
166 183 195
165 183 193
169 187 200
163 180 190
169 187 200
174 192 205
170 188 201
169 187 200
170 187 199
168 185 199
172 189 201
116 138 124
75 102 62
78 106 65
79 107 65
79 107 66
83 111 69
83 111 68
73 100 59
82 110 68
82 111 69
79 107 65
81 109 68
77 105 65
83 111 69
167 184 195
175 192 205
167 185 199
175 191 206
160 178 184
173 190 202
169 187 200
181 198 214
172 188 199
160 178 187
168 187 201
167 185 197
172 189 203
119 141 132
83 112 70
80 109 67
80 108 66
80 108 66
79 107 65
82 110 68
140 160 161
81 110 68
81 109 66
78 106 64
81 110 69
81 110 68
79 106 64
83 111 68
119 141 129
174 192 205
170 189 204
173 190 202
170 186 196
161 180 193
175 193 207
172 189 201
170 187 199
169 187 198
169 187 198
167 184 196
173 191 205
171 188 202
80 108 69
76 103 63
81 110 68
83 113 71
70 97 57
82 111 68
85 114 72
78 106 65
78 105 64
79 107 65
74 101 60
81 109 66
79 106 65
77 105 64
170 187 199
171 189 203
169 186 198
166 184 196
169 186 196
170 187 199
168 184 194
171 188 202
164 183 194
163 179 188
176 192 207
171 188 202
173 190 205
172 188 201
139 159 158
75 102 62
107 131 110
145 163 164
176 193 210
161 179 186
171 189 203
173 189 201
162 179 188
161 179 184
170 188 201
166 183 194
171 188 200
171 188 201
162 179 190
138 157 157
81 110 68
77 104 63
80 108 67
76 104 63
81 109 67
76 104 64
78 106 65
77 104 64
80 108 67
76 103 62
78 106 66
79 106 65
81 109 67
77 104 64
78 105 68
169 186 195
169 184 195
171 188 200
178 194 207
164 181 190
164 182 196
166 183 194
160 178 187
166 185 199
164 181 191
163 180 192
170 187 200
169 186 195
167 183 194
174 190 202
119 139 128
81 109 67
79 106 65
80 108 66
77 106 65
76 104 63
78 106 65
81 110 68
79 107 66
80 108 66
80 108 67
75 102 61
78 106 64
79 106 64
79 107 66
76 103 62
161 179 187
162 181 193
157 175 184
167 184 196
166 183 194
163 181 192
167 184 199
160 177 186
163 179 188
161 177 186
165 182 192
159 177 187
164 181 194
170 187 202
164 180 190
162 179 187
102 126 103
76 103 63
79 106 65
77 105 64
67 93 55
79 106 65
76 102 62
78 105 64
79 107 66
80 108 67
79 106 65
76 103 63
72 98 59
81 110 68
77 104 63
78 106 65
113 136 119
164 181 191
163 180 189
155 173 180
168 185 198
165 181 190
159 176 186
171 188 202
168 185 195
170 187 200
155 173 181
161 178 186
163 180 189
160 178 188
159 176 187
162 180 191
162 180 191
75 102 61
75 101 61
70 97 58
79 107 65
76 103 63
71 98 59
82 111 69
78 105 64
76 104 64
78 105 65
83 112 69
78 107 66
76 103 62
81 108 66
76 103 63
77 105 64
155 172 177
167 183 193
171 188 202
156 174 184
166 183 192
172 189 203
170 187 199
169 184 197
174 192 205
163 180 192
173 189 199
163 180 188
160 177 187
165 182 193
159 177 186
158 174 180
158 176 184
76 103 63
78 105 65
80 108 67
81 109 68
72 98 59
74 101 60
80 108 67
80 107 65
78 106 65
76 103 63
79 107 66
77 104 64
77 104 64
76 103 63
78 105 64
82 110 68
164 182 192
160 178 189
165 182 193
166 182 194
171 189 202
166 184 196
162 181 191
161 180 189
152 170 177
162 180 193
158 175 184
172 188 197
169 185 196
162 180 189
167 185 197
170 186 199
162 179 189
73 100 60
75 101 60
78 106 65
80 108 67
81 109 67
76 103 63
79 106 64
71 98 58
74 101 61
80 107 65
79 107 66
79 107 66
76 102 62
79 107 66
76 104 62
76 103 63
163 181 189
172 188 200
158 174 179
156 174 181
162 179 188
176 191 202
167 184 196
173 190 202
160 177 188
163 179 189
166 183 194
159 178 188
162 180 190
167 184 194
167 184 196
160 176 183
121 142 133
78 105 65
77 105 63
79 106 65
76 103 63
79 107 65
77 105 63
79 107 65
80 108 67
78 106 65
79 106 64
76 102 62
73 99 60
75 102 62
78 106 65
74 101 61
101 123 103
154 172 181
166 183 193
158 175 185
173 190 203
166 184 194
171 187 199
162 179 187
167 184 193
167 185 198
168 186 198
156 173 181
175 192 207
161 178 186
166 184 198
174 191 204
153 171 178
78 105 65
77 105 64
77 104 63
77 104 64
77 104 63
71 98 59
73 100 61
77 105 64
72 98 59
76 104 63
80 107 66
77 104 63
81 109 68
74 102 62
77 104 63
134 153 148
164 181 191
157 175 184
172 189 202
167 185 197
163 180 191
166 183 194
166 183 196
170 186 198
165 182 192
159 176 188
165 182 195
169 187 198
166 183 193
167 184 192
165 182 192
81 109 67
76 103 62
77 104 63
80 108 67
79 107 65
73 100 60
79 107 66
75 102 62
81 109 67
80 108 67
80 108 66
76 104 63
73 100 61
79 108 66
79 107 65
158 176 181
164 182 190
166 184 199
166 184 196
168 185 196
168 186 197
164 181 194
163 180 188
149 166 166
134 154 149
87 113 80
79 107 65
81 110 68
77 105 64
81 110 69
159 176 183
175 194 211
164 182 195
165 183 194
168 186 198
170 188 200
167 186 198
172 189 202
167 185 198
171 188 201
171 187 198
171 188 200
164 183 194
166 184 196
144 163 165
81 109 67
76 104 63
78 106 64
85 114 71
80 108 66
79 107 66
77 105 64
84 113 70
79 107 65
79 107 66
82 111 70
82 111 68
79 107 65
142 162 162
168 186 198
166 184 194
176 193 208
169 187 199
168 186 198
171 187 201
172 189 202
172 188 202
174 190 204
177 195 211
158 175 181
165 183 196
161 180 191
79 108 66
81 110 68
80 108 67
78 106 65
95 120 90
169 187 199
172 190 205
154 173 180
82 110 68
82 111 69
79 107 66
83 112 69
153 171 175
178 195 211
171 189 204
168 185 199
162 180 188
178 195 211
167 186 200
173 190 202
164 183 196
172 190 203
166 182 193
177 195 213
173 192 207
165 184 197
79 107 65
81 109 67
80 108 67
78 106 64
77 105 63
80 108 67
81 109 68
82 110 68
80 109 67
79 107 66
83 111 68
80 108 66
78 106 65
79 105 67
167 185 198
174 190 202
175 192 206
172 189 203
169 188 204
167 185 197
170 188 202
177 194 209
170 187 201
168 186 197
175 191 203
167 185 196
160 179 188
170 187 200
144 162 163
83 111 69
85 113 70
82 110 67
80 108 65
81 109 66
81 109 67
80 108 67
117 138 128
156 175 180
165 181 190
157 174 181
169 187 201
168 184 195
172 189 202
146 166 169
75 102 62
81 109 68
80 108 66
82 110 67
81 109 67
78 106 65
75 102 61
81 109 67
79 106 64
75 101 61
75 103 62
81 109 67
82 110 68
81 110 68
80 108 66
171 188 200
170 188 200
165 182 194
179 196 211
161 178 190
169 186 197
170 187 198
166 183 195
168 184 192
160 178 188
164 181 191
164 181 193
162 180 188
164 180 189
170 186 198
158 176 182
70 97 58
78 106 64
80 108 67
77 104 64
74 101 61
73 99 59
77 104 63
78 105 64
77 104 63
78 106 65
77 105 65
81 108 66
77 105 63
76 103 63
80 109 67
103 126 104
163 181 193
176 193 209
164 182 192
168 184 195
175 192 204
169 186 200
167 185 198
164 181 194
163 180 187
168 185 197
172 189 200
169 186 198
161 179 188
162 178 187
162 179 188
166 183 195
83 111 69
78 105 64
77 105 64
83 112 69
74 101 61
76 104 63
75 102 62
79 107 66
81 109 67
78 106 65
81 109 67
78 105 64
78 106 64
80 108 66
76 104 62
81 108 67
159 176 188
166 182 194
166 183 195
171 187 197
161 179 189
172 187 200
164 181 193
158 175 183
166 183 196
164 182 197
171 188 201
179 196 212
162 179 188
166 184 195
162 180 191
165 182 192
149 168 171
73 101 61
74 102 61
74 101 61
79 107 66
79 107 65
76 103 63
75 101 61
77 104 64
76 103 61
80 107 65
77 105 64
79 107 65
79 106 65
79 107 66
75 102 62
77 105 64
164 183 195
171 188 201
166 183 194
166 184 198
168 184 196
169 188 203
158 175 184
169 186 197
174 190 203
164 182 192
166 182 193
166 183 193
170 186 196
160 178 187
165 181 191
161 179 190
169 186 200
79 106 65
77 105 64
78 105 65
71 97 57
79 108 66
82 110 68
78 105 64
78 105 64
80 107 66
78 106 65
77 104 64
79 106 65
76 104 62
77 104 63
82 110 68
78 105 64
152 170 175
156 172 180
160 177 186
173 189 203
162 180 192
169 187 199
165 183 193
163 180 189
162 179 189
163 180 191
162 179 188
158 176 185
168 185 196
160 177 185
169 186 197
162 179 190
167 183 194
78 105 63
73 99 59
77 105 64
78 105 64
77 105 64
81 109 67
78 106 65
78 105 63
78 106 65
76 103 62
85 113 71
78 106 65
77 104 64
74 101 61
76 103 63
77 104 63
132 150 149
166 182 192
154 172 182
158 175 184
165 182 192
165 181 191
165 181 190
161 178 187
166 184 196
161 178 188
163 180 190
166 184 195
168 184 194
151 168 172
161 177 187
170 187 200
163 181 192
79 107 65
77 104 62
79 107 65
79 106 64
79 107 66
76 103 62
79 107 65
74 101 61
78 105 64
77 105 64
78 106 65
84 113 70
78 105 64
74 101 61
81 109 67
81 109 67
164 180 190
174 191 206
154 171 175
170 186 198
170 187 201
169 186 198
168 187 199
163 180 191
168 185 197
169 185 197
176 192 208
169 187 201
160 177 185
163 181 193
164 182 192
165 182 193
109 132 111
82 111 68
76 104 63
80 108 66
78 106 65
74 101 61
80 107 66
76 103 63
75 102 61
80 107 65
73 99 60
79 107 66
77 104 63
79 106 65
79 107 65
75 101 61
156 174 184
165 183 195
164 182 191
156 174 183
172 189 201
159 175 183
172 189 204
172 189 203
167 184 194
176 194 210
165 181 193
159 176 187
162 179 187
162 179 188
165 183 191
163 180 193
75 103 63
79 106 65
78 105 64
75 103 62
77 105 65
72 99 59
80 108 66
80 108 66
76 103 63
75 102 62
75 102 62
79 106 65
78 106 65
78 105 64
80 108 66
159 175 185
169 185 198
171 187 198
139 158 157
108 130 109
79 107 66
81 109 67
81 109 67
78 105 64
76 104 63
82 110 68
78 105 64
75 102 62
80 108 66
81 109 68
167 184 196
168 185 195
176 193 209
171 187 200
171 189 204
162 180 191
169 187 199
175 192 205
172 189 202
176 192 207
173 190 204
167 184 196
171 188 203
173 190 203
157 176 186
80 108 67
78 106 65
80 108 67
81 110 68
82 110 68
81 110 67
80 108 67
79 107 67
78 105 64
77 105 64
76 104 64
78 106 64
82 110 68
98 123 96
170 188 203
168 186 199
162 180 191
169 186 197
168 186 199
172 189 203
175 193 209
171 188 199
170 187 201
168 186 199
160 177 187
173 191 206
174 190 202
85 114 72
121 144 135
177 195 212
165 183 196
168 184 197
167 185 196
173 189 202
173 189 202
167 184 194
105 129 109
177 194 210
174 192 209
176 194 210
166 184 195
169 187 198
177 194 208
175 193 209
171 189 202
170 188 199
171 188 198
171 187 199
165 183 196
171 188 202
150 170 177
81 109 67
78 106 65
75 102 62
79 107 65
82 110 67
77 105 65
84 113 70
78 106 64
81 110 68
79 107 65
83 111 68
78 106 65
78 106 65
87 112 79
177 194 208
169 186 196
166 184 196
167 184 194
171 187 200
176 193 208
171 189 204
174 191 205
161 179 187
169 185 195
159 176 186
173 190 206
165 183 196
164 181 191
135 154 150
75 103 61
80 109 67
76 103 62
81 109 67
80 108 66
76 104 63
79 107 66
81 109 67
80 108 66
79 107 66
78 105 65
78 106 65
91 117 90
129 149 143
152 170 173
78 106 65
74 102 60
81 109 67
76 104 64
80 108 67
78 105 64
77 105 64
76 105 66
74 102 62
78 107 66
74 101 61
77 104 63
79 106 65
79 106 65
74 102 61
171 188 201
170 186 195
173 191 207
166 183 192
170 187 199
177 192 204
161 179 191
170 186 199
165 183 192
176 192 205
165 182 192
168 187 198
160 177 185
163 180 190
162 180 190
164 182 193
78 107 65
76 104 63
76 104 63
80 108 67
77 104 63
79 108 66
79 106 65
80 107 65
76 102 62
80 108 66
75 102 62
83 111 69
81 109 68
79 107 65
77 104 63
78 105 64
166 184 196
160 176 185
162 180 192
172 189 200
161 178 186
168 186 200
163 181 190
162 180 189
163 181 191
168 185 198
165 182 194
168 185 195
173 190 202
162 179 190
164 182 193
169 186 198
98 122 97
76 103 62
78 106 65
76 104 64
81 110 69
76 103 62
80 109 67
76 103 63
74 100 60
75 103 63
76 104 63
77 104 63
80 108 67
75 102 61
79 107 65
76 104 62
85 111 79
165 184 197
160 177 185
168 185 198
158 174 177
164 181 191
160 178 186
164 181 191
168 186 198
171 188 202
171 188 200
159 176 181
166 182 191
164 182 194
163 180 189
165 182 194
160 178 189
105 129 108
76 104 63
83 112 69
80 108 67
78 106 66
81 109 67
76 103 62
78 105 64
78 106 65
74 101 61
78 106 66
79 107 66
80 109 67
78 105 63
77 104 64
80 108 66
79 106 64
166 183 193
167 184 196
168 185 199
168 185 195
158 175 188
169 186 196
162 178 186
164 181 191
164 181 190
171 188 201
178 194 207
158 175 184
163 180 191
163 180 191
169 185 196
164 181 189
160 177 187
76 103 63
74 101 61
76 103 63
84 112 69
79 106 65
78 105 64
80 108 66
76 104 63
77 105 64
75 102 62
79 107 65
79 107 66
77 105 63
77 104 63
79 106 64
78 106 65
122 144 137
164 182 194
164 181 191
160 178 188
167 183 194
162 180 190
163 180 190
171 186 198
168 185 198
178 195 211
164 181 192
163 180 192
167 184 194
172 189 204
160 176 184
169 187 201
160 177 187
78 105 65
82 110 68
76 103 63
77 105 63
78 106 65
78 106 65
77 104 63
77 104 64
75 102 62
76 102 61
75 103 62
80 107 65
77 104 63
75 102 62
77 104 64
74 101 60
80 109 67
169 185 197
162 180 190
168 185 197
160 176 182
162 180 189
158 176 185
166 183 191
166 183 194
166 184 197
168 184 196
166 183 193
164 180 191
164 182 193
162 179 188
177 194 208
162 178 188
96 120 98
79 107 65
75 102 61
76 103 62
81 109 66
78 106 64
78 105 63
78 106 65
76 103 62
78 105 64
78 105 63
79 107 66
79 106 65
79 107 66
79 107 66
77 105 63
85 111 78
162 180 190
170 187 198
160 179 189
159 176 184
165 182 192
170 187 198
167 186 198
164 181 191
167 184 198
171 189 204
177 193 208
171 189 203
164 181 191
169 186 200
165 183 195
169 187 199
75 102 62
77 104 63
74 101 60
81 109 67
79 107 66
76 104 63
84 112 70
80 108 66
77 105 65
74 101 62
77 105 64
77 105 65
81 109 67
79 107 66
75 102 61
79 107 66
165 182 193
158 176 187
167 184 197
171 187 201
167 185 200
169 186 199
166 183 195
164 181 190
166 183 197
159 176 185
175 194 211
167 184 193
160 178 188
171 189 202
165 182 192
165 183 192
80 108 66
79 108 67
74 101 60
77 105 65
75 102 61
79 107 65
80 108 66
80 108 67
76 103 63
79 108 67
78 106 65
81 109 67
123 143 133
152 170 175
165 182 192
86 111 79
82 110 68
78 106 66
79 107 66
78 105 64
84 113 70
81 108 66
80 108 66
82 110 68
78 106 64
77 105 64
78 105 64
79 107 65
77 106 65
80 108 66
169 187 200
170 188 202
168 185 198
161 179 190
162 179 190
165 183 195
160 178 187
163 180 190
178 195 212
170 186 198
173 190 204
169 187 199
174 191 204
170 187 200
169 186 197
82 110 68
80 108 67
76 103 63
78 106 65
80 108 67
78 106 66
79 106 65
79 107 65
76 104 63
80 108 67
79 107 65
79 107 66
79 107 66
90 116 82
177 194 208
172 189 202
174 191 205
159 177 188
171 188 201
168 186 197
179 198 217
176 194 208
166 182 192
169 188 201
166 183 197
127 149 143
80 107 65
147 167 171
175 193 212
176 193 209
180 197 213
172 190 204
172 189 201
176 194 210
168 186 197
80 108 67
78 106 65
137 157 156
173 191 206
171 188 200
174 191 206
167 185 197
181 198 214
170 187 199
182 199 215
179 197 216
174 191 204
177 194 208
117 139 127
77 105 64
79 106 65
78 106 65
80 109 67
80 108 66
83 111 69
80 108 66
80 109 67
80 109 67
82 110 67
81 110 67
84 112 69
81 109 68
119 140 129
168 185 196
166 184 198
169 188 199
158 176 185
170 187 200
159 177 186
167 185 198
165 182 192
171 189 204
168 184 194
172 189 203
168 186 198
169 187 199
167 185 198
124 144 139
82 110 68
79 107 66
79 106 65
81 109 66
78 106 65
82 110 69
79 107 66
81 109 67
78 106 64
80 108 66
78 106 65
82 110 67
76 104 63
78 106 64
100 124 100
159 178 188
171 188 199
176 193 208
160 178 188
142 162 163
109 132 117
79 108 66
79 106 65
82 110 68
76 104 63
73 100 60
78 106 65
76 103 62
76 105 64
80 108 67
155 173 181
162 180 190
159 176 184
169 186 200
169 187 201
162 180 189
172 189 202
172 189 202
166 184 195
170 188 204
155 171 178
156 174 183
169 185 198
168 185 199
164 183 194
169 185 195
85 109 77
75 102 62
76 104 65
78 105 64
73 100 60
79 107 66
85 114 71
80 108 67
79 106 64
79 107 65
81 108 67
80 109 67
80 108 66
77 105 64
82 111 69
81 109 67
137 156 159
174 191 207
170 186 198
171 188 200
165 183 193
164 181 194
173 190 203
162 178 186
165 181 190
169 186 197
159 176 185
154 172 175
168 185 195
164 180 190
172 188 200
159 176 183
163 180 190
80 108 66
75 103 63
78 105 64
79 106 64
78 106 65
77 105 64
78 105 64
77 104 63
79 107 66
81 109 67
80 107 65
75 103 64
80 108 67
76 103 63
80 108 66
77 104 64
146 163 166
167 184 196
166 183 192
164 181 193
167 182 194
164 181 192
166 183 192
159 178 187
164 182 193
160 177 185
174 191 205
166 182 194
157 175 184
161 176 182
164 181 191
165 182 193
171 188 203
80 108 66
80 108 67
80 108 66
76 103 62
78 106 65
79 107 66
79 107 66
79 107 65
79 107 65
81 108 66
81 109 67
77 105 65
78 105 64
81 108 66
79 108 67
78 105 64
81 110 67
169 186 199
164 180 187
170 187 199
162 179 188
162 178 187
154 172 179
167 184 194
158 176 185
157 174 182
152 169 174
160 177 186
161 177 187
167 184 195
165 182 193
168 186 198
159 176 184
150 166 169
83 111 69
74 101 61
75 102 62
78 105 63
73 100 60
77 105 64
75 102 61
76 103 62
77 104 63
77 104 63
78 105 65
80 108 67
81 110 68
80 108 66
77 104 64
77 105 64
121 143 133
165 183 196
155 173 179
162 179 189
166 184 196
172 188 202
170 187 200
162 179 187
162 178 188
157 174 182
157 175 185
176 192 206
168 184 194
158 176 186
151 169 177
153 171 180
164 182 195
98 122 102
77 105 64
76 102 63
77 105 64
77 105 64
80 108 66
81 109 67
76 102 62
77 104 64
80 108 66
81 109 67
80 109 67
77 104 65
75 102 62
81 109 67
78 105 64
77 104 62
165 183 194
159 177 187
160 177 186
167 183 191
171 187 198
165 181 193
168 185 197
172 188 198
171 187 198
165 183 197
161 179 187
163 180 192
163 181 193
161 177 184
165 183 196
169 187 201
173 189 202
75 103 63
76 103 62
75 102 61
77 104 62
81 109 66
74 101 62
74 101 61
83 111 69
80 108 67
79 106 65
80 108 67
77 104 63
79 106 65
80 108 66
78 106 64
80 107 66
163 181 192
163 179 186
165 183 194
163 182 196
164 182 193
167 185 199
164 182 193
163 178 187
168 186 199
165 182 195
169 186 197
168 184 195
170 186 198
169 186 198
170 187 200
169 187 198
150 169 176
79 108 66
76 104 63
74 101 61
81 109 67
81 110 68
80 109 67
79 108 67
75 103 63
76 104 64
77 105 63
78 105 64
77 104 64
76 104 64
80 108 66
77 104 63
83 110 75
168 185 198
168 186 199
168 184 192
170 187 199
171 188 199
165 182 195
165 181 191
175 191 203
155 172 176
166 183 194
172 189 201
172 189 201
174 191 206
157 174 185
172 189 202
154 173 177
79 107 66
75 102 61
76 103 63
78 105 64
81 109 67
90 115 84
123 143 134
155 174 182
166 182 193
171 188 200
171 189 202
172 189 202
167 185 195
164 181 191
158 176 185
83 109 75
79 107 64
77 105 64
75 102 61
76 103 61
77 104 63
79 107 66
81 109 66
80 108 66
76 104 64
84 114 71
76 104 64
77 105 65
77 104 64
82 111 68
157 175 183
160 178 186
171 189 202
170 187 199
168 185 193
176 193 210
167 184 196
169 186 198
165 182 193
171 188 199
172 190 204
176 193 206
171 188 200
163 181 193
162 179 190
82 110 68
79 108 67
83 111 69
81 110 68
77 104 63
80 108 66
76 104 64
79 107 67
82 111 69
80 108 66
82 110 68
84 113 70
81 110 68
81 110 68
161 179 189
172 189 202
173 190 202
170 187 199
171 188 200
168 187 203
175 190 200
156 173 179
101 125 103
81 109 68
78 106 65
83 112 70
81 109 67
113 137 122
171 188 200
167 184 194
166 183 192
171 188 199
132 153 151
81 109 67
82 111 69
83 113 71
80 109 68
79 107 65
94 120 86
163 182 191
175 192 206
172 189 203
178 196 212
172 190 205
176 194 207
173 192 208
100 125 101
78 106 66
76 104 63
83 111 68
80 109 67
83 112 70
79 106 65
83 111 69
77 104 64
73 101 60
79 107 67
81 109 67
80 108 67
76 103 62
124 146 139
179 196 209
167 184 195
164 181 191
174 192 205
178 196 212
164 183 193
173 192 207
165 183 193
167 185 194
159 177 187
174 191 206
168 185 198
167 183 194
170 187 199
126 147 138
77 104 64
75 102 61
77 104 63
78 105 64
78 106 66
83 112 68
76 103 63
77 105 64
78 106 64
77 105 64
81 109 68
77 104 64
76 103 62
82 111 68
96 121 93
173 190 203
170 186 199
158 177 188
159 178 190
160 177 185
166 184 196
173 191 207
166 183 192
168 185 195
175 191 204
161 180 188
130 151 146
100 124 101
80 108 66
77 105 64
133 153 151
168 186 200
172 188 200
169 187 200
172 189 202
158 175 182
169 186 196
171 188 199
169 186 199
167 184 194
174 191 204
167 184 195
171 187 199
172 190 205
161 178 187
168 185 197
129 150 142
78 106 64
77 105 63
78 105 63
81 109 67
76 104 64
73 100 60
80 108 66
80 108 67
75 102 62
74 100 60
77 104 63
76 103 63
79 106 65
81 110 68
76 104 64
83 110 72
169 187 200
164 183 194
174 191 204
164 183 196
166 184 197
161 178 189
171 189 201
166 184 193
164 182 193
162 180 190
172 189 201
165 182 196
165 183 195
160 178 187
164 181 193
171 189 202
86 113 76
79 106 65
80 109 68
78 106 65
81 109 66
79 107 66
78 105 64
80 107 66
75 102 62
80 107 66
78 105 64
78 106 64
77 104 63
79 106 66
80 108 66
76 104 64
77 105 65
163 181 192
166 183 195
157 175 184
167 186 199
171 190 204
172 189 203
173 189 200
164 181 191
165 181 191
168 185 197
166 184 194
162 178 188
161 179 187
167 183 195
159 177 187
170 187 199
170 186 199
78 105 64
80 108 66
77 104 64
81 109 67
80 108 66
76 103 61
75 102 62
78 106 65
80 107 65
79 107 66
78 106 65
78 105 65
76 104 64
81 110 68
78 105 64
73 99 59
96 120 92
168 185 198
165 180 187
154 172 179
162 179 191
159 177 186
167 184 196
175 192 206
163 181 192
166 183 193
163 179 189
171 187 199
175 191 203
169 186 198
162 181 193
170 187 200
164 180 191
157 175 182
75 102 61
72 98 59
76 103 64
81 109 67
74 101 61
78 105 64
74 101 60
82 111 68
77 105 64
82 110 68
81 109 67
76 103 64
76 103 62
82 111 68
78 106 65
79 107 66
111 133 118
171 188 202
161 178 187
165 182 192
162 179 190
170 187 200
176 191 204
165 182 193
164 181 194
170 186 199
167 185 197
176 193 208
171 188 202
166 183 194
163 180 192
164 181 193
169 186 200
137 156 153
77 104 64
78 105 64
79 107 66
79 107 66
81 109 67
79 106 65
77 105 64
79 107 66
78 105 64
81 109 67
77 104 63
81 109 67
79 107 65
76 104 63
77 105 63
81 109 67
141 158 156
161 177 188
174 191 204
170 187 199
158 176 183
164 181 192
164 181 191
166 183 194
157 175 186
162 180 189
170 188 202
170 187 199
163 181 191
153 170 177
171 187 200
166 183 193
161 177 188
80 108 69
78 105 63
73 100 61
78 105 64
74 101 61
80 108 66
78 105 63
82 110 68
80 108 66
76 103 63
82 111 68
77 104 63
78 106 65
78 105 64
79 107 66
80 108 66
77 103 63
162 179 189
170 188 204
169 186 197
168 185 197
160 177 187
161 179 187
157 174 184
164 181 190
164 182 193
172 190 203
169 185 200
170 188 203
170 187 200
166 184 195
174 191 203
165 183 194
101 123 106
79 107 65
76 103 62
78 106 64
81 109 68
75 102 61
79 106 65
79 106 65
79 107 66
81 110 68
78 106 65
79 107 65
80 107 65
81 109 67
77 105 65
77 104 63
123 143 136
166 181 189
167 184 195
170 186 196
171 188 201
166 183 194
168 185 195
171 188 201
162 180 192
169 187 201
166 182 193
170 186 195
169 186 197
174 191 205
175 191 205
175 192 205
121 142 132
137 156 152
163 180 191
160 177 190
166 183 196
160 178 188
171 187 200
167 184 196
163 179 187
170 189 202
172 189 204
163 181 193
166 185 198
173 191 207
165 182 192
174 192 207
86 111 78
81 109 67
83 111 69
81 109 68
78 107 65
79 106 65
83 111 69
75 101 61
79 107 66
78 106 65
80 109 67
78 106 64
81 109 67
79 108 66
82 110 67
142 163 164
169 186 200
170 188 200
175 191 203
166 184 195
166 183 196
176 194 209
161 179 191
174 191 207
171 188 203
174 190 203
177 195 210
176 193 207
166 184 195
167 186 200
83 111 74
74 101 60
77 105 65
80 109 67
86 115 71
82 110 68
82 110 68
83 111 69
76 103 63
78 106 66
76 103 63
82 110 67
81 110 68
80 108 67
150 169 175
175 193 210
173 191 206
177 194 206
123 144 136
78 106 65
79 107 67
85 114 71
81 110 68
83 111 68
81 109 68
84 113 70
81 108 67
85 111 76
178 197 213
172 189 202
105 128 107
82 110 68
80 108 67
82 111 68
79 107 65
81 110 68
78 106 64
79 108 66
81 110 68
79 107 66
114 137 123
160 177 186
172 189 203
170 188 202
83 111 72
82 111 69
80 109 67
83 112 69
79 108 67
80 109 67
79 106 65
84 112 70
81 110 69
80 108 65
79 106 65
81 110 67
81 109 67
81 110 68
138 159 159
175 191 205
174 191 204
176 192 205
182 199 214
173 190 203
164 182 193
165 182 193
176 193 206
168 185 195
168 186 200
169 187 198
168 185 195
168 186 201
173 190 203
128 149 143
79 106 64
79 107 65
82 110 67
83 111 68
77 105 64
83 111 69
78 105 64
83 112 69
82 110 67
75 103 63
82 111 69
81 109 68
79 107 65
82 111 68
81 107 70
167 184 196
169 186 197
164 183 192
167 185 200
153 171 179
162 180 191
177 194 208
170 188 201
173 190 204
162 179 191
177 194 209
177 194 209
163 181 192
170 188 202
162 180 192
141 160 163
77 104 64
111 134 120
136 157 157
156 174 184
167 185 197
172 190 203
175 192 207
164 182 194
167 186 200
170 188 202
165 184 195
164 181 193
164 181 190
160 178 187
158 177 186
164 182 192
80 108 67
82 110 67
78 106 64
80 107 65
78 106 65
82 110 67
78 106 65
81 110 67
79 106 66
79 107 65
79 107 66
79 106 65
80 107 66
75 102 62
79 108 66
79 107 65
156 173 181
165 183 196
172 189 201
173 190 203
163 180 190
163 180 189
167 186 198
166 184 195
165 182 192
166 184 198
166 183 193
163 181 190
168 185 199
167 184 195
160 177 187
176 194 209
160 177 185
78 106 65
79 106 65
81 109 67
77 104 63
77 104 63
75 103 62
78 106 64
80 109 67
78 106 64
78 106 65
80 108 67
81 109 68
79 107 66
77 104 64
80 109 67
69 95 56
119 140 129
165 182 196
170 187 199
158 177 188
170 186 197
169 185 195
160 177 188
165 183 193
163 180 190
160 176 185
170 187 199
165 182 195
166 183 193
155 174 183
172 189 201
165 184 195
174 190 203
126 147 138
79 107 66
77 105 64
78 105 64
76 104 63
74 101 61
79 107 66
77 104 64
78 105 64
76 103 63
79 107 66
79 106 65
76 104 63
73 99 60
75 102 62
71 97 58
74 101 61
123 143 136
168 185 198
167 184 194
146 164 168
171 188 199
167 183 193
170 188 200
164 180 192
162 180 192
168 185 195
166 183 196
165 182 196
169 186 198
159 177 187
165 182 194
168 184 194
168 184 196
148 167 172
77 104 64
78 106 64
79 107 66
78 105 64
75 102 62
79 106 65
74 101 61
76 104 63
76 102 63
73 100 60
73 99 60
77 105 64
79 106 65
79 107 66
77 104 62
75 102 62
109 133 114
178 195 210
162 179 188
168 186 199
163 183 195
170 187 201
168 185 199
166 183 194
168 185 196
167 185 196
152 169 175
157 174 181
163 180 188
161 179 188
167 185 196
159 176 187
159 177 185
160 177 186
81 108 66
81 109 67
81 108 66
77 105 63
79 106 65
78 105 64
81 110 68
79 106 65
76 102 62
75 102 62
79 107 66
83 111 68
79 106 65
78 106 65
76 103 62
77 103 62
87 113 77
161 177 189
170 188 200
165 182 196
162 180 193
156 175 183
158 177 187
172 189 202
161 179 188
166 184 195
163 181 191
171 188 201
166 183 192
161 179 187
164 182 194
163 181 191
167 184 196
147 166 169
82 110 68
81 109 67
78 106 65
75 102 61
78 106 65
81 110 68
81 109 67
76 104 64
76 103 62
78 105 64
84 113 71
80 109 67
75 101 61
79 107 66
79 108 67
74 102 62
148 166 170
169 185 195
178 195 210
161 178 185
160 177 187
160 178 188
165 182 195
179 196 211
165 182 193
174 191 204
161 178 188
176 193 208
165 182 192
169 187 201
162 178 189
161 179 192
168 185 200
78 105 64
78 105 63
79 106 65
80 108 66
76 103 63
81 109 67
76 104 63
79 107 66
77 105 65
81 110 68
77 104 63
80 108 67
80 108 67
77 105 64
79 106 65
74 101 61
161 178 185
163 179 188
171 188 203
168 186 199
172 190 205
172 189 201
166 183 195
163 180 190
163 180 193
144 162 163
117 139 128
86 113 77
78 105 64
79 107 66
80 108 67
81 109 66
151 170 179
168 186 199
168 185 197
164 181 193
171 189 202
176 193 206
179 197 214
175 191 202
163 180 189
164 182 193
170 187 200
168 185 199
166 183 194
177 194 210
172 188 201
165 183 194
85 113 73
79 107 65
79 107 65
80 108 67
76 104 64
79 106 65
78 105 63
74 102 62
76 104 63
82 111 69
78 106 65
81 110 68
78 106 64
79 107 65
82 111 68
158 178 186
172 190 205
162 179 191
172 189 205
172 188 201
171 188 201
174 192 207
175 191 203
168 186 195
170 187 197
169 187 201
168 186 200
173 189 200
170 188 202
175 192 207
96 122 95
78 106 65
80 108 67
82 110 68
81 109 67
80 108 65
79 107 66
82 111 69
79 107 65
83 112 70
74 102 62
77 105 64
79 107 66
80 108 66
149 169 171
85 113 72
81 110 67
80 108 66
79 106 65
78 106 65
79 106 65
82 110 68
83 112 70
82 111 68
82 110 68
80 109 67
82 111 69
168 186 194
79 108 67
80 108 67
81 110 68
84 112 70
78 107 65
82 110 69
77 105 64
80 109 67
84 113 69
81 110 68
79 107 66
80 109 68
80 108 66
88 114 78
143 162 163
79 107 66
80 109 67
78 106 65
79 106 65
81 110 67
79 108 66
83 112 70
79 106 65
80 109 67
85 114 71
80 108 66
79 107 65
82 111 69
155 173 177
174 192 206
169 186 197
165 184 196
166 184 195
169 187 201
162 180 190
176 193 209
164 182 193
168 185 196
166 184 196
176 194 208
170 188 203
175 193 209
174 192 207
121 142 130
82 110 68
79 107 65
76 103 63
77 104 64
79 107 65
82 111 68
81 108 66
80 107 65
80 108 67
80 108 66
78 105 64
80 108 66
81 110 68
82 110 69
87 114 75
173 190 202
172 189 201
169 187 199
169 187 201
171 188 202
171 189 201
167 183 195
169 188 203
174 191 204
167 185 197
168 186 198
169 187 201
168 185 195
162 180 188
178 196 213
153 172 178
78 106 66
80 108 67
79 108 66
77 105 65
78 106 64
78 106 65
82 110 68
84 113 70
100 124 100
125 147 141
147 166 167
166 184 194
169 186 197
167 184 197
173 189 201
172 189 201
80 108 66
81 110 69
80 108 66
81 109 67
81 110 68
79 107 66
80 107 66
76 104 63
79 106 64
77 105 64
77 104 63
79 107 66
77 104 64
84 113 70
75 103 63
78 105 65
129 149 139
163 181 191
170 187 202
170 187 201
176 193 207
162 178 184
173 190 203
168 185 196
163 182 193
164 182 194
169 186 200
168 185 198
165 182 194
168 185 195
165 183 192
167 185 197
172 189 203
80 108 66
78 105 64
79 107 66
80 108 66
77 104 63
76 102 61
77 105 65
81 110 67
79 107 66
81 108 66
80 108 65
79 107 66
76 104 64
79 107 66
76 103 63
82 110 67
77 105 64
169 185 197
168 185 196
167 184 197
162 181 190
159 176 185
163 181 191
163 180 193
167 185 198
168 186 199
164 182 191
163 180 191
163 181 192
161 178 189
164 182 194
160 179 188
164 182 195
160 177 183
77 103 65
77 103 63
81 109 66
74 101 60
79 107 66
80 108 66
77 106 65
78 106 64
80 107 67
80 108 67
76 103 62
80 108 66
79 107 66
75 102 61
78 105 64
80 108 66
82 110 68
151 169 173
164 181 191
166 183 196
171 189 200
169 186 198
157 174 181
163 180 189
166 183 193
162 181 193
168 185 196
165 182 195
175 192 207
166 183 195
165 183 194
170 188 202
164 181 191
160 177 186
142 162 161
74 101 61
78 106 64
76 103 63
78 106 65
80 108 67
76 103 63
79 107 65
78 105 64
74 100 61
76 103 63
77 105 63
77 105 64
75 102 61
78 106 65
77 105 64
81 108 67
80 108 66
163 181 192
167 184 196
166 184 196
167 184 194
164 182 195
173 190 204
163 180 190
162 180 189
164 182 193
164 182 194
171 187 199
178 195 210
167 183 194
171 189 201
172 189 203
161 178 189
162 180 190
78 106 64
76 103 63
77 104 63
81 110 68
80 107 65
78 106 65
75 102 61
70 98 59
80 108 67
78 105 65
82 110 68
76 103 62
72 99 60
76 104 65
80 108 65
79 107 65
78 107 66
157 175 181
161 179 187
167 184 196
171 188 199
162 181 192
176 192 203
162 178 184
162 179 188
157 174 183
172 189 202
163 180 190
167 184 197
167 183 192
168 186 198
164 182 192
167 185 197
165 184 196
78 105 64
79 107 65
77 105 65
79 106 65
80 108 66
77 104 64
77 104 64
78 105 64
81 109 67
78 106 65
80 108 67
84 113 69
77 104 63
76 103 62
79 107 66
79 107 66
76 104 62
165 182 194
167 184 194
164 182 192
163 180 191
168 185 197
154 170 176
162 178 187
165 181 192
161 179 189
170 186 198
169 187 198
160 177 185
167 185 198
172 190 206
160 178 185
169 186 199
141 160 161
80 108 66
78 106 65
78 106 65
81 109 67
80 108 67
78 105 64
80 109 67
74 101 62
80 109 67
79 107 65
77 105 64
82 111 69
80 108 66
77 104 63
80 109 67
81 109 67
168 186 198
152 170 175
130 151 145
108 131 114
77 104 64
80 108 67
82 110 68
82 110 68
79 107 65
79 107 66
76 102 62
79 107 64
78 106 65
76 103 62
77 104 63
79 107 65
164 182 192
177 195 211
168 186 200
170 186 195
166 184 196
175 192 207
173 191 207
166 183 194
174 191 205
168 185 197
169 186 199
165 184 195
172 190 205
171 190 204
165 182 193
169 187 199
76 103 66
79 108 66
83 112 69
81 109 67
79 107 66
80 108 66
80 108 67
75 102 61
75 103 63
83 111 69
79 107 66
78 105 64
82 110 69
83 112 69
76 103 62
136 155 152
175 191 205
169 186 199
173 191 205
165 183 195
168 186 198
174 192 208
175 192 207
178 195 209
173 190 203
168 187 201
176 193 207
174 191 206
165 183 195
167 184 197
108 130 110
79 107 66
78 105 64
83 111 69
82 112 70
81 110 68
81 109 67
82 110 68
80 108 66
78 106 65
102 126 104
163 181 194
178 194 210
171 188 199
166 183 193
82 110 67
79 107 66
76 103 63
85 115 72
82 111 69
81 109 67
83 112 70
80 109 68
83 112 70
84 112 70
81 110 68
80 110 69
78 106 66
82 111 69
79 107 65
78 106 65
79 107 65
82 110 68
77 104 63
83 112 69
79 107 66
80 108 66
82 111 69
81 111 69
99 124 97
170 189 202
174 191 206
173 191 207
183 200 218
132 153 150
82 110 71
83 112 70
79 107 65
81 109 68
78 106 65
83 112 70
82 112 69
81 110 68
82 111 69
163 182 193
172 189 203
171 189 204
168 186 197
174 191 206
169 186 198
171 189 203
170 188 202
165 184 196
178 195 210
175 193 209
173 191 205
177 194 208
172 191 206
169 187 201
120 141 129
75 104 64
78 107 65
78 106 64
82 110 68
78 107 65
81 110 68
83 111 69
79 106 65
80 108 67
77 105 65
82 111 68
77 104 62
77 105 64
80 108 67
79 107 66
165 183 196
168 185 198
162 181 191
173 190 202
176 193 206
164 181 191
169 187 199
165 183 196
167 185 197
177 194 207
168 186 198
174 190 202
179 196 210
167 185 195
165 182 193
169 187 200
78 105 64
82 111 69
77 105 65
81 109 67
79 107 66
76 104 63
83 112 69
76 104 64
78 105 64
77 104 64
81 110 68
80 107 66
80 109 67
76 104 63
77 105 64
77 105 63
162 180 189
148 167 170
116 138 125
81 108 69
80 108 66
79 107 65
79 107 65
79 107 66
79 106 65
81 109 67
77 106 65
78 106 65
79 107 66
81 110 67
78 106 66
76 103 63
84 112 70
166 182 193
166 184 196
168 184 195
170 186 197
174 191 204
168 183 193
171 188 198
169 187 200
167 186 200
167 185 196
159 177 186
175 193 208
174 191 205
168 185 195
160 177 186
170 187 198
156 174 182
79 108 67
78 106 66
78 105 63
79 107 65
80 108 67
78 105 65
82 110 67
80 108 66
75 102 61
76 103 63
74 101 61
78 106 65
78 106 65
84 113 70
79 107 66
75 102 61
83 110 74
172 189 200
161 179 188
165 182 190
164 181 192
170 186 197
166 183 192
172 189 202
166 182 191
162 179 190
165 181 191
173 191 205
167 185 197
168 185 199
158 176 184
162 179 191
172 189 202
160 178 188
78 106 65
74 101 61
77 105 64
80 108 66
80 108 67
77 104 64
76 103 63
80 108 67
79 107 66
77 104 63
75 103 63
80 108 67
79 107 65
75 103 62
76 104 64
80 108 66
79 107 65
161 179 189
167 184 194
172 189 202
169 186 199
170 187 200
165 183 196
170 187 197
169 186 200
165 181 193
169 185 195
168 186 202
170 186 196
169 187 200
171 189 205
154 173 184
171 188 202
158 175 181
131 151 150
78 106 65
79 107 66
79 106 65
83 111 68
82 110 68
78 105 65
78 106 66
79 107 66
77 104 63
78 106 65
81 109 67
72 98 59
78 105 64
77 105 64
80 107 65
78 106 65
76 102 61
164 182 193
172 189 203
157 176 185
171 189 202
166 184 198
173 191 201
164 182 193
167 184 194
163 181 189
165 183 197
167 184 195
168 184 195
166 183 194
166 184 197
161 179 190
174 191 208
175 191 204
76 103 63
75 103 61
78 106 65
77 105 65
75 102 61
79 107 66
83 112 69
79 106 65
79 107 66
78 106 65
76 103 62
79 107 65
79 107 66
73 100 60
78 105 64
78 105 63
78 105 64
153 172 179
174 191 205
162 179 188
166 184 194
164 181 192
169 186 198
168 184 195
169 184 196
174 191 205
168 185 196
165 182 193
173 190 202
166 183 195
169 187 200
161 179 189
164 182 194
167 185 197
136 155 152
74 101 60
76 103 64
77 105 63
77 104 63
81 109 67
83 111 69
80 108 66
81 109 67
77 105 64
81 110 68
79 107 65
78 106 65
76 103 63
77 104 63
79 107 66
76 103 62
144 163 162
171 188 199
160 178 188
165 181 192
162 181 192
166 183 192
168 186 199
169 185 197
168 185 197
157 174 183
170 188 203
166 183 195
165 182 193
169 187 201
164 180 190
155 173 180
162 180 189
98 122 100
77 104 63
81 110 68
80 108 66
78 106 65
79 106 65
77 105 64
75 103 63
81 110 68
78 106 66
106 128 106
128 149 142
159 176 185
170 186 201
165 183 196
169 187 199
163 181 192
79 106 65
80 109 67
80 107 66
81 109 68
80 108 66
84 113 70
76 102 62
81 109 67
80 109 67
79 107 66
81 111 69
79 107 65
79 105 64
82 110 69
77 104 62
77 105 64
169 187 200
163 179 190
167 185 197
179 196 211
177 192 206
165 183 196
170 188 200
174 190 203
170 187 200
165 182 189
170 188 200
170 188 200
170 186 196
162 180 190
168 186 197
175 192 205
78 105 64
80 108 67
78 106 65
82 110 68
79 106 65
78 106 64
75 102 62
78 107 66
78 105 64
79 107 66
78 107 65
80 108 66
80 108 67
81 108 66
80 108 66
144 162 164
180 198 216
170 188 200
164 181 191
171 188 198
172 191 206
174 192 208
173 189 201
172 189 203
170 187 199
170 187 201
167 185 196
174 191 207
164 183 194
163 181 192
129 149 145
80 108 66
80 108 66
78 107 66
81 110 67
81 110 68
104 128 106
169 186 197
163 181 194
168 185 198
171 189 202
168 185 199
171 188 200
172 190 205
167 185 198
78 107 66
83 112 69
79 108 67
79 107 67
81 109 67
77 104 63
85 114 71
81 110 68
77 105 65
77 105 64
82 111 69
79 107 65
80 109 68
83 112 70
80 109 66
81 109 67
80 108 66
82 110 68
85 114 71
84 113 70
82 111 69
81 110 69
140 159 157
171 190 205
173 191 205
177 195 208
171 190 204
164 181 190
174 191 204
168 185 199
164 182 194
141 161 163
83 110 73
82 110 68
79 107 66
80 108 67
82 110 67
163 182 191
161 180 190
173 190 205
165 181 190
165 183 193
175 193 209
178 196 213
173 189 202
167 184 195
176 194 211
163 182 194
157 176 188
174 191 205
172 189 202
180 196 209
121 141 130
84 113 70
82 110 68
80 108 66
84 113 70
75 102 61
82 111 68
78 105 64
78 106 65
82 111 68
82 110 68
83 111 69
81 110 68
75 103 63
82 111 68
80 108 66
172 189 205
172 190 204
171 189 202
173 191 206
167 183 193
167 185 198
165 183 195
172 189 201
173 190 201
173 190 203
171 189 203
169 185 195
166 183 192
177 194 208
171 189 202
174 191 204
84 112 75
83 111 70
80 108 66
75 102 61
80 109 68
80 108 66
76 104 64
81 110 67
80 109 67
78 106 65
80 107 65
76 103 62
81 108 66
79 107 65
80 108 67
77 105 64
119 140 128
173 191 204
172 190 203
161 180 189
162 180 192
165 183 194
166 184 196
165 181 190
170 187 199
152 170 176
136 156 153
114 134 121
86 113 77
77 105 65
81 109 67
77 104 64
77 105 64
151 168 174
174 191 205
157 176 182
159 176 185
170 188 202
174 192 206
167 184 196
180 197 213
166 183 195
172 188 201
169 186 199
164 182 194
167 184 196
174 191 205
166 182 192
160 178 188
166 184 195
83 110 73
75 102 61
79 107 65
80 107 66
79 106 64
76 104 63
79 107 66
78 106 65
77 104 64
82 111 68
79 107 65
79 106 65
77 105 64
82 111 68
79 106 65
76 103 62
79 108 67
159 178 184
167 183 194
166 183 194
172 191 207
166 184 198
172 189 202
155 172 181
162 180 187
168 185 198
165 182 192
168 186 198
170 188 202
170 186 197
166 183 195
166 184 198
165 183 196
172 189 201
157 174 180
78 106 65
78 106 65
77 104 64
77 105 65
78 106 65
75 102 62
80 108 66
80 108 66
77 105 64
80 108 67
80 107 65
82 110 68
79 107 66
79 107 65
80 108 67
77 104 64
82 110 68
172 189 203
173 190 204
159 178 189
165 182 193
165 184 196
163 181 192
168 185 195
172 191 204
159 178 189
169 186 199
167 183 193
165 182 194
167 185 198
171 188 201
159 177 185
157 174 183
168 185 198
118 138 126
78 105 64
78 106 64
77 104 63
76 103 62
78 106 65
77 104 63
78 105 64
78 105 65
73 101 61
78 106 65
82 110 68
81 108 67
81 110 68
77 104 63
74 101 61
78 106 65
81 109 67
162 179 189
168 185 197
167 185 198
167 183 194
170 187 198
168 186 200
170 187 199
158 177 186
168 185 196
171 187 200
169 184 195
170 187 200
168 185 195
167 183 194
169 185 196
165 184 196
173 189 203
91 117 84
80 107 66
76 103 62
78 106 65
76 104 64
81 110 68
76 103 63
76 104 61
79 107 66
83 112 70
76 103 63
78 106 66
81 109 68
78 107 66
79 106 64
83 110 68
81 110 69
94 117 91
166 182 192
164 180 190
162 180 191
170 189 203
167 186 200
167 184 194
176 194 210
169 186 198
160 177 186
166 182 191
167 183 193
163 181 192
167 183 195
167 185 198
162 180 191
172 189 203
178 194 207
77 105 63
78 106 64
82 110 68
77 104 63
81 110 67
81 110 67
76 103 62
80 109 68
81 109 67
77 104 64
81 109 68
80 107 66
77 104 63
79 107 65
79 107 66
81 109 67
78 106 65
173 189 201
177 194 209
170 187 198
164 183 196
171 186 197
163 179 187
166 185 197
163 182 194
167 184 197
172 189 201
173 191 206
166 184 195
176 192 206
172 190 205
164 181 192
164 181 193
162 181 190
76 102 62
110 132 118
121 143 132
149 167 170
167 186 199
180 197 213
173 192 208
172 189 203
177 193 205
169 186 200
168 185 196
163 180 189
174 191 205
175 192 207
161 179 189
167 184 194
129 149 144
78 105 65
75 103 64
84 113 70
78 106 64
81 110 69
77 105 65
79 107 66
77 104 63
81 110 68
83 112 70
78 105 63
78 106 65
82 111 69
78 106 65
82 110 68
78 105 64
164 182 193
179 196 212
168 186 199
174 192 206
171 188 200
169 186 197
162 181 192
175 192 208
164 181 192
167 184 196
175 192 209
168 186 198
164 182 196
170 188 199
163 182 195
171 189 204
80 109 67
81 108 66
81 109 67
76 104 63
82 110 68
81 111 68
77 104 62
80 109 66
79 107 66
80 109 67
78 106 66
78 106 64
81 109 67
77 104 63
81 110 68
141 161 162
172 190 203
177 194 210
170 187 201
178 195 210
169 185 195
168 186 201
171 188 202
169 186 197
173 190 203
170 187 200
169 186 196
166 185 197
165 182 192
164 181 191
146 164 164
83 111 68
119 142 130
162 180 188
165 182 195
164 182 195
164 183 198
176 193 208
175 192 207
167 186 200
171 189 203
170 187 201
172 190 205
176 194 210
171 189 203
88 115 78
81 109 67
78 107 66
79 107 65
81 109 67
83 111 69
80 109 67
80 108 67
82 110 67
77 105 64
83 112 69
81 110 68
79 107 66
82 111 69
82 110 67
78 106 64
81 110 68
82 112 70
83 112 70
80 108 66
149 168 173
173 190 204
168 187 201
173 191 203
178 195 210
174 191 204
170 189 201
178 195 209
168 186 197
167 185 196
177 194 206
170 188 201
169 187 202
145 164 167
105 129 106
170 188 197
174 192 207
176 194 208
170 190 207
164 183 196
167 185 198
168 186 200
170 187 200
173 190 206
165 183 194
169 187 198
161 179 189
176 193 209
182 199 213
176 193 209
109 132 113
81 109 67
79 107 66
79 108 66
80 108 66
77 104 64
83 111 68
80 108 66
82 111 68
79 108 67
82 111 68
84 113 70
83 111 69
80 109 67
79 107 66
79 107 65
170 188 201
171 188 200
168 186 198
175 192 206
172 189 201
174 192 206
171 188 202
170 187 199
160 178 187
172 189 199
176 194 210
167 185 196
173 192 207
171 187 198
173 191 207
163 181 191
98 122 98
77 106 65
78 105 63
80 108 66
79 107 66
78 105 64
80 109 67
81 109 68
78 105 65
76 103 62
78 106 65
81 109 68
76 103 63
81 110 68
81 110 68
80 109 67
80 107 65
159 177 187
166 184 195
171 189 201
161 178 189
160 178 187
166 182 193
166 183 192
179 196 211
173 190 202
164 182 194
177 194 209
175 193 208
178 195 207
172 189 203
168 184 196
175 192 205
152 170 178
100 124 103
116 138 124
143 161 162
153 172 178
165 183 194
166 185 198
170 187 199
168 187 202
173 190 202
166 184 197
170 187 199
170 188 201
171 187 199
165 183 197
154 173 181
159 177 186
162 179 190
77 104 64
78 106 65
79 106 64
76 103 63
77 105 64
78 106 65
79 108 67
82 110 68
77 104 63
80 108 66
79 106 65
77 105 64
79 107 65
80 109 67
80 107 66
75 102 61
76 104 64
167 183 193
177 193 207
162 180 189
164 182 195
166 184 194
160 177 189
161 178 187
165 183 192
170 187 201
171 188 201
160 178 186
161 178 186
166 184 196
169 187 202
162 179 188
177 194 212
161 178 188
103 127 106
80 108 67
78 106 65
81 108 66
77 105 64
79 107 66
81 110 67
78 106 65
78 107 67
79 107 65
75 102 62
78 104 63
81 109 67
79 107 65
77 104 64
77 104 62
84 112 69
77 104 63
174 192 205
167 184 196
176 193 207
169 186 195
174 191 203
171 188 200
165 182 190
170 186 197
164 182 192
164 181 187
167 184 194
177 193 208
171 189 204
167 185 198
160 177 184
166 182 196
167 185 195
114 135 121
78 106 65
80 108 66
80 108 66
75 103 63
80 108 66
76 104 62
80 108 67
82 110 67
80 107 66
79 107 66
81 109 67
81 109 67
78 106 65
80 107 65
80 108 67
77 105 64
77 105 64
164 181 189
155 173 180
169 187 200
152 170 177
172 190 204
165 183 195
162 179 186
163 180 191
164 181 191
172 188 201
172 189 203
172 189 201
165 181 190
171 187 200
170 188 201
166 183 192
165 182 193
132 151 149
82 110 68
76 104 64
75 103 61
76 103 63
80 108 66
83 112 69
73 99 59
78 106 64
79 107 66
79 107 66
80 107 66
80 108 67
76 102 62
78 106 65
77 104 63
75 102 61
81 109 67
166 183 196
163 181 190
168 185 200
172 189 203
173 189 201
165 182 192
168 186 200
164 182 194
151 169 176
159 177 189
163 179 186
168 185 194
171 189 203
155 171 178
174 191 202
168 186 196
167 184 198
108 131 113
77 104 63
83 111 69
80 109 68
78 105 65
79 106 65
76 103 63
78 106 66
81 109 67
76 103 62
79 107 66
76 104 64
80 109 67
75 101 60
82 111 69
75 102 62
78 106 64
120 141 133
165 181 192
162 180 192
166 184 196
165 183 194
159 178 188
164 181 195
168 185 197
168 184 196
159 177 186
147 165 164
135 154 150
102 126 102
76 103 63
76 103 62
76 104 63
80 107 65
107 131 113
167 184 196
168 186 198
163 181 189
167 183 195
168 187 200
172 189 203
168 186 200
164 182 194
158 175 184
161 180 195
167 184 195
169 186 199
168 186 197
169 187 199
175 193 209
172 190 204
104 128 104
79 107 65
78 106 65
81 109 67
83 111 69
80 108 67
82 109 67
79 107 65
77 105 64
76 103 63
80 108 66
82 110 68
79 107 67
79 106 64
78 106 64
81 110 68
98 123 96
174 192 207
169 186 200
171 189 203
169 186 200
169 186 199
168 186 199
166 183 195
157 176 185
177 194 209
176 192 205
163 181 190
164 182 190
171 189 203
168 187 200
177 194 211
169 187 201
83 112 69
78 105 65
77 105 65
80 109 67
82 111 69
78 105 64
75 102 62
79 107 65
79 106 65
82 111 68
78 105 64
78 106 64
84 112 70
81 109 67
77 105 64
120 142 130
169 187 199
175 192 207
167 184 194
173 191 205
166 185 197
167 184 194
174 192 207
165 182 193
169 187 200
169 186 197
169 187 198
169 187 200
143 164 164
84 111 71
110 133 116
170 187 200
169 186 198
169 187 200
176 193 206
171 189 203
166 184 195
177 194 210
165 183 195
177 194 210
167 184 197
167 186 201
179 196 212
174 190 204
168 187 202
106 129 110
79 108 66
78 106 66
83 111 69
84 113 70
80 109 67
82 111 69
84 113 71
79 107 65
79 107 66
81 111 69
82 111 69
79 107 66
79 107 66
81 110 68
79 107 66
78 106 65
80 109 68
169 186 196
163 181 191
186 202 219
181 199 217
171 189 200
172 190 203
170 188 201
169 187 200
169 187 200
169 187 200
170 188 202
175 193 208
176 194 208
177 195 211
184 201 220
82 110 68
78 106 65
79 107 68
137 157 156
171 187 201
160 178 186
172 189 199
176 193 205
165 183 193
173 192 208
177 195 212
172 190 203
166 184 194
167 185 196
169 184 192
103 127 106
81 109 68
83 111 69
79 107 66
81 110 68
81 110 68
82 110 68
82 111 68
78 106 64
83 112 70
79 107 66
82 110 68
79 108 65
81 109 66
78 107 65
82 110 68
167 184 196
165 183 195
171 188 201
173 191 205
176 194 210
166 184 195
169 186 199
170 187 200
162 180 190
174 192 206
167 184 194
166 184 193
174 191 206
170 188 200
171 188 200
176 192 207
133 154 149
79 106 64
81 110 68
80 108 67
83 112 70
81 109 68
83 112 69
79 107 66
80 108 67
82 110 69
76 104 63
81 110 68
80 109 67
81 109 66
82 111 69
77 105 64
83 111 67
173 190 203
176 192 203
163 181 190
176 194 212
171 188 201
165 183 194
169 186 198
175 192 206
168 186 198
172 190 204
170 188 202
164 181 191
172 189 203
167 185 197
173 190 202
169 187 200
168 185 195
80 109 68
84 113 70
81 108 67
80 109 68
80 109 67
79 107 65
80 109 67
78 106 65
81 110 68
78 105 65
89 114 80
99 121 99
122 143 135
146 166 169
152 170 177
166 184 196
172 190 204
89 116 82
79 107 66
73 100 60
75 103 63
79 107 66
76 104 63
80 108 66
79 107 66
80 108 66
81 110 67
82 110 69
74 101 62
83 111 69
74 102 62
80 107 65
77 105 63
77 104 63
116 139 128
176 193 207
167 184 194
168 186 201
167 185 195
177 194 209
170 187 197
168 186 198
167 186 200
170 187 199
174 191 205
162 180 191
174 192 208
167 185 196
164 181 190
161 178 187
165 182 192
163 181 192
75 101 62
82 110 68
78 105 64
79 107 66
79 107 66
80 108 66
75 101 61
81 109 68
79 106 65
75 102 62
73 99 59
79 106 64
77 104 64
81 109 67
78 106 65
80 109 67
79 106 65
90 116 88
169 187 200
167 184 196
171 189 202
172 190 204
169 185 195
154 171 176
169 186 198
177 193 205
175 191 205
171 188 202
168 185 197
164 182 193
174 193 209
163 181 193
170 188 200
170 186 197
171 187 201
104 128 108
79 107 65
79 107 66
73 100 60
75 101 61
84 111 69
78 106 65
77 105 65
74 101 60
74 101 61
78 105 63
77 104 64
82 110 67
79 107 65
78 106 65
76 104 63
79 107 65
74 102 60
158 176 183
161 179 189
172 190 202
169 185 197
170 187 199
163 181 190
168 186 198
162 181 191
171 187 202
160 179 191
158 176 186
170 187 199
164 181 192
169 186 197
173 190 204
162 179 188
167 184 197
153 172 178
76 104 63
76 103 62
80 108 66
80 108 66
79 107 65
82 110 67
77 105 63
83 112 69
83 112 70
81 110 68
76 103 63
77 105 65
80 109 67
81 109 67
79 107 65
82 111 69
83 112 70
173 188 200
167 184 196
170 188 206
167 184 195
163 180 190
170 186 197
166 183 194
168 186 198
171 188 200
166 183 195
158 176 183
169 186 196
167 183 193
170 187 199
167 185 194
167 184 195
174 190 201
157 175 184
81 109 68
78 106 65
74 102 61
81 109 67
81 108 66
76 104 63
81 109 68
76 103 64
82 110 67
76 103 63
79 108 67
80 108 66
75 102 63
80 108 67
80 109 67
95 120 94
104 127 108
127 147 144
114 136 123
93 118 93
77 106 65
76 103 62
79 107 65
82 110 68
79 107 65
78 106 66
79 107 66
79 107 66
79 106 65
79 106 65
79 107 66
83 112 69
78 105 64
75 101 61
156 173 181
167 184 194
173 190 203
164 182 192
168 185 197
167 185 199
154 172 179
165 183 192
175 192 206
174 192 206
167 186 198
171 189 201
168 186 200
173 190 203
173 191 205
163 181 189
160 177 186
80 108 67
81 109 68
78 105 64
76 104 64
78 105 64
84 113 70
77 105 64
80 107 65
84 112 70
81 109 68
81 109 67
81 109 67
79 107 66
79 106 65
79 107 66
82 111 69
107 129 116
162 181 194
171 187 199
176 193 209
169 186 197
171 189 202
172 190 205
170 187 199
167 186 199
172 190 204
165 182 194
165 181 194
167 183 193
168 185 199
168 185 198
168 185 196
154 172 180
81 110 68
80 108 67
80 107 66
80 108 67
84 113 70
80 108 67
82 111 70
79 107 66
81 109 68
77 105 65
78 106 65
82 111 69
84 114 71
79 107 66
79 108 67
121 142 133
173 190 204
172 190 204
173 190 205
163 182 192
170 188 199
177 193 207
181 198 214
161 179 186
117 140 127
80 108 66
77 105 64
81 110 68
81 108 66
80 108 66
82 109 75
170 187 198
170 188 200
173 190 204
170 188 202
168 186 201
175 192 208
177 194 210
173 190 203
178 194 209
175 192 204
176 191 202
179 197 215
173 192 207
163 181 191
135 157 154
82 110 68
82 110 68
81 109 67
81 110 67
79 107 65
81 109 67
84 111 68
82 111 69
86 115 72
84 114 72
81 110 68
77 105 64
81 109 68
79 106 65
81 110 69
172 190 205
176 194 210
170 189 201
168 186 198
177 193 207
167 184 194
167 184 197
171 188 202
166 183 195
175 192 206
170 188 200
176 194 209
168 186 200
171 188 201
169 186 198
76 104 63
87 116 72
79 107 66
83 112 69
80 108 66
80 109 67
83 111 69
99 125 103
157 175 184
170 187 200
177 195 211
169 187 199
173 190 204
169 187 201
171 188 201
102 125 103
81 108 66
83 112 69
76 104 63
83 111 68
79 107 65
79 107 65
79 107 66
76 104 63
82 110 68
82 110 68
78 106 65
77 104 63
79 106 65
82 111 69
78 106 65
160 178 183
163 182 195
159 177 186
175 192 208
166 184 196
166 184 197
168 187 199
168 185 198
172 188 200
175 192 208
172 190 204
173 189 203
171 189 205
174 192 208
169 186 200
170 188 201
150 168 173
80 109 67
81 109 67
79 108 67
79 107 66
78 105 65
77 105 64
80 108 66
78 106 65
78 105 64
77 105 65
79 107 65
74 101 61
80 108 66
79 107 66
77 105 65
82 111 69
143 162 162
173 191 206
172 190 203
169 187 199
176 193 207
166 184 197
173 189 201
161 179 189
167 185 197
177 194 208
169 185 198
165 184 196
170 187 199
166 182 188
167 185 199
160 178 186
167 183 195
120 143 134
79 107 65
79 107 66
79 107 66
82 110 68
84 112 70
80 108 67
82 111 69
81 108 66
79 108 66
77 106 65
78 106 64
76 103 63
77 104 64
79 108 66
76 103 63
80 108 66
93 118 91
172 190 202
165 183 193
170 188 201
165 183 194
166 183 196
160 176 184
140 159 156
133 153 148
111 134 119
98 122 97
82 110 68
77 104 64
75 103 63
81 109 68
82 110 67
78 106 65
78 106 65
166 184 196
171 187 198
171 188 201
162 181 189
165 182 193
169 187 199
170 188 201
169 186 197
166 182 191
169 185 195
169 187 200
165 183 192
169 187 198
168 185 198
167 185 196
165 181 192
167 185 198
164 181 191
80 108 66
81 109 67
81 109 67
78 106 66
81 110 68
85 114 71
77 105 63
78 106 64
81 109 67
76 104 64
80 108 66
78 106 65
83 111 69
74 102 61
81 110 68
81 109 67
79 107 66
136 157 154
162 180 191
170 187 200
170 187 201
161 179 188
175 192 206
162 179 188
171 190 204
166 184 194
172 189 203
171 187 199
171 188 202
165 183 195
164 181 189
169 187 200
175 193 208
171 187 199
170 187 200
93 118 91
77 105 64
77 105 63
77 104 63
76 104 64
77 104 63
78 106 64
80 108 67
78 106 65
83 112 68
77 105 64
80 109 67
80 108 66
81 108 66
79 107 65
80 108 67
79 106 65
80 108 66
159 176 186
174 192 206
176 193 207
164 181 191
169 185 198
165 182 193
169 186 199
158 176 187
164 181 190
163 181 191
174 191 205
173 190 202
169 186 200
173 190 204
166 185 198
173 189 201
173 190 205
159 177 187
77 104 64
78 105 63
74 100 60
79 107 66
82 110 67
78 106 65
76 104 64
79 108 66
77 105 64
77 105 64
75 102 63
77 104 63
79 107 66
83 111 69
77 104 63
76 103 63
80 108 67
118 139 127
174 191 203
167 185 196
166 184 197
170 188 200
174 191 203
168 184 195
161 179 189
164 181 192
160 176 183
173 189 203
169 187 201
161 178 189
164 181 192
175 191 206
170 188 201
165 183 194
172 189 204
83 112 69
75 102 61
77 103 63
90 115 87
104 128 107
122 142 136
134 153 152
145 164 167
149 166 168
172 189 203
161 179 190
168 185 197
173 190 206
168 186 198
164 182 194
177 193 207
170 187 200
142 161 163
79 107 65
80 109 67
80 108 66
77 105 63
76 103 63
77 105 65
79 108 66
80 109 67
81 109 68
76 103 62
76 103 63
78 106 65
80 108 66
75 102 61
74 100 60
83 112 70
78 105 67
165 184 195
165 183 194
180 197 212
174 190 203
169 187 201
163 181 191
173 190 204
162 180 190
170 187 199
172 190 205
171 188 202
171 188 200
171 189 202
166 183 195
160 178 187
176 192 206
161 179 187
80 108 66
84 112 70
81 109 67
78 106 65
82 110 68
80 108 66
78 105 64
79 106 65
79 107 65
82 111 69
78 105 64
80 109 67
78 105 63
79 106 65
77 104 63
81 110 68
130 150 147
160 178 191
172 189 201
173 190 205
172 189 201
169 187 202
179 196 211
162 179 191
167 185 197
162 181 193
168 186 198
170 188 202
174 191 204
170 187 199
172 189 203
172 190 204
162 180 189
79 108 66
80 108 67
79 107 66
79 107 66
82 110 68
82 110 68
82 110 68
83 112 69
82 111 68
83 111 70
79 108 67
84 113 71
83 112 69
83 112 70
83 112 70
119 140 129
172 190 207
169 186 197
170 188 202
135 156 153
82 108 72
78 106 65
80 108 66
81 109 66
83 112 69
81 109 68
79 107 66
80 109 67
81 109 67
80 108 67
88 114 80
165 182 192
172 190 201
172 189 203
173 190 204
172 190 207
173 191 205
173 190 205
173 191 205
176 194 209
181 199 215
176 193 205
173 191 205
169 187 200
170 188 201
153 172 175
83 111 69
80 109 67
78 106 66
80 108 66
78 105 64
81 110 68
84 114 71
80 109 68
81 110 68
82 110 67
82 111 69
82 111 69
90 117 85
175 193 208
175 193 208
172 189 201
170 186 199
166 184 194
178 197 215
167 185 198
169 187 201
170 189 204
170 188 201
172 189 201
171 189 204
171 187 198
170 187 199
158 177 188
74 102 61
79 107 65
79 107 65
81 110 68
78 106 65
84 113 71
82 112 69
81 110 68
82 111 69
78 106 65
79 108 66
83 112 69
125 146 137
172 189 204
172 190 205
112 134 117
82 111 68
80 109 67
80 107 65
80 108 66
81 109 68
82 110 67
85 114 71
79 108 67
83 112 69
81 110 68
81 109 68
81 109 67
80 107 66
75 103 63
79 107 66
162 180 189
168 186 199
173 190 206
171 189 202
172 191 206
173 190 204
175 192 205
167 185 197
173 190 203
177 194 209
167 183 194
170 187 199
168 184 192
171 189 202
176 192 206
165 182 193
161 177 185
79 107 66
78 106 64
76 104 64
78 106 64
83 112 69
82 110 69
77 105 65
80 108 67
81 110 68
79 107 66
83 111 69
78 105 64
79 108 66
82 109 67
78 106 65
83 111 68
105 129 109
168 186 196
171 188 202
176 193 208
172 189 201
169 185 195
175 193 208
170 187 198
172 189 202
172 189 204
174 191 206
160 177 187
171 189 203
168 186 197
168 185 196
175 193 208
166 184 196
173 189 203
79 107 65
77 105 64
82 110 68
79 107 65
82 111 68
78 106 64
79 106 65
81 109 66
82 111 69
77 104 63
77 105 64
80 109 68
79 107 66
79 106 66
81 109 68
78 105 64
76 104 64
156 174 184
175 191 205
180 198 215
172 189 203
176 193 205
172 190 204
168 185 195
174 191 203
179 195 209
169 187 200
163 180 189
173 190 202
160 179 191
171 188 202
165 183 195
166 183 194
173 190 204
168 185 198
83 111 69
101 126 101
110 132 117
127 147 142
135 156 154
144 163 166
151 170 175
162 181 191
166 183 192
174 191 204
173 191 205
172 189 202
161 177 183
173 190 203
171 188 200
165 182 192
161 178 188
129 151 146
80 108 66
76 104 63
76 103 63
84 112 69
79 107 65
80 109 67
81 109 67
80 108 67
79 107 65
79 107 66
76 103 62
81 109 68
79 107 65
81 109 67
76 103 63
77 105 64
79 106 65
155 173 179
176 192 206
164 181 192
169 186 199
176 193 204
168 185 196
175 192 207
168 186 199
176 194 208
174 191 204
161 179 190
169 186 197
169 185 196
162 181 191
167 185 198
171 189 203
166 183 194
166 185 198
79 107 66
79 106 65
80 109 67
80 108 66
81 109 67
81 109 66
82 110 69
78 107 66
80 107 66
78 105 64
80 107 65
79 107 66
78 105 64
79 107 65
83 112 69
79 108 65
78 106 65
80 107 65
167 184 197
176 192 207
159 177 188
168 185 196
174 192 208
175 192 207
164 182 193
165 181 190
162 179 187
172 189 203
171 188 201
172 189 202
175 192 204
167 184 194
177 194 209
170 186 196
166 183 194
165 183 193
79 107 66
79 107 66
76 103 62
78 106 64
82 110 68
78 106 64
77 104 64
77 104 64
81 109 67
77 105 64
75 102 62
81 110 69
77 104 63
77 104 63
82 110 68
76 104 63
77 105 64
81 108 66
172 190 203
167 182 192
171 188 204
164 183 196
164 181 189
168 184 192
155 173 181
147 167 171
130 151 149
113 133 122
109 131 115
99 123 99
96 122 94
81 110 68
84 112 69
79 108 67
80 108 66
115 137 126
173 191 202
166 183 194
177 194 208
169 186 196
171 189 203
172 189 203
167 184 196
175 192 206
172 189 201
169 186 196
167 184 192
165 183 197
161 178 187
176 193 210
172 190 204
170 188 201
172 189 202
80 108 67
79 106 65
78 106 65
80 109 67
75 102 62
79 107 65
82 110 67
77 105 65
81 109 67
78 106 65
79 107 65
77 105 64
79 106 65
82 111 68
76 103 63
83 112 70
80 108 66
137 157 157
167 183 192
171 188 202
167 185 197
166 182 192
172 190 205
172 189 202
177 194 208
176 193 208
176 193 207
179 196 212
176 193 208
168 184 196
173 191 205
162 178 186
169 187 201
177 192 205
148 167 171
80 109 66
82 110 69
82 110 68
80 109 68
78 105 65
84 113 70
82 110 68
77 104 63
79 106 64
79 107 65
81 109 68
76 104 62
78 106 64
80 108 67
76 104 63
78 107 66
167 184 192
166 183 196
167 184 198
168 186 200
170 189 201
170 187 198
166 185 196
178 195 211
159 178 188
161 179 190
172 190 204
168 185 197
171 188 201
174 192 208
170 188 201
176 193 210
159 178 186
82 110 69
79 107 66
81 108 66
83 112 69
78 106 65
78 106 65
85 114 71
80 109 67
79 107 65
82 111 69
81 110 69
81 108 66
79 107 65
79 107 65
113 135 119
154 173 180
80 108 67
80 109 67
80 109 67
82 111 69
80 109 67
81 108 65
80 108 66
83 112 69
78 106 65
83 112 69
77 104 63
81 109 67
81 110 68
80 109 68
84 113 70
169 187 200
172 189 200
173 192 209
178 194 208
174 192 205
173 192 206
174 191 206
171 189 205
177 194 208
170 187 197
171 190 206
167 185 199
173 190 204
167 185 196
169 186 196
84 113 70
82 111 70
84 113 70
80 108 66
81 109 68
80 108 66
79 108 67
81 110 68
81 109 67
82 111 69
105 129 104
172 190 203
179 197 215
174 192 207
173 192 206
176 194 211
177 195 210
170 187 202
177 193 209
175 192 206
176 193 209
179 197 213
174 192 207
176 192 206
178 196 212
164 183 195
78 106 65
82 111 69
84 112 70
84 113 70
84 114 71
83 111 69
85 114 71
84 113 70
79 106 64
79 107 65
79 107 65
83 111 68
84 113 70
78 106 64
79 107 65
156 175 180
174 191 206
147 166 169
92 118 85
79 108 66
79 107 66
82 111 68
77 105 63
82 111 69
75 103 62
80 108 66
79 107 66
78 106 65
80 108 66
80 108 67
79 107 66
128 148 142
163 181 192
169 187 199
175 193 209
163 181 189
172 191 206
178 196 213
170 187 200
177 194 209
172 190 204
169 188 199
172 191 206
171 188 200
175 193 209
171 188 199
166 185 196
173 192 207
83 112 70
80 108 67
83 111 68
82 110 67
79 107 65
80 108 66
82 111 69
76 104 64
79 107 66
79 107 66
80 107 66
78 105 65
81 108 66
83 111 69
80 108 67
75 103 61
81 109 67
175 193 209
173 190 204
167 184 193
174 192 206
160 178 190
173 190 206
165 183 193
166 184 198
167 185 196
173 190 203
177 195 212
170 188 201
168 184 194
181 198 213
165 183 195
165 183 195
170 187 198
86 114 72
79 108 66
83 112 70
81 110 68
82 110 68
77 104 63
77 104 64
80 109 67
84 111 69
77 105 65
77 105 64
77 104 64
80 109 68
83 111 69
80 108 66
80 109 67
77 104 63
102 126 105
167 185 196
161 179 191
158 177 185
164 181 192
178 195 211
163 181 192
161 178 189
165 182 194
168 184 191
171 189 202
174 191 203
167 185 197
173 191 204
170 188 203
172 190 203
170 186 199
167 184 196
113 135 124
80 108 66
77 105 65
82 110 69
77 103 63
78 106 64
78 106 65
79 106 64
82 110 68
83 111 68
76 103 62
81 109 67
80 108 67
83 112 69
82 110 68
79 108 67
80 107 65
79 107 66
172 189 203
164 181 190
164 183 195
156 173 182
141 162 161
140 160 162
128 149 145
125 145 138
117 138 127
110 131 117
104 128 106
97 122 99
84 111 76
78 106 65
80 108 66
80 108 66
81 109 67
81 109 67
168 184 194
164 182 193
177 193 206
170 187 199
164 182 194
168 183 191
155 173 181
173 191 204
163 181 192
165 183 198
163 181 196
168 185 198
168 184 195
169 187 200
167 185 196
176 193 208
160 178 187
169 185 197
82 111 68
75 103 62
75 102 61
82 111 69
79 106 65
78 106 65
78 105 65
77 104 64
77 105 64
76 104 63
75 103 62
79 107 66
76 103 63
76 103 62
78 106 65
77 104 64
80 108 66
79 106 64
161 178 186
168 186 198
170 188 202
167 185 203
172 190 205
171 190 205
168 184 196
161 179 189
167 185 198
174 191 203
171 186 196
164 182 194
173 190 204
167 184 195
166 184 197
160 178 188
165 183 194
173 191 206
87 113 80
84 111 73
88 113 84
99 124 99
103 126 103
125 146 137
119 140 127
120 142 136
133 153 147
147 165 166
149 166 171
159 176 184
163 181 191
175 192 207
170 187 199
163 180 189
166 184 198
171 189 204
81 110 68
79 107 65
78 106 66
74 101 61
82 110 68
77 105 64
79 107 66
78 106 65
78 106 65
79 106 65
80 108 66
82 110 68
78 106 65
78 106 64
75 103 63
78 106 64
78 105 65
77 104 63
148 165 167
169 187 200
168 186 200
173 190 204
170 186 199
168 186 198
173 190 201
172 189 204
169 188 203
165 183 197
168 185 197
175 193 208
173 190 203
170 188 201
171 188 201
173 190 202
175 191 206
162 179 186
78 105 64
79 107 65
80 108 67
82 111 69
82 110 68
81 109 67
79 107 66
81 110 68
81 109 66
80 108 66
78 105 63
81 110 68
76 103 62
79 106 65
78 106 65
81 110 68
83 112 69
175 192 208
168 185 197
159 176 182
170 188 202
166 185 198
169 187 201
170 187 200
164 181 191
171 189 205
172 190 206
169 186 197
173 191 206
178 195 213
172 188 197
169 186 199
163 181 193
168 185 197
97 122 95
78 106 64
80 108 67
81 109 68
80 108 66
82 110 68
77 104 63
80 107 65
83 111 69
81 109 66
81 109 67
80 109 67
79 106 65
81 110 68
78 106 64
78 106 64
79 107 65
166 185 197
162 179 190
169 186 197
167 185 197
176 193 207
165 184 195
174 191 207
172 189 201
172 189 204
171 188 202
170 187 199
169 187 200
169 186 199
170 188 200
166 185 197
168 186 198
154 173 180
79 108 67
77 104 63
79 108 66
77 105 65
82 111 68
82 111 68
82 111 68
77 105 64
80 108 66
125 146 138
165 185 195
171 188 201
171 188 200
174 191 207
180 197 213
159 177 183
82 111 68
84 113 71
84 113 70
78 107 65
78 106 65
75 103 63
82 110 68
80 108 66
80 108 66
80 108 66
79 108 67
80 108 67
83 111 69
83 112 71
79 108 66
165 183 194
173 190 203
173 191 205
172 189 201
177 194 209
174 191 204
177 194 209
175 192 208
182 199 215
171 189 202
181 198 214
173 190 202
174 193 208
173 190 203
179 197 214
83 112 69
80 108 66
79 108 67
80 109 67
81 110 68
84 113 70
83 112 69
82 111 69
127 147 138
162 180 187
173 190 204
176 195 211
175 192 206
175 193 208
173 190 205
170 188 202
173 190 204
178 197 216
173 191 207
170 187 200
165 184 198
176 195 211
171 189 202
158 176 184
80 108 66
83 111 69
82 111 69
81 109 68
82 111 68
84 114 71
81 109 66
80 108 67
82 111 69
85 114 71
83 113 71
83 112 68
77 104 64
82 110 68
81 109 67
155 173 177
167 185 201
181 198 215
177 194 212
166 183 195
173 192 205
179 195 209
150 169 171
107 131 110
78 106 63
82 110 67
84 112 69
78 106 65
82 112 70
82 112 70
81 110 69
131 152 147
181 199 217
160 179 190
173 193 210
168 185 198
174 190 201
173 189 202
178 195 207
172 190 203
179 196 212
170 188 202
169 188 202
166 184 196
171 190 205
176 193 209
165 184 196
169 187 198
86 113 78
80 108 67
79 107 66
81 110 68
79 106 65
80 109 67
78 107 65
80 108 66
81 109 67
80 108 67
79 107 65
82 110 67
81 111 69
83 111 69
81 110 68
76 105 64
81 108 66
160 180 191
173 191 203
166 183 192
169 186 198
174 191 207
169 186 196
167 184 196
176 193 207
165 183 195
174 190 205
166 185 197
175 192 206
174 191 205
172 189 202
168 185 196
179 196 210
166 183 194
156 174 180
82 111 69
80 109 68
82 110 68
78 105 64
80 109 68
81 109 67
83 111 69
81 109 67
80 109 68
82 110 68
78 105 63
80 108 67
78 106 64
82 110 68
79 107 66
78 104 63
80 108 66
162 179 188
168 185 196
173 191 205
168 185 198
172 190 204
168 186 199
168 185 196
164 182 193
162 179 189
165 184 198
156 174 180
183 200 218
170 187 198
167 183 194
174 191 205
167 184 193
173 190 203
162 179 189
80 109 67
83 111 69
79 107 66
81 109 67
77 104 63
80 108 66
80 109 67
78 105 64
79 107 65
78 106 64
79 107 66
82 110 68
84 112 70
78 106 65
78 106 66
78 106 66
75 103 63
79 107 65
176 193 207
165 183 196
167 184 194
170 187 199
177 193 208
165 183 195
175 192 208
172 189 202
169 185 195
167 185 199
162 179 187
169 185 195
175 192 209
171 188 204
169 187 200
173 190 205
165 183 195
178 195 210
78 106 64
85 113 71
76 102 62
76 104 64
77 105 64
77 104 63
78 106 65
71 98 59
77 105 64
80 108 67
79 108 66
81 109 68
82 109 67
79 107 66
81 109 67
77 105 64
80 109 67
75 103 63
172 189 201
165 183 194
167 185 198
167 185 195
165 183 195
168 186 199
170 187 200
172 189 204
172 190 204
174 191 206
173 191 207
172 190 205
166 183 190
168 185 196
166 183 194
171 190 204
166 183 194
168 184 195
86 113 81
80 107 66
78 106 65
84 113 71
80 108 66
78 106 65
78 105 63
80 108 66
79 107 66
80 108 65
80 108 67
80 109 67
81 109 67
78 106 65
79 108 66
81 109 66
75 102 62
79 107 65
145 163 166
170 188 199
171 188 202
170 187 201
173 191 203
162 178 187
165 184 195
170 187 200
170 187 201
169 185 198
172 189 201
168 185 198
174 192 204
166 183 195
171 188 198
163 180 189
171 189 202
172 189 203
119 139 130
75 102 61
79 106 65
80 108 67
80 107 66
76 103 62
80 108 66
79 108 67
80 108 66
73 100 61
79 107 65
78 107 65
80 108 66
82 110 68
80 108 67
80 107 65
82 110 68
78 106 65
148 166 169
169 187 198
172 190 203
162 179 191
177 194 210
174 192 207
161 179 188
166 182 192
175 192 205
163 181 192
172 190 203
168 187 198
172 189 202
167 185 196
168 185 195
169 185 196
164 182 192
172 189 203
86 115 74
79 108 66
82 111 68
84 113 70
78 105 64
78 106 65
81 109 67
81 109 67
77 104 64
78 106 65
75 102 61
76 104 63
77 104 64
76 105 64
83 111 69
80 108 66
80 108 66
89 116 85
172 190 203
172 189 202
164 182 192
177 192 207
163 182 193
172 189 201
165 183 196
181 198 213
172 189 200
171 187 199
165 183 194
164 181 191
176 193 208
169 187 201
173 191 203
179 195 210
178 194 209
80 108 67
79 108 67
80 109 67
79 107 65
78 106 65
82 110 68
80 108 66
76 104 63
78 106 65
79 107 66
80 109 68
79 107 65
80 108 67
78 106 64
79 107 66
80 108 67
82 110 68
173 190 203
162 180 191
174 191 204
172 189 203
169 185 196
164 182 193
175 193 209
176 193 208
163 181 195
170 188 201
160 180 191
167 185 196
170 188 201
181 197 213
174 192 208
175 193 208
138 158 156
80 108 67
81 110 68
79 107 65
83 110 76
132 153 149
161 179 188
176 195 212
168 185 195
176 194 212
181 196 210
177 195 210
169 188 201
175 194 210
175 192 206
171 189 203
144 164 167
81 110 68
79 106 65
82 111 69
78 105 65
75 104 64
81 109 68
84 112 70
84 112 70
83 112 70
82 111 68
81 109 67
80 108 66
81 109 67
79 107 67
79 107 66
174 191 206
167 185 199
170 189 205
178 195 211
170 187 199
166 185 199
175 191 203
177 193 207
169 186 200
171 190 206
167 184 194
177 194 210
178 197 215
174 191 204
169 187 198
84 112 72
79 107 66
83 111 70
81 109 67
83 112 70
85 114 71
153 172 178
173 191 205
178 196 214
179 197 213
171 189 204
176 194 210
170 189 204
175 192 206
182 199 217
170 188 204
173 192 206
171 190 204
173 191 207
173 190 201
180 197 211
145 165 165
82 111 69
78 106 64
83 111 68
81 109 67
83 113 71
85 114 71
84 113 71
80 108 67
80 108 66
79 108 67
78 106 63
80 109 68
81 111 69
83 112 68
81 109 68
147 166 169
173 189 203
175 193 207
163 181 192
173 190 204
172 190 202
177 193 207
172 190 204
173 192 206
174 191 206
175 192 205
173 191 206
163 182 191
121 142 133
89 117 80
78 106 65
111 135 119
165 183 195
163 181 190
170 186 198
171 189 201
165 182 192
168 184 194
176 193 206
176 193 209
173 192 207
177 195 210
166 184 196
173 191 202
174 190 203
163 182 193
169 185 196
176 193 210
114 137 120
81 109 67
81 110 68
76 103 62
78 106 65
77 105 64
83 112 69
75 103 63
80 108 67
84 112 69
79 107 65
80 108 65
78 107 66
82 111 69
83 112 69
78 105 65
80 108 67
124 145 138
171 187 199
171 188 202
164 181 193
164 182 192
166 184 196
169 186 198
168 185 197
171 188 201
174 191 203
170 188 202
167 185 197
172 189 199
165 184 197
166 183 192
166 183 194
172 189 200
172 190 202
82 111 69
79 107 66
79 107 65
83 112 70
77 105 64
81 110 68
81 110 67
79 108 66
78 106 65
76 105 64
79 107 66
82 110 68
80 109 67
77 106 65
79 107 66
79 107 65
81 109 68
106 128 111
172 190 204
167 186 200
163 180 190
168 185 196
166 184 194
168 185 195
170 188 203
172 189 203
166 184 197
175 192 206
166 182 193
169 187 200
169 187 199
168 185 197
164 182 192
170 187 197
175 193 209
148 169 172
81 110 68
79 106 65
80 108 67
81 109 67
80 108 66
79 107 66
80 108 67
78 105 64
77 106 65
79 107 66
80 109 68
76 104 63
80 107 64
81 109 66
77 105 64
79 107 65
80 107 65
98 122 100
171 189 204
148 166 172
176 192 206
163 181 191
165 182 193
170 189 204
172 189 200
174 190 202
163 181 193
177 193 207
166 184 193
164 181 190
171 188 201
171 188 201
164 182 192
168 185 196
169 187 199
173 191 206
78 106 64
80 107 65
81 109 67
79 107 65
78 105 63
81 109 68
78 105 64
78 105 64
79 107 66
83 111 69
79 106 65
79 107 65
81 109 68
77 105 64
75 102 61
80 108 65
78 106 64
79 107 66
165 183 195
175 193 208
162 180 193
174 191 206
168 185 196
164 182 192
172 188 200
161 180 190
159 177 187
169 186 199
178 194 206
170 187 200
169 187 200
165 182 191
175 192 208
167 183 194
175 192 207
176 193 208
104 128 108
77 104 64
84 113 70
80 108 67
79 106 66
79 107 66
79 107 66
81 109 67
79 106 65
81 110 68
80 109 67
78 105 64
77 105 64
81 110 68
78 105 64
79 107 66
78 104 64
80 108 67
115 137 122
169 185 197
167 185 197
169 186 199
172 189 201
172 189 202
163 180 191
172 190 204
160 178 185
172 189 203
171 188 202
176 194 210
171 188 204
164 182 194
171 189 200
169 187 201
158 175 181
168 186 200
163 181 194
80 107 66
77 103 63
78 105 64
76 103 62
79 108 66
79 108 67
82 111 70
80 108 67
84 112 70
76 104 63
82 110 68
83 112 70
79 107 66
78 105 64
77 105 64
76 103 62
80 108 67
78 106 65
172 189 200
164 181 192
165 182 195
172 190 202
172 189 203
171 190 204
175 191 205
167 185 195
171 189 203
155 174 182
166 184 197
169 187 201
171 190 207
171 187 197
173 190 205
165 183 193
171 189 202
158 176 183
77 105 64
78 106 65
82 111 69
81 109 68
83 111 68
79 107 66
80 108 66
84 112 69
78 106 65
79 107 65
80 108 66
81 109 68
79 107 66
76 104 63
84 113 70
82 110 68
85 114 71
146 165 167
171 189 202
166 184 197
174 192 207
175 192 205
176 193 206
173 190 203
166 184 194
168 186 197
169 186 198
172 189 202
176 193 209
167 185 197
165 183 198
177 195 211
175 193 207
178 196 213
165 182 195
79 108 67
76 104 64
76 104 64
78 106 65
80 107 66
79 107 66
76 104 64
81 110 68
82 110 68
76 103 63
81 110 68
80 109 67
79 107 65
83 111 68
82 111 69
78 107 65
90 117 82
172 189 200
170 187 200
176 193 209
173 191 206
170 186 197
171 188 200
170 188 202
171 189 201
178 195 209
156 174 180
167 185 196
171 189 204
170 188 202
174 192 207
173 188 200
154 174 180
134 154 151
163 181 193
167 185 198
168 186 200
165 184 195
171 188 200
173 190 203
170 188 204
172 189 205
168 186 198
168 186 196
173 192 207
169 186 197
174 191 205
166 183 193
178 195 210
160 179 189
77 105 64
83 111 69
84 113 71
78 107 65
84 113 71
82 110 69
81 110 68
83 112 70
81 109 68
79 108 67
83 112 70
84 113 70
81 110 69
78 106 65
82 110 67
164 182 193
168 187 201
176 193 207
168 185 196
167 186 199
178 195 213
174 191 204
166 184 197
176 194 210
172 190 204
175 193 207
177 195 210
163 180 189
183 199 216
176 193 208
101 126 102
83 111 69
82 111 69
80 110 68
151 170 175
176 194 212
179 197 213
178 194 207
175 193 207
176 194 208
175 193 209
176 193 207
174 192 208
175 192 208
176 194 209
175 192 205
169 187 197
174 191 204
168 186 198
141 160 159
81 109 67
80 108 67
79 107 65
81 110 67
81 109 67
80 108 66
81 110 69
84 112 69
82 111 69
82 111 68
82 111 69
80 108 66
80 108 66
84 113 71
79 107 66
152 171 176
175 193 207
163 181 191
179 196 211
167 184 192
173 190 202
170 188 202
175 191 203
175 194 209
169 188 203
177 195 211
174 192 207
172 189 201
171 189 205
174 191 204
173 191 208
173 191 206
82 110 68
113 137 122
155 172 176
169 187 199
171 189 202
164 182 193
171 189 204
171 189 202
173 190 203
167 185 198
167 185 198
172 189 202
178 194 209
180 195 210
182 199 217
178 195 212
152 172 176
80 109 67
80 109 68
80 108 65
83 111 69
80 108 66
83 112 70
79 108 66
81 110 68
81 110 67
82 110 68
78 106 65
82 110 68
84 113 70
79 107 66
80 108 65
79 108 66
82 108 72
180 197 213
177 193 207
172 190 205
174 189 200
171 188 202
176 193 207
171 188 201
176 192 206
172 190 205
171 189 203
177 196 213
175 193 208
159 177 185
168 186 199
158 177 187
163 182 195
170 187 201
115 137 127
82 111 68
81 110 69
80 108 67
78 107 66
75 102 61
75 103 63
82 110 68
77 105 65
76 104 63
80 108 67
77 105 65
82 111 69
79 107 65
80 108 67
85 114 71
78 105 64
77 105 64
166 183 193
165 182 192
164 182 194
170 187 199
171 188 199
170 188 200
172 190 205
167 185 197
176 192 204
169 187 200
168 183 193
173 191 205
170 188 203
166 184 193
165 183 195
167 184 196
166 184 197
171 189 205
81 109 70
77 105 64
79 107 66
79 108 66
75 103 63
82 110 68
78 105 63
78 106 64
80 109 67
80 108 65
83 111 69
77 105 64
78 106 64
80 109 67
75 103 63
79 107 65
79 106 64
82 111 69
147 165 165
170 189 204
170 189 203
165 183 194
171 189 203
166 183 194
173 191 205
167 185 196
173 190 204
172 188 204
168 186 200
173 190 203
174 191 204
166 183 192
166 184 195
161 178 187
167 185 197
165 183 194
163 180 189
76 103 62
84 113 70
81 110 67
79 107 66
81 110 68
79 107 66
80 108 66
80 108 66
80 108 67
79 107 66
76 104 63
83 111 70
79 106 65
80 108 67
84 113 70
76 103 62
78 105 64
76 103 62
166 183 197
169 186 198
166 183 195
171 189 204
173 190 204
169 186 199
177 195 210
163 182 193
165 182 194
170 188 204
170 188 200
168 185 198
167 184 195
167 184 195
169 186 197
166 184 196
177 193 207
166 184 194
124 146 139
82 110 68
73 100 61
81 109 67
80 108 67
82 110 68
81 109 67
82 110 67
79 108 67
80 108 67
79 106 65
83 112 69
81 110 68
79 107 64
79 107 65
79 107 65
80 108 67
79 107 66
80 108 66
168 185 198
168 185 198
162 178 187
162 179 191
170 186 199
167 184 194
175 192 209
167 185 198
171 190 206
172 189 201
178 195 209
166 183 196
173 191 207
176 193 206
174 190 203
171 189 202
171 187 200
171 188 201
74 101 62
79 107 64
79 107 66
80 108 66
80 109 66
75 103 63
80 107 66
81 108 66
79 107 66
77 104 64
80 108 66
78 106 64
82 110 68
80 109 67
82 110 68
83 111 68
79 107 66
82 110 68
159 176 186
175 192 205
164 182 193
172 189 202
169 186 199
166 183 194
175 192 206
169 186 197
164 182 193
168 186 198
162 180 190
165 183 194
177 194 209
174 191 207
165 184 197
166 184 194
171 188 201
163 180 192
82 111 71
80 108 66
78 106 65
80 107 65
81 110 69
83 112 70
79 107 65
80 109 67
77 104 63
77 105 64
76 103 63
76 104 64
80 108 66
84 114 72
82 111 69
77 105 64
78 106 65
81 110 68
166 184 194
168 186 199
177 194 209
164 182 193
176 193 206
170 189 202
167 185 197
172 190 203
163 181 192
170 187 198
169 187 199
174 192 209
166 184 197
166 185 197
173 191 207
176 194 208
167 185 200
118 139 127
76 103 63
79 107 65
79 108 66
74 102 62
79 108 67
81 110 67
80 108 66
78 105 64
82 110 68
80 108 66
82 109 67
79 108 66
79 107 65
83 112 70
80 108 66
82 112 70
115 138 125
169 187 199
168 186 199
177 194 208
166 184 196
169 187 200
178 195 208
171 190 207
171 188 201
172 190 203
160 178 189
139 159 158
82 109 76
79 108 66
76 104 63
79 108 66
80 108 67
156 174 180
168 186 198
172 190 204
171 190 203
178 194 208
172 189 202
171 189 204
173 192 207
169 188 202
167 184 193
166 184 196
172 190 203
168 186 202
176 192 204
175 192 207
173 191 204
150 168 172
81 110 68
81 110 69
82 112 70
83 112 69
78 106 65
83 111 69
78 106 64
81 110 68
79 107 65
81 109 67
82 111 68
81 110 68
81 110 69
79 108 68
85 115 72
157 176 182
165 184 196
178 195 210
173 190 205
173 191 207
168 186 200
179 197 214
177 194 207
169 186 199
178 196 212
176 194 207
171 188 200
177 195 213
170 188 201
175 192 206
80 109 68
81 110 68
169 188 202
170 188 201
178 196 210
172 189 200
169 187 196
171 189 203
181 198 215
174 192 207
177 195 209
169 187 198
175 193 208
174 192 208
179 196 212
173 191 206
164 183 195
131 151 144
80 108 67
82 111 69
82 111 69
81 109 67
83 112 69
83 111 69
82 111 69
81 109 67
80 108 66
80 108 66
78 106 65
79 108 67
85 114 71
80 108 66
83 112 70
144 163 165
168 186 199
176 195 210
172 190 205
181 197 211
172 191 206
172 189 202
172 190 202
167 184 196
171 188 199
170 187 201
170 188 200
173 192 208
173 191 205
175 193 209
175 192 206
178 194 211
81 110 68
83 112 68
80 109 67
81 110 68
84 114 70
81 110 68
82 110 68
124 146 135
159 177 187
170 188 201
165 183 195
176 193 209
177 194 208
172 189 202
177 195 209
165 182 193
170 188 202
74 102 61
76 103 63
80 108 66
81 109 67
82 111 69
80 107 66
79 108 67
79 107 65
83 112 69
79 106 65
81 109 68
85 114 71
77 106 65
78 106 64
82 110 68
82 111 69
81 109 66
174 192 206
169 186 200
172 188 199
172 188 201
166 184 196
175 190 204
168 187 200
173 192 209
176 193 207
173 190 204
163 180 189
177 195 211
160 178 190
170 187 199
178 196 212
178 196 211
172 190 203
171 190 203
82 110 68
78 106 65
79 108 66
80 108 66
79 106 65
77 105 64
81 109 66
80 108 66
79 108 65
80 109 67
78 106 65
82 110 67
82 110 67
80 107 65
82 111 70
80 108 67
82 111 69
95 121 91
164 183 196
172 189 202
173 190 201
167 183 193
169 186 198
174 191 203
168 186 198
177 194 207
171 189 205
157 175 183
179 196 213
174 192 207
170 188 201
161 178 189
174 192 205
175 192 208
168 185 195
169 186 196
81 109 68
79 108 66
82 111 68
74 101 61
77 105 63
78 106 65
79 107 66
81 110 68
82 110 68
80 108 67
78 105 64
78 105 64
79 106 66
79 107 66
79 107 66
77 105 64
81 110 68
81 109 67
175 192 207
168 186 200
169 187 201
170 187 198
174 192 207
164 181 190
164 181 192
168 186 199
164 182 194
159 178 188
171 188 200
173 190 204
162 179 189
169 186 197
169 186 197
165 183 193
174 191 204
169 186 199
144 164 164
82 110 68
83 112 68
79 107 66
81 109 68
77 104 63
80 109 67
82 110 68
76 104 64
81 109 67
82 111 68
78 106 65
80 108 66
80 108 67
80 109 67
79 107 65
76 103 62
78 105 64
78 107 65
174 192 205
173 189 199
172 189 202
169 185 196
172 188 199
174 191 205
168 186 200
168 185 195
173 190 204
168 185 197
167 184 199
173 190 203
174 192 206
171 189 203
168 186 200
166 184 197
170 188 201
164 180 189
124 145 138
82 110 68
82 110 69
82 110 68
79 107 66
82 111 70
81 110 68
80 109 67
78 106 65
80 109 67
81 109 67
79 106 65
78 106 66
77 105 64
79 107 66
81 109 67
81 110 68
81 110 68
79 106 64
167 185 200
177 194 208
172 188 200
168 185 196
167 185 195
177 193 209
167 185 197
156 175 185
168 186 200
166 183 194
172 190 207
168 186 198
167 184 196
179 197 214
173 191 204
158 176 185
174 191 206
172 189 201
108 131 114
78 106 65
81 109 67
79 107 65
81 109 66
79 107 66
76 103 62
79 107 65
82 110 67
80 108 67
83 112 69
75 102 62
78 106 65
85 114 71
79 107 66
78 107 65
80 107 66
80 109 67
105 128 109
170 186 200
163 180 189
172 189 202
171 189 202
175 193 209
170 187 196
172 189 204
169 187 200
170 188 202
174 190 202
161 180 191
166 184 196
183 200 217
173 191 204
165 183 195
172 188 200
171 187 200
156 175 187
82 111 68
81 109 67
80 108 66
81 110 69
85 114 71
84 113 70
80 108 67
79 107 66
76 103 63
82 111 69
82 110 68
77 104 64
84 113 71
80 108 66
78 106 65
78 106 65
80 109 66
116 138 126
179 196 212
171 188 201
174 191 204
171 188 202
169 187 201
166 185 198
171 188 200
177 195 211
177 193 208
173 190 202
169 186 199
167 185 197
169 185 198
174 190 203
169 187 200
171 188 197
172 189 199
89 117 83
81 109 67
82 110 68
78 106 64
81 109 68
82 111 69
81 109 67
84 112 70
84 113 70
83 112 70
83 112 69
77 105 64
78 106 64
80 108 67
80 108 66
81 109 67
80 108 67
139 159 156
174 192 208
176 194 209
173 191 208
166 184 197
128 149 141
91 118 85
82 111 68
75 101 61
80 108 66
84 113 70
80 108 65
81 110 68
78 105 64
81 109 67
84 113 70
80 108 67
156 176 185
176 193 205
170 189 202
173 191 203
169 187 201
170 189 205
172 189 203
168 186 199
170 188 202
174 192 207
169 188 201
169 186 198
176 194 209
168 186 198
168 186 198
171 188 200
163 180 188
83 111 69
81 109 67
83 111 68
79 108 66
85 115 72
78 106 65
81 109 67
81 109 67
78 107 66
83 112 70
81 109 67
83 111 68
81 110 68
80 107 65
85 114 72
128 147 143
164 182 190
175 192 205
168 187 200
169 189 202
173 189 201
171 190 207
175 193 209
176 194 210
166 185 197
171 188 202
172 190 206
170 187 199
175 193 208
84 113 71
174 191 203
179 196 209
171 189 202
175 193 209
170 188 199
172 191 207
172 190 203
170 187 198
173 191 203
174 191 203
178 195 211
176 193 206
176 194 209
180 199 216
175 193 208
128 149 143
81 110 68
80 109 68
83 113 71
80 108 67
84 113 70
80 109 67
82 110 68
82 111 69
83 112 70
83 111 69
82 111 68
81 110 68
81 109 68
82 110 68
77 105 65
144 164 164
171 189 204
162 181 193
176 193 207
171 188 202
175 192 208
172 189 201
178 195 209
176 194 210
170 187 199
170 187 199
177 194 209
172 190 205
175 192 207
169 186 201
178 195 210
181 198 215
77 105 63
82 111 69
79 108 66
84 113 71
83 112 69
84 112 69
81 109 67
82 111 68
81 109 66
77 105 64
80 108 66
82 111 69
78 106 65
106 129 110
140 159 159
171 188 200
161 179 190
82 110 67
78 106 65
80 108 65
80 109 67
82 111 69
79 106 65
82 110 68
81 110 69
82 111 69
80 108 67
82 111 68
81 109 68
81 109 66
78 107 66
78 106 65
76 104 63
78 106 64
136 158 153
171 189 204
172 189 204
165 183 196
159 178 187
174 192 207
173 191 206
166 185 201
165 183 195
170 188 203
166 185 197
170 187 200
165 183 194
170 187 201
176 194 210
168 187 200
173 189 203
169 187 198
85 112 74
84 113 71
79 107 64
81 109 67
82 110 69
83 112 70
82 110 68
82 110 68
80 108 66
79 106 65
80 108 67
81 110 68
80 108 65
77 105 63
79 108 67
79 106 65
81 110 68
82 111 68
165 182 192
169 186 200
169 186 196
165 183 195
170 187 200
167 185 199
172 190 204
175 194 210
169 188 202
165 182 192
172 189 203
174 190 203
172 189 204
170 187 199
178 195 211
175 191 205
174 191 205
168 186 198
132 151 145
77 106 66
80 107 65
82 110 68
79 107 66
77 104 64
78 106 65
84 113 70
77 105 64
80 108 66
81 110 68
83 112 68
78 105 64
79 108 66
78 106 65
82 110 68
79 107 65
75 103 62
84 114 71
166 183 194
169 187 200
170 187 200
175 193 207
175 192 209
172 190 203
167 184 197
174 192 206
173 190 203
165 184 195
167 184 196
169 187 199
167 184 197
172 189 201
171 187 197
163 181 191
173 188 201
170 187 198
114 136 122
75 103 62
81 110 68
83 111 69
79 107 66
79 107 66
80 108 67
81 109 68
76 104 64
80 108 67
79 106 65
78 105 65
79 107 66
79 108 67
75 103 63
78 106 65
79 106 65
82 111 69
80 108 67
174 191 204
174 192 208
164 180 189
168 185 197
172 189 201
159 176 182
162 179 188
168 186 199
174 191 205
169 186 199
169 187 201
168 187 202
172 189 200
179 195 209
169 186 200
166 185 197
164 180 188
168 187 200
154 172 178
76 103 62
78 106 66
79 106 64
84 113 70
78 106 65
81 109 67
81 109 66
81 109 68
80 108 67
81 109 67
81 110 68
84 113 70
80 107 66
72 99 59
80 107 66
78 106 64
82 110 68
80 108 67
172 188 200
169 186 197
166 184 193
169 187 200
167 184 195
170 187 202
175 193 208
174 192 207
179 196 210
174 191 206
171 188 202
170 187 201
175 192 206
170 187 199
167 185 196
176 194 207
168 185 198
170 188 200
162 180 188
82 110 68
79 107 65
79 107 66
80 108 67
82 110 68
76 104 63
80 108 66
76 104 63
79 107 66
80 109 67
80 108 66
82 110 68
80 107 65
79 107 65
80 108 66
79 107 66
82 111 68
78 106 65
169 187 201
172 190 202
169 187 200
177 194 209
175 192 205
168 185 196
178 195 211
167 185 196
165 181 191
160 177 184
173 191 205
178 195 210
167 186 200
166 184 196
175 192 204
178 193 207
168 186 199
171 188 202
82 108 73
82 110 68
76 105 64
81 109 67
82 110 69
76 103 63
80 108 66
78 105 64
80 108 66
75 101 60
78 106 66
77 105 64
84 113 70
77 105 64
81 109 67
81 109 67
80 109 67
81 109 67
161 178 189
165 182 194
169 186 198
172 190 203
168 186 202
178 196 213
177 193 208
171 188 201
162 179 190
165 184 196
174 191 204
177 194 208
170 187 201
165 183 197
170 188 202
167 184 196
169 186 199
173 189 201
82 110 68
81 110 68
78 105 64
80 108 66
81 109 68
85 114 71
79 109 67
78 105 64
79 108 67
80 108 67
82 111 69
80 109 67
81 109 67
84 114 71
80 109 67
123 145 132
137 158 159
111 134 116
80 108 67
79 107 66
80 109 67
84 112 70
77 104 63
85 114 71
78 107 66
78 107 66
81 110 68
79 107 66
84 113 70
83 113 71
77 105 64
78 106 64
83 112 70
81 109 67
173 192 207
177 196 213
173 191 207
177 194 210
173 190 204
176 194 210
169 188 200
169 186 198
166 183 193
173 190 202
175 192 208
182 198 213
187 204 221
182 199 216
168 186 200
179 197 213
154 173 179
82 110 68
83 112 70
85 114 72
84 113 69
82 111 69
80 108 67
81 110 68
80 107 66
82 111 68
82 111 68
83 111 68
85 114 71
83 112 70
81 110 68
80 108 67
126 148 142
176 194 208
175 193 208
164 182 192
170 188 202
170 188 199
172 191 207
169 187 202
176 194 209
174 193 209
170 188 200
175 192 207
176 193 208
129 151 148
177 194 209
181 199 216
174 192 209
182 200 216
176 194 208
169 187 199
167 185 198
175 192 207
175 192 206
171 190 204
176 194 210
182 199 215
174 193 210
176 193 207
107 132 113
81 110 68
84 113 71
77 105 64
77 106 66
83 111 68
83 113 71
86 116 72
82 112 70
80 109 67
81 110 67
83 112 69
82 111 68
82 111 69
82 110 68
82 111 69
139 159 157
174 193 207
174 193 209
178 196 213
178 196 212
172 189 200
175 192 206
176 194 211
177 194 209
173 191 207
176 193 209
175 192 207
179 196 212
170 189 204
172 190 203
173 192 207
170 187 198
84 113 73
81 110 69
83 112 70
83 111 69
79 107 66
80 109 67
77 105 65
74 101 60
81 110 68
82 111 68
81 110 67
84 113 71
81 109 67
79 107 65
79 106 64
80 109 68
83 111 69
163 182 196
173 190 205
173 191 206
140 159 157
112 134 119
82 110 67
78 106 65
79 107 66
80 107 64
83 112 69
78 106 66
81 109 67
84 114 71
81 109 68
84 113 69
82 111 69
83 111 69
93 117 95
178 195 211
170 188 200
172 189 201
172 189 205
167 185 196
167 185 198
172 188 202
170 186 196
176 194 209
178 194 209
171 188 201
171 189 203
174 192 207
166 184 194
172 189 203
179 196 212
168 185 196
153 172 179
81 110 67
81 109 67
77 105 63
76 104 63
79 108 66
82 111 69
81 110 68
77 106 65
80 109 67
76 103 62
86 115 72
79 107 65
80 108 66
80 108 66
80 108 66
83 113 70
83 111 68
98 123 98
165 182 192
172 190 205
173 190 203
171 187 198
175 193 207
178 195 210
171 189 203
169 187 201
171 188 200
173 190 205
168 184 193
164 183 195
167 185 196
170 188 201
167 184 197
167 185 195
163 181 193
173 191 204
79 108 66
80 108 66
78 106 65
77 104 63
78 105 65
79 106 65
79 108 67
78 107 66
82 111 68
77 105 64
79 108 67
77 105 64
78 105 64
76 103 62
82 111 68
79 107 66
82 110 68
79 106 65
116 138 121
170 187 200
168 186 201
164 180 188
171 189 201
163 181 192
171 189 204
173 190 202
170 188 203
169 186 198
175 193 210
163 182 194
169 187 198
172 190 206
171 189 200
170 187 200
166 184 197
175 192 207
171 188 200
79 106 68
82 112 69
80 108 67
79 107 66
80 107 65
78 105 64
77 104 63
78 106 65
84 113 70
77 105 64
80 107 66
80 109 67
81 109 68
76 103 63
81 110 68
80 108 67
77 104 63
80 108 66
85 113 70
171 188 201
163 182 191
166 183 191
172 190 203
166 184 194
176 193 207
165 182 191
166 183 192
172 190 205
169 186 198
168 186 198
169 187 202
169 185 196
163 181 195
170 187 201
165 182 192
165 183 193
171 190 204
154 172 179
80 108 67
81 109 67
83 112 70
77 104 63
79 107 66
83 112 70
78 106 66
77 105 65
80 107 66
82 111 68
77 105 64
79 107 65
78 106 65
84 113 70
79 106 65
79 107 66
79 107 66
82 110 67
160 177 181
171 189 202
177 194 211
169 188 201
179 196 212
169 186 197
168 185 196
166 184 194
168 185 198
171 189 201
165 184 194
177 195 211
173 190 203
164 183 193
173 189 200
173 190 204
164 184 194
176 193 205
171 189 201
81 109 67
81 109 67
81 109 67
79 107 65
78 107 66
81 109 67
78 106 65
79 108 66
84 112 70
81 110 68
82 111 69
80 108 66
82 110 69
73 99 59
79 108 66
80 108 67
85 113 70
83 112 70
134 154 151
170 187 200
169 187 199
171 187 198
175 193 207
175 192 207
167 184 195
168 186 196
176 194 208
169 188 202
172 189 203
167 183 194
179 195 209
163 181 190
166 183 193
165 183 195
157 175 185
174 192 207
150 169 173
80 108 66
81 109 67
77 104 64
80 108 66
79 107 66
80 108 67
79 108 66
81 109 67
80 108 67
80 108 66
82 111 69
80 108 66
75 103 62
82 111 69
82 110 68
81 110 68
82 111 68
82 110 71
174 193 208
174 191 205
178 196 212
166 182 193
174 192 205
174 191 204
176 194 212
177 193 206
167 184 193
160 178 187
166 184 198
176 193 207
173 190 202
173 190 204
170 188 201
179 196 211
175 193 209
159 178 186
81 109 66
76 104 63
80 107 66
81 109 66
78 106 64
82 110 68
81 109 68
78 105 64
110 134 112
122 142 136
157 175 184
173 190 204
172 190 203
173 190 204
172 190 207
178 195 213
171 189 201
82 110 69
81 109 68
78 105 63
79 108 66
82 112 69
82 111 69
83 113 70
83 112 70
82 111 70
78 106 65
80 109 68
81 109 67
80 108 66
80 108 66
81 110 68
81 109 67
83 112 70
174 191 207
173 190 204
168 186 200
177 195 210
167 185 197
181 199 216
167 185 196
171 188 199
176 194 208
171 188 201
174 191 205
172 191 204
178 195 210
168 187 200
175 192 206
172 191 204
160 179 187
84 113 71
84 113 70
87 116 73
81 110 68
80 109 67
83 113 71
76 103 62
80 109 69
82 111 68
84 114 71
82 111 68
81 110 68
85 115 72
77 105 65
84 113 70
129 151 143
168 187 202
176 193 206
170 187 198
182 199 217
179 197 216
173 190 203
170 188 202
179 195 208
174 192 206
181 199 216
153 172 178
